;FLAVOR:Marlin
;TIME:4963
;Filament used: 0.9725m
;Layer height: 0.06
;MINX:85.7
;MINY:85.714
;MINZ:0.3
;MAXX:136.281
;MAXY:136.261
;MAXZ:3
;TARGET_MACHINE.NAME:Unknown
;Generated with Cura_SteamEngine 5.5.0
M140 S60
M105
M190 S60
M104 S200
M105
M109 S200
M82 ;absolute extrusion mode
G28 ;Home
G1 Z15.0 F6000 ;Move the platform down 15mm
;Prime the extruder
G92 E0
G1 F200 E3
G92 E0
G92 E0
G92 E0
G1 F1500 E-6.5
;LAYER_COUNT:46
;LAYER:0
M107
G0 F3600 X94.018 Y92.258 Z0.3
;TYPE:SKIRT
G1 F1500 E0
G1 F1800 X96.215 Y90.47 E0.14132
G1 X97.876 Y89.371 E0.24068
G1 X100.918 Y87.793 E0.41165
G1 X102.676 Y87.106 E0.50582
G1 X106.034 Y86.198 E0.67937
G1 X108.133 Y85.869 E0.78537
G1 X111.238 Y85.714 E0.94047
G1 X114.116 Y85.894 E1.08433
G1 X116.207 Y86.243 E1.1901
G1 X119.302 Y87.105 E1.35038
G1 X121.412 Y87.948 E1.46374
G1 X124.118 Y89.377 E1.61641
G1 X126.331 Y90.873 E1.74968
G1 X127.848 Y92.125 E1.84781
G1 X130.302 Y94.646 E2.02333
G1 X131.479 Y96.146 E2.11846
G1 X133.303 Y99.062 E2.29005
G1 X134.241 Y101.01 E2.39792
G1 X135.28 Y103.908 E2.55151
G1 X135.928 Y106.65 E2.69208
G1 X136.199 Y108.687 E2.7946
G1 X136.281 Y112.091 E2.96448
G1 X136.117 Y114.077 E3.0639
G1 X135.505 Y117.283 E3.22673
G1 X134.672 Y119.975 E3.36732
G1 X133.931 Y121.731 E3.46241
G1 X132.3 Y124.663 E3.6298
G1 X130.82 Y126.739 E3.75699
G1 X128.904 Y128.902 E3.90115
G1 X127.442 Y130.255 E4.00054
G1 X124.634 Y132.335 E4.17487
G1 X123.013 Y133.289 E4.26871
G1 X119.833 Y134.733 E4.44295
G1 X118.064 Y135.318 E4.53591
G1 X114.603 Y136.063 E4.71254
G1 X112.75 Y136.261 E4.80551
G1 X109.25 Y136.261 E4.98012
G1 X107.397 Y136.063 E5.0731
G1 X103.936 Y135.318 E5.24972
G1 X102.167 Y134.733 E5.34268
G1 X98.954 Y133.271 E5.51879
G1 X97.174 Y132.212 E5.62212
G1 X94.781 Y130.43 E5.77098
G1 X92.642 Y128.424 E5.91728
G1 X90.941 Y126.447 E6.04739
G1 X89.674 Y124.64 E6.1575
G1 X88.069 Y121.731 E6.32325
G1 X87.328 Y119.975 E6.41834
G1 X86.319 Y116.583 E6.5949
G1 X85.931 Y114.451 E6.70301
G1 X85.7 Y111.267 E6.86228
G1 X85.753 Y109.36 E6.95745
G1 X86.212 Y105.916 E7.1308
G1 X86.66 Y104.085 E7.22484
G1 X87.856 Y100.786 E7.39991
G1 X88.777 Y98.914 E7.504
G1 X90.273 Y96.504 E7.64551
G1 X92.023 Y94.278 E7.78678
G1 X94.018 Y92.258 E7.92842
G0 F3600 X94.303 Y92.539
G1 F1800 X96.436 Y90.804 E8.0656
G1 X98.097 Y89.705 E8.16496
G1 X101.064 Y88.166 E8.33171
G1 X102.822 Y87.479 E8.42588
G1 X106.096 Y86.593 E8.59509
G1 X108.153 Y86.269 E8.69898
G1 X111.258 Y86.114 E8.85409
G1 X114.05 Y86.289 E8.99365
G1 X116.141 Y86.638 E9.09942
G1 X119.194 Y87.49 E9.25755
G1 X121.225 Y88.302 E9.36668
G1 X123.894 Y89.709 E9.5172
G1 X126.076 Y91.182 E9.64855
G1 X127.593 Y92.434 E9.74668
G1 X129.987 Y94.893 E9.91789
G1 X131.164 Y96.393 E10.01302
G1 X132.964 Y99.274 E10.1825
G1 X133.864 Y101.145 E10.28608
G1 X134.903 Y104.043 E10.43967
G1 X135.531 Y106.703 E10.57603
G1 X135.802 Y108.74 E10.67855
G1 X135.882 Y112.058 E10.84414
G1 X135.718 Y114.044 E10.94356
G1 X135.123 Y117.165 E11.10207
G1 X134.303 Y119.819 E11.24065
G1 X133.562 Y121.575 E11.33574
G1 X131.974 Y124.431 E11.49877
G1 X130.494 Y126.507 E11.62597
G1 X128.632 Y128.608 E11.76603
G1 X127.17 Y129.961 E11.86541
G1 X124.431 Y131.99 E12.03547
G1 X122.81 Y132.944 E12.1293
G1 X119.707 Y134.353 E12.29933
G1 X117.938 Y134.938 E12.39228
G1 X114.561 Y135.665 E12.56462
G1 X112.708 Y135.863 E12.65759
G1 X109.292 Y135.863 E12.82802
G1 X107.439 Y135.665 E12.92099
G1 X104.062 Y134.938 E13.09333
G1 X102.293 Y134.353 E13.18629
G1 X99.159 Y132.927 E13.35807
G1 X97.379 Y131.868 E13.4614
G1 X95.055 Y130.138 E13.60594
G1 X92.916 Y128.132 E13.75225
G1 X91.269 Y126.217 E13.87826
G1 X90.002 Y124.41 E13.98836
G1 X88.438 Y121.575 E14.1499
G1 X87.697 Y119.819 E14.24499
G1 X86.713 Y116.511 E14.41717
G1 X86.325 Y114.379 E14.52528
G1 X86.1 Y111.278 E14.6804
G1 X86.153 Y109.371 E14.77558
G1 X86.601 Y106.011 E14.94469
G1 X87.049 Y104.18 E15.03873
G1 X88.215 Y100.963 E15.20945
G1 X89.136 Y99.091 E15.31353
G1 X90.613 Y96.715 E15.45311
G1 X92.308 Y94.559 E15.58993
G1 X94.303 Y92.539 E15.73158
G0 F3600 X94.588 Y92.82
G1 F1800 X96.657 Y91.138 E15.86461
G1 X98.318 Y90.039 E15.96397
G1 X101.21 Y88.539 E16.12651
G1 X102.968 Y87.852 E16.22067
G1 X106.159 Y86.988 E16.3856
G1 X108.173 Y86.669 E16.48734
G1 X111.278 Y86.514 E16.64244
G1 X113.984 Y86.684 E16.77771
G1 X116.075 Y87.033 E16.88347
G1 X119.046 Y87.862 E17.03736
G1 X121.038 Y88.656 E17.14434
G1 X123.707 Y90.063 E17.29487
G1 X125.821 Y91.491 E17.42214
G1 X127.338 Y92.743 E17.52027
G1 X129.672 Y95.14 E17.68719
G1 X130.849 Y96.64 E17.78231
G1 X132.604 Y99.448 E17.94751
G1 X133.487 Y101.28 E18.04897
G1 X134.526 Y104.178 E18.20257
G1 X135.134 Y106.756 E18.33471
G1 X135.405 Y108.793 E18.43723
G1 X135.483 Y112.025 E18.59853
G1 X135.319 Y114.011 E18.69795
G1 X134.741 Y117.047 E18.85213
G1 X133.934 Y119.663 E18.98871
G1 X133.193 Y121.419 E19.0838
G1 X131.648 Y124.199 E19.24248
G1 X130.194 Y126.242 E19.36758
G1 X128.36 Y128.314 E19.50563
G1 X126.898 Y129.667 E19.60501
G1 X124.228 Y131.645 E19.77079
G1 X122.607 Y132.599 E19.86463
G1 X119.581 Y133.973 E20.03043
G1 X117.812 Y134.558 E20.12339
G1 X114.519 Y135.267 E20.29144
G1 X112.666 Y135.465 E20.38441
G1 X109.334 Y135.465 E20.55065
G1 X107.481 Y135.267 E20.64362
G1 X104.188 Y134.558 E20.81167
G1 X102.419 Y133.973 E20.90463
G1 X99.364 Y132.583 E21.07208
G1 X97.584 Y131.524 E21.17541
G1 X95.329 Y129.846 E21.31564
G1 X93.19 Y127.84 E21.46194
G1 X91.597 Y125.987 E21.58386
G1 X90.33 Y124.18 E21.69396
G1 X88.807 Y121.419 E21.85128
G1 X88.066 Y119.663 E21.94636
G1 X87.107 Y116.439 E22.11417
G1 X86.719 Y114.307 E22.22229
G1 X86.5 Y111.289 E22.37325
G1 X86.553 Y109.382 E22.46843
G1 X86.99 Y106.106 E22.63332
G1 X87.438 Y104.275 E22.72736
G1 X88.574 Y101.14 E22.89372
G1 X89.495 Y99.268 E22.9978
G1 X90.953 Y96.926 E23.13544
G1 X92.593 Y94.84 E23.26782
G1 X94.588 Y92.82 E23.40946
G0 F3600 X94.841 Y93.13
G1 F1800 X96.878 Y91.472 E23.5405
G1 X98.539 Y90.373 E23.63986
G1 X101.356 Y88.912 E23.79818
G1 X103.114 Y88.225 E23.89235
G1 X106.222 Y87.383 E24.053
G1 X108.193 Y87.069 E24.15257
G1 X111.298 Y86.914 E24.30767
G1 X113.918 Y87.079 E24.43864
G1 X116.009 Y87.428 E24.54441
G1 X118.898 Y88.234 E24.69404
G1 X120.851 Y89.01 E24.79889
G1 X123.52 Y90.417 E24.94942
G1 X125.566 Y91.8 E25.07262
G1 X127.083 Y93.052 E25.17075
G1 X129.357 Y95.387 E25.33336
G1 X130.534 Y96.887 E25.42849
G1 X132.244 Y99.622 E25.58941
G1 X133.11 Y101.415 E25.68875
G1 X134.149 Y104.313 E25.84234
G1 X134.737 Y106.809 E25.97028
G1 X135.008 Y108.846 E26.0728
G1 X135.084 Y111.992 E26.2298
G1 X134.92 Y113.978 E26.32922
G1 X134.359 Y116.929 E26.47908
G1 X133.565 Y119.507 E26.61366
G1 X132.824 Y121.263 E26.70875
G1 X131.322 Y123.967 E26.86307
G1 X129.868 Y126.01 E26.98817
G1 X128.088 Y128.02 E27.12212
G1 X126.626 Y129.373 E27.2215
G1 X124.025 Y131.3 E27.383
G1 X122.404 Y132.254 E27.47684
G1 X119.455 Y133.593 E27.63842
G1 X117.686 Y134.178 E27.73137
G1 X114.477 Y134.869 E27.89514
G1 X112.624 Y135.067 E27.98811
G1 X109.376 Y135.067 E28.15016
G1 X107.523 Y134.869 E28.24313
G1 X104.314 Y134.178 E28.4069
G1 X102.545 Y133.593 E28.49985
G1 X99.569 Y132.239 E28.66297
G1 X97.789 Y131.18 E28.76631
G1 X95.602 Y129.554 E28.90227
G1 X93.493 Y127.579 E29.04642
G1 X91.925 Y125.757 E29.16635
G1 X90.658 Y123.95 E29.27645
G1 X89.176 Y121.263 E29.42954
G1 X88.435 Y119.507 E29.52463
G1 X87.501 Y116.367 E29.68807
G1 X87.113 Y114.235 E29.79618
G1 X86.9 Y111.3 E29.943
G1 X86.953 Y109.393 E30.03817
G1 X87.379 Y106.201 E30.19883
G1 X87.827 Y104.37 E30.29288
G1 X88.933 Y101.316 E30.45493
G1 X89.835 Y99.479 E30.55703
G1 X91.293 Y97.137 E30.69466
G1 X92.878 Y95.121 E30.8226
G1 X94.841 Y93.13 E30.96209
G0 F3600 X95.126 Y93.411
G1 F1800 X97.099 Y91.806 E31.08898
G1 X98.76 Y90.707 E31.18835
G1 X101.502 Y89.285 E31.34245
G1 X103.26 Y88.598 E31.43661
G1 X106.285 Y87.778 E31.59298
G1 X108.213 Y87.469 E31.6904
G1 X111.318 Y87.314 E31.8455
G1 X113.852 Y87.474 E31.97217
G1 X115.943 Y87.823 E32.07793
G1 X118.75 Y88.606 E32.22332
G1 X120.703 Y89.382 E32.32817
G1 X123.296 Y90.748 E32.47439
G1 X125.311 Y92.109 E32.5957
G1 X126.828 Y93.361 E32.69383
G1 X129.042 Y95.634 E32.85213
G1 X130.219 Y97.134 E32.94726
G1 X131.884 Y99.796 E33.1039
G1 X132.733 Y101.55 E33.20112
G1 X133.772 Y104.448 E33.35471
G1 X134.34 Y106.862 E33.47844
G1 X134.611 Y108.899 E33.58096
G1 X134.685 Y111.959 E33.73367
G1 X134.521 Y113.945 E33.83309
G1 X133.977 Y116.811 E33.97863
G1 X133.196 Y119.351 E34.1112
G1 X132.455 Y121.107 E34.20629
G1 X130.996 Y123.735 E34.35625
G1 X129.542 Y125.778 E34.48136
G1 X127.816 Y127.726 E34.6112
G1 X126.354 Y129.079 E34.71058
G1 X123.822 Y130.955 E34.8678
G1 X122.201 Y131.909 E34.96164
G1 X119.329 Y133.213 E35.119
G1 X117.56 Y133.798 E35.21196
G1 X114.435 Y134.471 E35.37144
G1 X112.582 Y134.669 E35.46441
G1 X109.418 Y134.669 E35.62226
G1 X107.565 Y134.471 E35.71524
G1 X104.44 Y133.798 E35.87472
G1 X102.671 Y133.213 E35.96768
G1 X99.774 Y131.895 E36.12646
G1 X97.994 Y130.836 E36.22979
G1 X95.875 Y129.262 E36.36149
G1 X93.796 Y127.318 E36.50349
G1 X92.253 Y125.527 E36.62143
G1 X90.986 Y123.72 E36.73153
G1 X89.545 Y121.107 E36.88041
G1 X88.804 Y119.351 E36.97549
G1 X87.895 Y116.295 E37.13456
G1 X87.507 Y114.163 E37.24267
G1 X87.3 Y111.311 E37.38533
G1 X87.353 Y109.404 E37.48051
G1 X87.768 Y106.296 E37.63695
G1 X88.216 Y104.465 E37.73099
G1 X89.292 Y101.492 E37.88873
G1 X90.175 Y99.69 E37.98884
G1 X91.633 Y97.348 E38.12648
G1 X93.163 Y95.402 E38.24998
G1 X95.126 Y93.411 E38.38947
G0 F3600 X95.411 Y93.692
G1 F1800 X97.32 Y92.14 E38.51221
G1 X98.981 Y91.041 E38.61158
G1 X101.648 Y89.658 E38.76146
G1 X103.406 Y88.971 E38.85563
G1 X106.349 Y88.173 E39.00776
G1 X108.233 Y87.869 E39.10297
G1 X111.338 Y87.714 E39.25807
G1 X113.786 Y87.869 E39.38044
G1 X115.877 Y88.218 E39.48621
G1 X118.602 Y88.978 E39.62735
G1 X120.555 Y89.754 E39.73219
G1 X123.072 Y91.08 E39.87413
G1 X125.056 Y92.418 E39.99351
G1 X126.573 Y93.67 E40.09164
G1 X128.727 Y95.881 E40.24564
G1 X129.904 Y97.381 E40.34077
G1 X131.524 Y99.971 E40.49318
G1 X132.356 Y101.685 E40.58823
G1 X133.395 Y104.583 E40.74182
G1 X133.943 Y106.915 E40.86134
G1 X134.214 Y108.952 E40.96386
G1 X134.286 Y111.926 E41.11228
G1 X134.122 Y113.912 E41.2117
G1 X133.595 Y116.694 E41.35296
G1 X132.827 Y119.195 E41.48348
G1 X132.086 Y120.951 E41.57857
G1 X130.67 Y123.503 E41.72418
G1 X129.242 Y125.513 E41.84719
G1 X127.544 Y127.432 E41.97503
G1 X126.082 Y128.785 E42.07441
G1 X123.619 Y130.61 E42.22734
G1 X121.998 Y131.564 E42.32118
G1 X119.203 Y132.833 E42.47432
G1 X117.434 Y133.418 E42.56728
G1 X114.393 Y134.073 E42.72247
G1 X112.54 Y134.271 E42.81545
G1 X109.46 Y134.271 E42.96911
G1 X107.607 Y134.073 E43.06208
G1 X104.566 Y133.418 E43.21728
G1 X102.797 Y132.833 E43.31023
G1 X99.979 Y131.551 E43.46469
G1 X98.199 Y130.492 E43.56802
G1 X96.148 Y128.97 E43.69544
G1 X94.099 Y127.057 E43.8353
G1 X92.581 Y125.297 E43.95125
G1 X91.314 Y123.49 E44.06136
G1 X89.914 Y120.951 E44.20601
G1 X89.173 Y119.195 E44.30109
G1 X88.289 Y116.223 E44.45579
G1 X87.901 Y114.091 E44.5639
G1 X87.7 Y111.322 E44.70241
G1 X87.753 Y109.415 E44.79759
G1 X88.157 Y106.391 E44.9498
G1 X88.605 Y104.56 E45.04384
G1 X89.651 Y101.668 E45.19727
G1 X90.515 Y99.901 E45.2954
G1 X91.973 Y97.559 E45.43304
G1 X93.448 Y95.683 E45.55209
G1 X95.411 Y93.692 E45.69159
G0 F3600 X95.664 Y94.002
G1 F1800 X97.541 Y92.474 E45.81234
G1 X99.202 Y91.375 E45.9117
G1 X101.794 Y90.031 E46.05737
G1 X103.552 Y89.344 E46.15153
G1 X106.413 Y88.568 E46.29942
G1 X108.297 Y88.264 E46.39463
G1 X111.313 Y88.113 E46.54529
G1 X113.72 Y88.264 E46.66561
G1 X115.811 Y88.613 E46.77138
G1 X118.454 Y89.35 E46.90827
G1 X120.407 Y90.126 E47.01311
G1 X122.849 Y91.412 E47.1508
G1 X124.801 Y92.727 E47.26823
G1 X126.318 Y93.979 E47.36636
G1 X128.412 Y96.128 E47.51605
G1 X129.589 Y97.628 E47.61118
G1 X131.164 Y100.146 E47.75935
G1 X131.996 Y101.86 E47.85441
G1 X133.006 Y104.675 E48.00361
G1 X133.546 Y106.968 E48.12114
G1 X133.817 Y109.005 E48.22366
G1 X133.887 Y111.893 E48.36779
G1 X133.723 Y113.879 E48.46721
G1 X133.213 Y116.577 E48.60419
G1 X132.458 Y119.039 E48.73267
G1 X131.717 Y120.795 E48.82776
G1 X130.344 Y123.271 E48.96901
G1 X128.916 Y125.281 E49.09202
G1 X127.272 Y127.138 E49.21575
G1 X125.81 Y128.491 E49.31513
G1 X123.416 Y130.265 E49.46379
G1 X121.795 Y131.219 E49.55763
G1 X119.077 Y132.453 E49.70655
G1 X117.308 Y133.038 E49.79951
G1 X114.351 Y133.675 E49.95042
G1 X112.498 Y133.873 E50.04339
G1 X109.502 Y133.873 E50.19286
G1 X107.649 Y133.675 E50.28583
G1 X104.692 Y133.038 E50.43674
G1 X102.923 Y132.453 E50.5297
G1 X100.184 Y131.207 E50.67982
G1 X98.404 Y130.148 E50.78315
G1 X96.387 Y128.649 E50.90853
G1 X94.402 Y126.796 E51.04401
G1 X92.909 Y125.067 E51.15798
G1 X91.642 Y123.26 E51.26808
G1 X90.283 Y120.795 E51.40851
G1 X89.542 Y119.039 E51.5036
G1 X88.683 Y116.151 E51.65392
G1 X88.295 Y114.019 E51.76203
G1 X88.1 Y111.333 E51.89639
G1 X88.153 Y109.426 E51.99157
G1 X88.546 Y106.486 E52.13955
G1 X88.994 Y104.655 E52.23359
G1 X90.011 Y101.843 E52.38278
G1 X90.855 Y100.112 E52.47886
G1 X92.313 Y97.77 E52.61649
G1 X93.733 Y95.964 E52.73111
G1 X95.664 Y94.002 E52.86845
G0 F3600 X95.949 Y94.283
G1 F1800 X97.762 Y92.808 E52.98505
G1 X99.423 Y91.709 E53.08442
G1 X101.94 Y90.404 E53.22587
G1 X103.698 Y89.717 E53.32003
G1 X106.477 Y88.963 E53.46369
G1 X108.361 Y88.659 E53.5589
G1 X111.288 Y88.512 E53.70511
G1 X113.654 Y88.659 E53.82338
G1 X115.745 Y89.008 E53.92914
G1 X118.306 Y89.722 E54.06178
G1 X120.259 Y90.498 E54.16663
G1 X122.626 Y91.744 E54.30008
G1 X124.546 Y93.036 E54.41554
G1 X126.063 Y94.288 E54.51367
G1 X128.097 Y96.375 E54.65906
G1 X129.274 Y97.875 E54.75418
G1 X130.804 Y100.321 E54.89812
G1 X131.636 Y102.035 E54.99318
G1 X132.617 Y104.767 E55.138
G1 X133.149 Y107.021 E55.25354
G1 X133.42 Y109.058 E55.35606
G1 X133.488 Y111.86 E55.49589
G1 X133.324 Y113.846 E55.59531
G1 X132.82 Y116.502 E55.73019
G1 X132.089 Y118.883 E55.85445
G1 X131.348 Y120.639 E55.94954
G1 X130.018 Y123.039 E56.08643
G1 X128.59 Y125.049 E56.20944
G1 X127 Y126.844 E56.32907
G1 X125.538 Y128.197 E56.42845
G1 X123.213 Y129.92 E56.57283
G1 X121.592 Y130.874 E56.66667
G1 X118.951 Y132.073 E56.81137
G1 X117.182 Y132.658 E56.90433
G1 X114.309 Y133.277 E57.05095
G1 X112.456 Y133.475 E57.14392
G1 X109.544 Y133.475 E57.2892
G1 X107.691 Y133.277 E57.38218
G1 X104.818 Y132.658 E57.5288
G1 X103.049 Y132.073 E57.62176
G1 X100.389 Y130.863 E57.76755
G1 X98.609 Y129.804 E57.87088
G1 X96.66 Y128.356 E57.99202
G1 X94.705 Y126.534 E58.12534
G1 X93.237 Y124.837 E58.23729
G1 X91.97 Y123.03 E58.34739
G1 X90.652 Y120.639 E58.4836
G1 X89.911 Y118.883 E58.57869
G1 X89.077 Y116.079 E58.72464
G1 X88.689 Y113.947 E58.83275
G1 X88.5 Y111.344 E58.96296
G1 X88.553 Y109.437 E59.05814
G1 X88.935 Y106.581 E59.20189
G1 X89.383 Y104.75 E59.29593
G1 X90.371 Y102.018 E59.44087
G1 X91.195 Y100.323 E59.5349
G1 X92.653 Y97.981 E59.67254
G1 X94.018 Y96.245 E59.78271
G1 X95.949 Y94.283 E59.92005
G0 F3600 X96.202 Y94.593
G1 F1800 X97.983 Y93.142 E60.03466
G1 X99.644 Y92.043 E60.13403
G1 X102.086 Y90.777 E60.27126
G1 X103.844 Y90.09 E60.36542
G1 X106.541 Y89.358 E60.50485
G1 X108.425 Y89.054 E60.60005
G1 X111.263 Y88.911 E60.74182
G1 X113.588 Y89.054 E60.85804
G1 X115.679 Y89.403 E60.9638
G1 X118.158 Y90.094 E61.09219
G1 X120.111 Y90.87 E61.19704
G1 X122.403 Y92.076 E61.32625
G1 X124.291 Y93.345 E61.43974
G1 X125.808 Y94.597 E61.53787
G1 X127.782 Y96.622 E61.67896
G1 X128.959 Y98.122 E61.77408
G1 X130.444 Y100.496 E61.91378
G1 X131.276 Y102.21 E62.00884
G1 X132.228 Y104.859 E62.14927
G1 X132.752 Y107.074 E62.26283
G1 X133.023 Y109.111 E62.36535
