;FLAVOR:Marlin
;TIME:4577
;Filament used: 8.41876m
;Layer height: 0.2
;MINX:13.177
;MINY:42.697
;MINZ:0.3
;MAXX:194.074
;MAXY:162.382
;MAXZ:3.5
;TARGET_MACHINE.NAME:Unknown
;Generated with Cura_SteamEngine 5.5.0
M140 S60
M105
M190 S60
M104 S195
M105
M109 S195
M82 ;absolute extrusion mode
G28 ;Home
G1 Z15.0 F6000 ;Move the platform down 15mm
;Prime the extruder
G92 E0
G1 F200 E3
G92 E0
G92 E0
G92 E0
G1 F2400 E-6
;LAYER_COUNT:17
;LAYER:0
M107
M204 S3000
M205 X20 Y20
G0 X27.912 Y48.525 Z0.3
M204 S2000
;TYPE:SKIRT
G1 F2400 E0
G1 F3000 X32.85 Y45.717 E0.4081
G1 X36.97 Y44.147 E0.72485
G1 X41.936 Y43.038 E1.09041
G1 X47.283 Y42.697 E1.47533
G1 X51.213 Y43.005 E1.75853
G1 X56.875 Y44.313 E2.17601
G1 X61.054 Y45.989 E2.49949
G1 X65.127 Y48.335 E2.83717
G1 X69.586 Y51.93 E3.24865
G1 X72.507 Y55.135 E3.56019
G1 X75.509 Y59.604 E3.94696
G1 X77.597 Y64.083 E4.30199
G1 X78.382 Y66.683 E4.49711
G1 X79.085 Y64.995 E4.62847
G1 X80.249 Y63.503 E4.76442
G1 X80.874 Y62.894 E4.82711
G1 X81.074 Y62.733 E4.84556
G1 X82.511 Y60.919 E5.01182
G1 X85.344 Y58.1 E5.29894
G1 X87.986 Y55.983 E5.54216
G1 X91.223 Y53.842 E5.82098
G1 X92.892 Y52.881 E5.95934
G1 X93.899 Y51.715 E6.07002
G1 X95.465 Y50.596 E6.2083
G1 X97.702 Y49.753 E6.38004
G1 X99.81 Y49.647 E6.53167
G1 X100.119 Y49.676 E6.55397
G1 X101.449 Y49.223 E6.65491
G1 X103.18 Y48.701 E6.7848
G1 X104.956 Y48.239 E6.91664
G1 X106.757 Y47.837 E7.04921
G1 X108.498 Y47.518 E7.17637
G1 X109.575 Y47.36 E7.25457
G1 X110.682 Y47.218 E7.33475
G1 X111.728 Y47.123 E7.41021
G1 X112.797 Y47.06 E7.48714
G1 X113.859 Y47.044 E7.56344
G1 X114.845 Y47.074 E7.63431
G1 X115.903 Y47.144 E7.71049
G1 X116.834 Y47.239 E7.77772
G1 X117.928 Y47.393 E7.85709
G1 X119.111 Y47.581 E7.94315
G1 X122.282 Y48.293 E8.17663
G1 X124.417 Y48.986 E8.33789
G1 X127.949 Y50.599 E8.61684
G1 X130.292 Y52.057 E8.8151
G1 X132.676 Y53.975 E9.03492
G1 X134.92 Y56.315 E9.26783
G1 X136.327 Y58.172 E9.43521
G1 X137.97 Y60.932 E9.66597
G1 X139.282 Y63.879 E9.89772
G1 X140.162 Y66.567 E10.10092
G1 X140.387 Y67.404 E10.16319
G1 X140.58 Y68.201 E10.2221
G1 X140.77 Y69.16 E10.29233
G1 X142.399 Y66.809 E10.49782
G1 X145.178 Y63.63 E10.80116
G1 X148.074 Y60.797 E11.09221
G1 X151.4 Y57.863 E11.41084
G1 X155.175 Y54.772 E11.76136
G1 X156.531 Y53.922 E11.87634
G1 X158.341 Y53.36 E12.0125
G1 X159.168 Y53.225 E12.0727
G1 X161.207 Y53.318 E12.21933
G1 X163.264 Y53.939 E12.3737
G1 X164.611 Y54.821 E12.48937
G1 X168.495 Y58.031 E12.85137
G1 X171.871 Y61.029 E13.17574
G1 X174.91 Y64.037 E13.48293
G1 X177.722 Y67.341 E13.79462
G1 X179.795 Y70.4 E14.06009
G1 X181.565 Y74.426 E14.37605
G1 X182.125 Y77.993 E14.63545
G1 X182.243 Y78.971 E14.70622
G1 X182.339 Y81.787 E14.90864
G1 X182.105 Y84.772 E15.12375
G1 X181.269 Y87.732 E15.34472
G1 X186.914 Y87.77 E15.75028
G1 X188.5 Y88.004 E15.86545
G1 X190.834 Y89.184 E16.05334
G1 X192.235 Y90.633 E16.19814
G1 X192.944 Y91.561 E16.28204
G1 X193.608 Y92.865 E16.38717
G1 X194.074 Y94.763 E16.52758
G1 X193.62 Y128.199 E18.9299
G1 X190.429 Y137.007 E19.60293
G1 X184.603 Y144.321 E20.27471
G1 X178.59 Y148.552 E20.80292
G1 X171.689 Y151.201 E21.33397
G1 X171.041 Y151.261 E21.38072
G1 X171.028 Y151.722 E21.41386
G1 X170.514 Y153.916 E21.57574
G1 X169.355 Y155.852 E21.73785
G1 X168.004 Y157.174 E21.87364
G1 X166.364 Y158.182 E22.01194
G1 X164.211 Y158.834 E22.17355
G1 X141.214 Y158.834 E23.8257
G1 X138.965 Y158.307 E23.99165
G1 X137.442 Y157.394 E24.11922
G1 X136.985 Y157.841 E24.16515
G1 X135.345 Y158.849 E24.30344
G1 X133.192 Y159.501 E24.46505
G1 X80.994 Y159.501 E28.21506
G1 X78.745 Y158.974 E28.38101
G1 X77.585 Y158.279 E28.47816
G1 X76.914 Y159.4 E28.57202
G1 X75.563 Y160.722 E28.70781
G1 X73.923 Y161.73 E28.84611
G1 X71.77 Y162.382 E29.00772
G1 X20.344 Y162.382 E32.70226
G1 X18.095 Y161.855 E32.86821
G1 X16.159 Y160.696 E33.03032
G1 X14.837 Y159.345 E33.16611
G1 X13.829 Y157.705 E33.30441
G1 X13.177 Y155.552 E33.46602
G1 X13.177 Y111.209 E36.65171
G1 X13.704 Y108.96 E36.81765
G1 X14.863 Y107.024 E36.97976
G1 X16.214 Y105.702 E37.11556
G1 X17.854 Y104.694 E37.25385
G1 X20.007 Y104.042 E37.41546
G1 X29.636 Y104.042 E38.10723
G1 X28.193 Y103.199 E38.22729
G1 X23.734 Y99.603 E38.63883
G1 X20.814 Y96.398 E38.95031
G1 X17.811 Y91.928 E39.33719
G1 X15.748 Y87.513 E39.68729
G1 X14.407 Y83.07 E40.0207
G1 X13.658 Y77.809 E40.40247
G1 X13.735 Y72.712 E40.76869
G1 X14.537 Y67.886 E41.12016
G1 X15.753 Y63.994 E41.4131
G1 X18.313 Y58.745 E41.83265
G1 X20.795 Y55.16 E42.14591
G1 X24.291 Y51.407 E42.51439
G1 X27.912 Y48.525 E42.84686
M204 S3000
G0 F2400 X28.211 Y48.901
M204 S2000
G1 F3000 X33.021 Y46.166 E43.24438
G1 X37.141 Y44.596 E43.56113
G1 X41.967 Y43.517 E43.9164
G1 X47.245 Y43.176 E44.29637
G1 X51.175 Y43.484 E44.57958
G1 X56.696 Y44.759 E44.98666
G1 X60.875 Y46.435 E45.31013
G1 X64.826 Y48.709 E45.63763
G1 X69.231 Y52.253 E46.0438
G1 X72.152 Y55.458 E46.35534
G1 X75.074 Y59.807 E46.73175
G1 X77.137 Y64.222 E47.08185
G1 X78.413 Y68.449 E47.39906
G1 X78.623 Y67.896 E47.44156
G1 X78.711 Y67.142 E47.49609
G1 X79.504 Y65.238 E47.64427
G1 X80.584 Y63.847 E47.77079
G1 X81.209 Y63.238 E47.83348
G1 X81.415 Y63.076 E47.85231
G1 X82.887 Y61.217 E48.02266
G1 X85.644 Y58.475 E48.30201
G1 X88.286 Y56.358 E48.54523
G1 X91.462 Y54.258 E48.81877
G1 X93.241 Y53.234 E48.96624
G1 X93.333 Y53.105 E48.97762
G1 X94.224 Y52.073 E49.07557
G1 X95.695 Y51.022 E49.20545
G1 X97.801 Y50.228 E49.36715
G1 X99.765 Y50.125 E49.50844
G1 X100.175 Y50.164 E49.53802
G1 X101.588 Y49.683 E49.64526
G1 X103.301 Y49.166 E49.77381
G1 X105.077 Y48.704 E49.90564
G1 X106.844 Y48.309 E50.03572
G1 X108.568 Y47.993 E50.16164
G1 X109.636 Y47.836 E50.23919
G1 X110.726 Y47.696 E50.31814
G1 X111.756 Y47.602 E50.39245
G1 X112.804 Y47.54 E50.46787
G1 X113.845 Y47.524 E50.54267
G1 X114.813 Y47.553 E50.61224
G1 X115.854 Y47.622 E50.68719
G1 X116.785 Y47.717 E50.75442
G1 X117.853 Y47.867 E50.8319
G1 X119.036 Y48.055 E50.91796
G1 X122.134 Y48.75 E51.14606
G1 X124.269 Y49.443 E51.30732
G1 X127.695 Y51.007 E51.57788
G1 X130.038 Y52.465 E51.77614
G1 X132.33 Y54.308 E51.98743
G1 X134.537 Y56.605 E52.21628
G1 X135.944 Y58.462 E52.38366
G1 X137.531 Y61.127 E52.60649
G1 X138.843 Y64.074 E52.83824
G1 X139.698 Y66.692 E53.0361
G1 X139.92 Y67.517 E53.09748
G1 X140.113 Y68.314 E53.15639
G1 X140.282 Y69.148 E53.21753
G1 X140.482 Y70.42 E53.31003
G1 X142.761 Y67.125 E53.59786
G1 X145.514 Y63.973 E53.89851
G1 X148.392 Y61.157 E54.18778
G1 X151.718 Y58.223 E54.50641
G1 X155.43 Y55.179 E54.85129
G1 X156.734 Y54.362 E54.96184
G1 X158.418 Y53.834 E55.08863
G1 X159.195 Y53.707 E55.14519
G1 X161.129 Y53.795 E55.28428
G1 X163.056 Y54.377 E55.4289
G1 X164.348 Y55.223 E55.53984
G1 X168.176 Y58.39 E55.89677
G1 X171.533 Y61.37 E56.21926
G1 X174.544 Y64.348 E56.5235
G1 X177.356 Y67.652 E56.8352
G1 X179.374 Y70.633 E57.09382
G1 X181.101 Y74.561 E57.40208
G1 X181.649 Y78.051 E57.65588
G1 X181.763 Y78.988 E57.7237
G1 X181.86 Y81.75 E57.92225
G1 X181.63 Y84.688 E58.13396
G1 X180.635 Y88.208 E58.39676
G1 X186.844 Y88.245 E58.84283
G1 X188.354 Y88.468 E58.95249
G1 X190.546 Y89.576 E59.12894
G1 X191.854 Y90.924 E59.26388
G1 X192.533 Y91.813 E59.34425
G1 X193.155 Y93.035 E59.44275
G1 X193.593 Y94.818 E59.57466
G1 X193.141 Y128.112 E61.96678
G1 X190.004 Y136.77 E62.62836
G1 X184.272 Y143.967 E63.28935
G1 X178.361 Y148.126 E63.80859
G1 X171.579 Y150.729 E64.33048
G1 X170.561 Y150.823 E64.40392
G1 X170.561 Y151.612 E64.46061
G1 X170.064 Y153.732 E64.61704
G1 X168.974 Y155.553 E64.76951
G1 X167.706 Y156.794 E64.89698
G1 X166.165 Y157.741 E65.02692
G1 X164.141 Y158.354 E65.17885
G1 X141.269 Y158.354 E66.82202
G1 X139.149 Y157.857 E66.97845
G1 X137.371 Y156.791 E67.12738
G1 X136.687 Y157.461 E67.19617
G1 X135.146 Y158.408 E67.32611
G1 X133.122 Y159.021 E67.47804
G1 X81.049 Y159.021 E71.21907
G1 X78.929 Y158.524 E71.3755
G1 X77.42 Y157.62 E71.50188
G1 X76.533 Y159.101 E71.6259
G1 X75.265 Y160.342 E71.75336
G1 X73.724 Y161.289 E71.8833
G1 X71.7 Y161.902 E72.03523
G1 X20.399 Y161.902 E75.72079
G1 X18.279 Y161.405 E75.87723
G1 X16.458 Y160.315 E76.0297
G1 X15.217 Y159.047 E76.15716
G1 X14.27 Y157.506 E76.28711
G1 X13.657 Y155.482 E76.43904
G1 X13.657 Y111.264 E79.61574
G1 X14.154 Y109.144 E79.77217
G1 X15.244 Y107.323 E79.92464
G1 X16.512 Y106.082 E80.05211
G1 X18.053 Y105.135 E80.18205
G1 X20.077 Y104.522 E80.33398
G1 X31.42 Y104.522 E81.14888
G1 X28.494 Y102.825 E81.39189
G1 X24.089 Y99.28 E81.7981
G1 X21.169 Y96.075 E82.10959
G1 X18.246 Y91.724 E82.48616
G1 X16.208 Y87.374 E82.83127
G1 X14.867 Y82.931 E83.16469
G1 X14.138 Y77.816 E83.53587
G1 X14.209 Y72.791 E83.89691
G1 X15.011 Y67.965 E84.24838
G1 X16.185 Y64.204 E84.53143
G1 X18.708 Y59.018 E84.94576
G1 X21.19 Y55.433 E85.25901
G1 X24.59 Y51.783 E85.61738
G1 X28.211 Y48.901 E85.94985
M204 S3000
G0 F2400 X28.51 Y49.277
M204 S2000
G1 F3000 X33.192 Y46.615 E86.33678
G1 X37.312 Y45.045 E86.65353
G1 X41.998 Y43.996 E86.99852
G1 X47.207 Y43.655 E87.37354
G1 X51.137 Y43.963 E87.65675
G1 X56.517 Y45.205 E88.05342
G1 X60.696 Y46.881 E88.37689
G1 X64.525 Y49.083 E88.69422
G1 X68.877 Y52.577 E89.09517
G1 X71.754 Y55.726 E89.40161
G1 X74.639 Y60.011 E89.77272
G1 X76.677 Y64.361 E90.11783
G1 X77.978 Y68.671 E90.44127
G1 X78.218 Y70.314 E90.56056
G1 X79.093 Y68.01 E90.73761
G1 X79.18 Y67.264 E90.79157
G1 X79.923 Y65.481 E90.93034
G1 X80.919 Y64.191 E91.04743
G1 X81.544 Y63.582 E91.11012
G1 X81.754 Y63.421 E91.12913
G1 X83.263 Y61.515 E91.30378
G1 X85.944 Y58.85 E91.57536
G1 X88.586 Y56.733 E91.81858
G1 X91.701 Y54.674 E92.08684
G1 X93.576 Y53.595 E92.24225
G1 X93.696 Y53.419 E92.25756
G1 X94.551 Y52.429 E92.35153
G1 X95.922 Y51.449 E92.4726
G1 X97.901 Y50.703 E92.62455
G1 X99.719 Y50.603 E92.75535
G1 X100.231 Y50.652 E92.7923
G1 X101.727 Y50.143 E92.90583
G1 X103.44 Y49.626 E93.03438
G1 X105.182 Y49.172 E93.16371
G1 X106.931 Y48.781 E93.29246
G1 X108.638 Y48.468 E93.41714
G1 X109.697 Y48.312 E93.49404
G1 X110.77 Y48.174 E93.57176
G1 X111.784 Y48.081 E93.64491
G1 X112.812 Y48.02 E93.7189
G1 X113.831 Y48.004 E93.79211
G1 X114.781 Y48.032 E93.86039
G1 X115.805 Y48.1 E93.93412
G1 X116.736 Y48.195 E94.00135
G1 X117.778 Y48.341 E94.07694
G1 X118.961 Y48.529 E94.163
G1 X121.986 Y49.207 E94.38571
G1 X124.121 Y49.9 E94.54697
G1 X127.441 Y51.415 E94.80915
G1 X129.784 Y52.873 E95.0074
G1 X132.029 Y54.682 E95.21453
G1 X134.154 Y56.895 E95.43495
G1 X135.561 Y58.752 E95.60233
G1 X137.092 Y61.322 E95.81724
G1 X138.404 Y64.269 E96.04899
G1 X139.235 Y66.817 E96.24153
G1 X139.454 Y67.63 E96.30202
G1 X139.643 Y68.409 E96.35961
G1 X139.808 Y69.223 E96.41928
G1 X139.935 Y70.029 E96.4779
G1 X140.029 Y70.845 E96.53691
G1 X140.078 Y71.473 E96.58216
G1 X140.118 Y72.323 E96.6433
G1 X140.768 Y70.851 E96.7589
G1 X143.156 Y67.398 E97.06051
G1 X145.85 Y64.316 E97.35459
G1 X148.728 Y61.5 E97.64387
G1 X152.023 Y58.594 E97.9595
G1 X155.685 Y55.586 E98.29996
G1 X156.936 Y54.802 E98.40602
G1 X158.496 Y54.308 E98.52358
G1 X159.227 Y54.188 E98.5768
G1 X161.043 Y54.271 E98.7074
G1 X162.851 Y54.817 E98.84308
G1 X164.085 Y55.625 E98.94905
G1 X167.857 Y58.749 E99.30091
G1 X171.195 Y61.711 E99.62152
G1 X174.206 Y64.689 E99.92576
G1 X176.958 Y67.921 E100.23073
G1 X178.954 Y70.87 E100.48655
G1 X180.637 Y74.696 E100.78684
G1 X181.173 Y78.109 E101.03504
G1 X181.283 Y79.005 E101.09989
G1 X181.381 Y81.712 E101.2945
G1 X181.154 Y84.606 E101.50305
G1 X180.002 Y88.685 E101.80755
G1 X186.774 Y88.72 E102.29407
G1 X188.208 Y88.932 E102.39821
G1 X190.257 Y89.968 E102.56316
G1 X191.472 Y91.215 E102.68824
G1 X192.124 Y92.069 E102.76543
G1 X192.703 Y93.206 E102.8571
G1 X193.112 Y94.872 E102.98034
G1 X192.662 Y128.026 E105.36241
G1 X189.58 Y136.533 E106.01244
G1 X183.941 Y143.613 E106.6627
G1 X178.132 Y147.7 E107.17297
G1 X171.469 Y150.257 E107.68569
G1 X170.081 Y150.385 E107.78583
G1 X170.081 Y151.558 E107.8701
G1 X169.615 Y153.547 E108.01686
G1 X168.593 Y155.254 E108.15979
G1 X167.409 Y156.412 E108.27877
G1 X165.964 Y157.301 E108.40066
G1 X164.071 Y157.874 E108.54275
G1 X141.323 Y157.874 E110.17701
G1 X139.334 Y157.408 E110.32377
G1 X137.677 Y156.415 E110.46255
G1 X137.369 Y156.121 E110.49314
G1 X136.39 Y157.079 E110.59155
G1 X134.945 Y157.968 E110.71343
G1 X133.052 Y158.541 E110.85552
G1 X81.103 Y158.541 E114.58764
G1 X79.114 Y158.075 E114.7344
G1 X77.459 Y157.084 E114.87298
G1 X77.227 Y156.869 E114.89571
G1 X77.137 Y157.157 E114.91739
G1 X76.152 Y158.802 E115.05513
G1 X74.968 Y159.96 E115.17411
G1 X73.523 Y160.849 E115.296
G1 X71.63 Y161.422 E115.43809
G1 X20.453 Y161.422 E119.11474
G1 X18.464 Y160.956 E119.2615
G1 X16.757 Y159.934 E119.40444
G1 X15.599 Y158.75 E119.52342
G1 X14.71 Y157.305 E119.6453
G1 X14.137 Y155.412 E119.78739
G1 X14.137 Y111.318 E122.95519
G1 X14.603 Y109.329 E123.10195
G1 X15.625 Y107.622 E123.24488
G1 X16.809 Y106.464 E123.36387
G1 X18.254 Y105.575 E123.48575
G1 X20.147 Y105.002 E123.62784
G1 X33.51 Y105.002 E124.58786
G1 X32.503 Y104.593 E124.66595
G1 X28.795 Y102.451 E124.97359
G1 X24.443 Y98.956 E125.37459
G1 X21.567 Y95.807 E125.68097
G1 X18.681 Y91.52 E126.05224
G1 X16.643 Y87.17 E126.39735
G1 X15.342 Y82.863 E126.72059
G1 X14.618 Y77.823 E127.08639
G1 X14.689 Y72.798 E127.44743
G1 X15.469 Y68.107 E127.78906
G1 X16.617 Y64.414 E128.0669
G1 X19.103 Y59.291 E128.47599
G1 X21.585 Y55.706 E128.78925
G1 X24.889 Y52.159 E129.13749
G1 X28.51 Y49.277 E129.46997
M204 S3000
G0 F2400 X28.809 Y49.653
M204 S2000
G1 F3000 X33.363 Y47.064 E129.84632
G1 X37.483 Y45.494 E130.16307
G1 X42.102 Y44.465 E130.50304
G1 X47.169 Y44.134 E130.86784
G1 X51.099 Y44.442 E131.15104
G1 X56.338 Y45.651 E131.53731
G1 X60.517 Y47.327 E131.86079
G1 X64.285 Y49.499 E132.17324
G1 X68.523 Y52.901 E132.56367
G1 X71.356 Y55.994 E132.865
G1 X74.204 Y60.215 E133.23081
G1 X76.242 Y64.565 E133.57592
G1 X77.503 Y68.74 E133.88925
G1 X78.106 Y72.872 E134.18924
G1 X78.562 Y70.76 E134.34447
G1 X79.563 Y68.126 E134.5469
G1 X79.649 Y67.386 E134.60042
G1 X80.342 Y65.724 E134.72979
G1 X81.255 Y64.534 E134.83754
G1 X81.837 Y63.963 E134.89612
G1 X82.092 Y63.767 E134.91922
G1 X83.602 Y61.855 E135.09426
G1 X86.244 Y59.225 E135.36207
G1 X88.886 Y57.108 E135.6053
G1 X91.965 Y55.075 E135.87037
G1 X93.658 Y54.101 E136.01069
G1 X93.899 Y53.976 E136.03019
G1 X94.059 Y53.733 E136.05109
G1 X94.876 Y52.787 E136.14089
G1 X96.152 Y51.875 E136.25357
G1 X98.001 Y51.178 E136.39553
G1 X99.745 Y51.082 E136.52101
G1 X100.285 Y51.141 E136.56004
G1 X101.866 Y50.603 E136.68002
G1 X103.579 Y50.086 E136.80857
G1 X105.287 Y49.64 E136.93539
G1 X107.018 Y49.253 E137.06281
G1 X108.708 Y48.943 E137.18625
G1 X109.758 Y48.788 E137.2625
G1 X110.814 Y48.652 E137.339
G1 X111.813 Y48.56 E137.41107
G1 X112.82 Y48.5 E137.48354
G1 X113.817 Y48.484 E137.55518
G1 X114.749 Y48.511 E137.62216
G1 X115.756 Y48.578 E137.69467
G1 X116.687 Y48.673 E137.7619
G1 X117.703 Y48.815 E137.8356
G1 X118.886 Y49.003 E137.92166
G1 X121.838 Y49.664 E138.13898
G1 X123.973 Y50.357 E138.30024
G1 X127.187 Y51.823 E138.55403
G1 X129.53 Y53.281 E138.75229
G1 X131.683 Y55.015 E138.95089
G1 X133.771 Y57.185 E139.16723
G1 X135.178 Y59.042 E139.33461
G1 X136.653 Y61.517 E139.5416
G1 X137.965 Y64.464 E139.77336
G1 X138.772 Y66.942 E139.96058
G1 X138.988 Y67.743 E140.02018
G1 X139.173 Y68.505 E140.07652
G1 X139.334 Y69.298 E140.13465
G1 X139.458 Y70.084 E140.19182
G1 X139.55 Y70.882 E140.24953
G1 X139.599 Y71.51 E140.29478
G1 X139.648 Y72.542 E140.369
G1 X139.693 Y74.471 E140.50762
G1 X141.188 Y71.088 E140.77334
G1 X143.518 Y67.714 E141.06792
G1 X146.186 Y64.659 E141.35931
G1 X149.046 Y61.86 E141.6468
G1 X152.328 Y58.965 E141.96121
G1 X155.94 Y55.993 E142.29725
