;FLAVOR:Marlin
;TIME:3383
;Filament used: 5.5666m
;Layer height: 0.2
;MINX:40.464
;MINY:38.352
;MINZ:0.3
;MAXX:191.552
;MAXY:184.607
;MAXZ:17.5
;TARGET_MACHINE.NAME:Unknown
;Generated with Cura_SteamEngine 5.5.0
M140 S60
M105
M190 S60
M104 S185
M105
M109 S185
M82 ;absolute extrusion mode
G28 ;Home
G1 Z15.0 F6000 ;Move the platform down 15mm
;Prime the extruder
G92 E0
G1 F200 E3
G92 E0
G92 E0
G92 E0
G1 F4800 E-2.5
;LAYER_COUNT:87
;LAYER:0
M107
M204 S3000
M205 X20 Y20
G0 F2400 X75.949 Y58.12 Z0.3
M204 S2000
;TYPE:SKIRT
G1 F4800 E0
G1 F3000 X79.151 Y54.048 E0.37215
G1 X80.907 Y51.996 E0.56618
G1 X82.715 Y49.979 E0.76078
G1 X84.736 Y47.859 E0.9712
G1 X88.296 Y44.397 E1.32795
G1 X90.491 Y42.421 E1.54013
G1 X91.159 Y41.866 E1.60253
G1 X91.804 Y41.508 E1.65552
G1 X91.627 Y41.307 E1.67476
G1 X91.461 Y40.98 E1.70111
G1 X91.384 Y40.691 E1.7226
G1 X91.403 Y40.241 E1.75495
G1 X91.661 Y39.709 E1.79743
G1 X91.807 Y39.541 E1.81342
G1 X93.505 Y38.735 E1.94845
G1 X94.579 Y38.541 E2.02686
G1 X94.956 Y38.543 E2.05395
G1 X95.319 Y38.658 E2.0813
G1 X95.646 Y38.644 E2.10482
G1 X95.85 Y38.681 E2.11971
G1 X96.257 Y38.891 E2.15261
G1 X96.488 Y39.127 E2.17634
G1 X96.605 Y39.325 E2.19286
G1 X96.705 Y39.738 E2.22339
G1 X96.699 Y40.028 E2.24423
G1 X96.805 Y40.497 E2.27877
G1 X96.748 Y41.544 E2.3541
G1 X96.697 Y41.736 E2.36837
G1 X96.46 Y42.17 E2.4039
G1 X95.806 Y42.92 E2.47539
G1 X95.06 Y43.529 E2.54457
G1 X94.561 Y43.758 E2.58402
G1 X94.151 Y43.782 E2.61352
G1 X93.883 Y43.712 E2.63342
G1 X93.638 Y43.586 E2.65321
G1 X93.391 Y43.345 E2.67801
G1 X93.211 Y43.606 E2.70078
G1 X92.311 Y44.537 E2.79381
G1 X90.755 Y45.912 E2.94299
G1 X90.335 Y46.294 E2.98378
G1 X88.867 Y47.691 E3.12936
G1 X88.442 Y48.08 E3.17076
G1 X86.411 Y50.112 E3.37716
G1 X85.293 Y51.292 E3.49394
G1 X84.172 Y52.516 E3.61318
G1 X82.668 Y54.206 E3.77571
G1 X81.194 Y55.938 E3.9391
G1 X79.451 Y58.124 E4.13995
G1 X78.393 Y59.502 E4.26477
G1 X78.249 Y59.67 E4.28066
G1 X77.906 Y60.114 E4.32097
G1 X76.88 Y61.571 E4.44899
G1 X76.421 Y62.181 E4.50384
G1 X76.135 Y62.632 E4.5422
G1 X75.818 Y63.079 E4.58157
G1 X74.236 Y65.445 E4.78605
G1 X72.326 Y68.541 E5.04739
G1 X72.217 Y68.679 E5.06002
G1 X70.022 Y72.646 E5.38574
G1 X70.361 Y72.626 E5.41014
G1 X70.565 Y72.659 E5.42498
G1 X70.957 Y72.828 E5.45565
G1 X72.462 Y73.894 E5.58815
G1 X72.724 Y74.174 E5.61569
G1 X72.934 Y74.584 E5.64879
G1 X73.198 Y75.643 E5.7272
G1 X73.219 Y76.042 E5.7559
G1 X73.19 Y76.217 E5.76865
G1 X73.023 Y76.612 E5.79946
G1 X72.4 Y77.433 E5.8735
G1 X71.864 Y78.095 E5.93469
G1 X71.667 Y78.632 E5.97578
G1 X71.602 Y79.03 E6.00476
G1 X71.584 Y79.862 E6.06454
G1 X71.431 Y80.376 E6.10307
G1 X71.172 Y80.74 E6.13517
G1 X70.745 Y81.111 E6.1758
G1 X70.454 Y81.448 E6.20779
G1 X70.048 Y82.175 E6.26761
G1 X69.911 Y82.875 E6.31886
G1 X69.887 Y83.153 E6.3389
G1 X69.458 Y84.502 E6.4406
G1 X68.92 Y85.194 E6.50357
G1 X68.666 Y85.805 E6.55111
G1 X68.566 Y86.25 E6.58388
G1 X68.552 Y87.003 E6.63798
G1 X68.38 Y87.526 E6.67754
G1 X67.772 Y88.53 E6.76186
G1 X67.526 Y88.988 E6.79921
G1 X67.341 Y89.526 E6.84008
G1 X67.235 Y90.034 E6.87736
G1 X67.172 Y90.794 E6.93215
G1 X66.832 Y92.096 E7.02882
G1 X66.455 Y92.733 E7.082
G1 X66.194 Y93.368 E7.13133
G1 X66.029 Y94.037 E7.18083
G1 X66.009 Y94.549 E7.21764
G1 X66.052 Y95.232 E7.2668
G1 X66.024 Y95.426 E7.28089
G1 X65.843 Y95.883 E7.3162
G1 X65.546 Y96.322 E7.35428
G1 X65.225 Y96.974 E7.40649
G1 X65.072 Y97.569 E7.45062
G1 X65.066 Y98.29 E7.50242
G1 X65.036 Y99.43 E7.58435
G1 X64.955 Y99.834 E7.61395
G1 X64.645 Y100.364 E7.65806
G1 X64.379 Y101.003 E7.70779
G1 X64.32 Y101.264 E7.72701
G1 X64.287 Y101.81 E7.76631
G1 X64.41 Y102.473 E7.81475
G1 X64.399 Y102.94 E7.84831
G1 X64.355 Y103.12 E7.86163
G1 X64.013 Y103.85 E7.91954
G1 X63.805 Y104.434 E7.96408
G1 X63.69 Y105.113 E8.01355
G1 X63.68 Y105.643 E8.05164
G1 X63.801 Y106.279 E8.09815
G1 X63.795 Y106.669 E8.12617
G1 X63.472 Y107.761 E8.20798
G1 X63.207 Y108.49 E8.26371
G1 X63.121 Y109.143 E8.31102
G1 X63.186 Y109.923 E8.36726
G1 X63.25 Y110.225 E8.38943
G1 X63.263 Y111.187 E8.45855
G1 X63.197 Y111.549 E8.48499
G1 X62.962 Y112.148 E8.53121
G1 X62.866 Y112.794 E8.57813
G1 X62.844 Y113.436 E8.62428
G1 X62.896 Y113.973 E8.66304
G1 X63.061 Y114.973 E8.73586
G1 X63.051 Y115.468 E8.77142
G1 X62.765 Y116.164 E8.82548
G1 X62.646 Y116.632 E8.86018
G1 X62.616 Y116.976 E8.88498
G1 X62.683 Y117.463 E8.9203
G1 X62.919 Y118.315 E8.98381
G1 X62.902 Y119.565 E9.07362
G1 X62.833 Y120.071 E9.11031
G1 X62.824 Y120.613 E9.14926
G1 X62.865 Y121.085 E9.18329
G1 X63.154 Y122.149 E9.2625
G1 X63.151 Y122.531 E9.28995
G1 X63.018 Y123.177 E9.33733
G1 X62.997 Y123.704 E9.37522
G1 X63.025 Y124.279 E9.41658
G1 X63.198 Y124.93 E9.46497
G1 X63.412 Y125.591 E9.51489
G1 X63.38 Y126.566 E9.58497
G1 X63.402 Y127.28 E9.63629
G1 X63.636 Y128.296 E9.71119
G1 X63.8 Y128.697 E9.74232
G1 X64.029 Y129.869 E9.82811
G1 X64.033 Y130.165 E9.84937
G1 X64.086 Y130.936 E9.90489
G1 X64.282 Y131.755 E9.96539
G1 X64.81 Y132.881 E10.05474
G1 X64.9 Y133.251 E10.0821
G1 X64.925 Y133.902 E10.1289
G1 X65.063 Y134.533 E10.1753
G1 X65.349 Y135.148 E10.22403
G1 X65.77 Y135.675 E10.27249
G1 X65.982 Y136.091 E10.30603
G1 X66.027 Y136.275 E10.31964
G1 X66.069 Y137.182 E10.38487
G1 X66.268 Y137.933 E10.44069
G1 X66.656 Y138.618 E10.49724
G1 X67.337 Y140.828 E10.66338
G1 X67.606 Y141.414 E10.70971
G1 X68.482 Y142.756 E10.82484
G1 X68.761 Y143.772 E10.90053
G1 X69.111 Y144.487 E10.95772
G1 X69.554 Y145.044 E11.00885
G1 X69.866 Y145.42 E11.04395
G1 X70.039 Y145.726 E11.06921
G1 X70.227 Y146.411 E11.12024
G1 X70.5 Y146.977 E11.16538
G1 X70.804 Y147.455 E11.20608
G1 X71.445 Y148.202 E11.2768
G1 X72.016 Y149.061 E11.3509
G1 X72.435 Y149.97 E11.42281
G1 X72.999 Y150.708 E11.48954
G1 X74.021 Y151.789 E11.59641
G1 X74.253 Y152.234 E11.63246
G1 X74.533 Y152.742 E11.67414
G1 X74.999 Y153.283 E11.72543
G1 X75.592 Y153.784 E11.78121
G1 X76.322 Y154.776 E11.86969
G1 X76.681 Y155.389 E11.92073
G1 X77.109 Y155.837 E11.96524
G1 X77.523 Y156.192 E12.00442
G1 X78.278 Y156.632 E12.0672
G1 X78.686 Y157.02 E12.10765
G1 X78.996 Y157.58 E12.15363
G1 X79.399 Y158.116 E12.20181
G1 X79.885 Y158.513 E12.24689
G1 X80.505 Y158.86 E12.29794
G1 X80.811 Y159.126 E12.32706
G1 X81.217 Y159.762 E12.38127
G1 X81.842 Y160.453 E12.44821
G1 X82.428 Y160.862 E12.49955
G1 X83.11 Y161.156 E12.5529
G1 X83.443 Y161.39 E12.58214
G1 X84.12 Y162.246 E12.66055
G1 X84.835 Y162.821 E12.72646
G1 X85.291 Y163.079 E12.7641
G1 X86.003 Y163.361 E12.81912
G1 X87.226 Y164.413 E12.93502
G1 X87.919 Y164.805 E12.99222
G1 X88.712 Y165.074 E13.05238
G1 X89.027 Y165.25 E13.0783
G1 X89.71 Y165.909 E13.14648
G1 X90.161 Y166.243 E13.1868
G1 X90.599 Y166.513 E13.22377
G1 X91.111 Y166.737 E13.26392
G1 X91.927 Y166.987 E13.32523
G1 X93.145 Y167.813 E13.43096
G1 X93.757 Y168.138 E13.48074
G1 X94.406 Y168.33 E13.52936
G1 X94.597 Y168.329 E13.54308
G1 X94.851 Y168.399 E13.56201
G1 X96.178 Y169.211 E13.67378
G1 X96.672 Y169.448 E13.71314
G1 X97.073 Y169.588 E13.74365
G1 X97.739 Y169.657 E13.79176
G1 X98.134 Y169.673 E13.82016
G1 X98.612 Y169.798 E13.85565
G1 X98.786 Y169.892 E13.86986
G1 X99.344 Y170.362 E13.92227
G1 X99.974 Y170.688 E13.97323
G1 X100.654 Y170.853 E14.0235
G1 X101.364 Y170.854 E14.07451
G1 X101.866 Y170.976 E14.11163
G1 X102.349 Y171.259 E14.15184
G1 X103.086 Y171.645 E14.21161
G1 X103.824 Y171.838 E14.26642
G1 X104.206 Y171.891 E14.29412
G1 X105.004 Y171.89 E14.35145
G1 X106.594 Y172.444 E14.47242
G1 X107.292 Y172.568 E14.52335
G1 X109.122 Y172.685 E14.65509
G1 X109.876 Y172.926 E14.71195
G1 X110.386 Y173.014 E14.74914
G1 X111.095 Y173.039 E14.8001
G1 X111.491 Y172.938 E14.82946
G1 X111.687 Y172.929 E14.84356
G1 X112.018 Y172.993 E14.86778
G1 X112.561 Y173.195 E14.9094
G1 X113.124 Y173.326 E14.95093
G1 X113.68 Y173.413 E14.99136
G1 X114.206 Y173.378 E15.02923
G1 X115.007 Y173.23 E15.08775
G1 X115.387 Y173.236 E15.11505
G1 X116.772 Y173.541 E15.21694
G1 X117.562 Y173.555 E15.2737
G1 X118.257 Y173.475 E15.32396
G1 X118.958 Y173.255 E15.37675
G1 X119.507 Y173.213 E15.4163
G1 X120.208 Y173.371 E15.46793
G1 X120.723 Y173.4 E15.50498
G1 X121.392 Y173.328 E15.55332
G1 X122.011 Y173.176 E15.59912
G1 X122.955 Y173 E15.6681
G1 X123.886 Y173.092 E15.73531
G1 X124.431 Y173.044 E15.77462
G1 X124.986 Y172.932 E15.81529
G1 X126.408 Y172.506 E15.92194
G1 X127.45 Y172.554 E15.99688
G1 X128.124 Y172.428 E16.04614
G1 X128.743 Y172.25 E16.09241
G1 X129.402 Y171.91 E16.14568
G1 X129.907 Y171.785 E16.18306
G1 X130.59 Y171.816 E16.23218
G1 X131.286 Y171.702 E16.28285
G1 X131.605 Y171.607 E16.30676
G1 X132.975 Y170.997 E16.4145
G1 X133.867 Y170.908 E16.4789
G1 X134.437 Y170.74 E16.52159
G1 X134.885 Y170.547 E16.55663
G1 X135.307 Y170.294 E16.59198
G1 X135.554 Y170.087 E16.61514
G1 X135.736 Y169.992 E16.62988
G1 X136.053 Y169.914 E16.65334
G1 X136.93 Y169.84 E16.71657
G1 X137.637 Y169.639 E16.76937
G1 X138.331 Y169.307 E16.82464
G1 X139.321 Y168.659 E16.90965
G1 X139.608 Y168.532 E16.93219
G1 X140.354 Y168.384 E16.98683
G1 X141.036 Y168.15 E17.03863
G1 X141.53 Y167.849 E17.08019
G1 X142.038 Y167.482 E17.12521
G1 X142.606 Y167.027 E17.1775
G1 X142.938 Y166.851 E17.20449
G1 X143.276 Y166.781 E17.22929
G1 X143.764 Y166.615 E17.26632
G1 X144.457 Y166.217 E17.32374
G1 X145.008 Y165.671 E17.37947
G1 X145.318 Y165.504 E17.40476
G1 X146.187 Y165.218 E17.47049
G1 X146.791 Y164.924 E17.51875
G1 X147.301 Y164.532 E17.56496
G1 X147.705 Y164.152 E17.6048
G1 X147.958 Y163.797 E17.63612
G1 X148.186 Y163.65 E17.65561
G1 X149.496 Y163.072 E17.75848
G1 X150.091 Y162.653 E17.81076
G1 X150.52 Y162.227 E17.85419
G1 X150.84 Y161.872 E17.88853
G1 X151.448 Y161.279 E17.94955
G1 X152.09 Y160.94 E18.0017
G1 X152.549 Y160.629 E18.04153
G1 X153.023 Y160.175 E18.08869
G1 X153.43 Y159.643 E18.13681
G1 X154.38 Y158.819 E18.22716
G1 X155.102 Y158.32 E18.29021
G1 X155.512 Y157.873 E18.33378
G1 X156.276 Y156.84 E18.42609
G1 X156.999 Y156.33 E18.48965
G1 X157.682 Y155.685 E18.55714
G1 X158.063 Y155.091 E18.60784
G1 X158.162 Y154.791 E18.63054
G1 X158.501 Y154.356 E18.67016
G1 X159.411 Y153.658 E18.75255
G1 X159.851 Y153.191 E18.79865
G1 X160.117 Y152.826 E18.83109
G1 X160.422 Y152.274 E18.8764
G1 X160.628 Y151.582 E18.92827
G1 X160.865 Y151.154 E18.96342
G1 X160.995 Y151.01 E18.97736
G1 X161.598 Y150.57 E19.03098
G1 X162.161 Y150 E19.08854
G1 X162.505 Y149.445 E19.13545
G1 X163.15 Y148.141 E19.23997
G1 X163.761 Y147.439 E19.30683
G1 X164.153 Y146.734 E19.36478
G1 X164.369 Y145.976 E19.4214
G1 X164.655 Y145.45 E19.46442
G1 X165.236 Y144.914 E19.52121
G1 X165.568 Y144.444 E19.56255
G1 X165.89 Y143.75 E19.61751
G1 X166.003 Y142.951 E19.67548
G1 X166.234 Y142.435 E19.7161
G1 X166.74 Y141.874 E19.77037
G1 X167.104 Y141.339 E19.81686
G1 X167.411 Y140.659 E19.87046
G1 X167.86 Y138.912 E20.00005
G1 X168.317 Y138.25 E20.05784
G1 X168.572 Y137.722 E20.09996
G1 X168.743 Y137.073 E20.14818
G1 X168.839 Y136.294 E20.20457
G1 X168.944 Y135.954 E20.23013
G1 X169.291 Y135.395 E20.2774
G1 X169.564 Y134.796 E20.32469
G1 X169.707 Y134.262 E20.36441
G1 X169.767 Y133.703 E20.4048
G1 X169.754 Y133.116 E20.44698
G1 X169.881 Y132.548 E20.48879
G1 X170.277 Y131.877 E20.54477
G1 X170.533 Y131.22 E20.59543
G1 X170.634 Y130.669 E20.63567
G1 X170.68 Y129.931 E20.68879
G1 X170.797 Y128.926 E20.76148
G1 X171.07 Y128.085 E20.825
G1 X171.173 Y127.544 E20.86457
G1 X171.18 Y126.921 E20.90933
G1 X171.13 Y126.636 E20.93012
G1 X171.17 Y126.267 E20.95678
G1 X171.592 Y124.861 E21.06224
G1 X171.689 Y124.17 E21.11237
G1 X171.671 Y123.536 E21.15794
G1 X171.501 Y122.637 E21.22367
G1 X171.574 Y122.068 E21.26488
G1 X171.829 Y121.397 E21.31645
G1 X171.905 Y120.66 E21.36968
G1 X171.883 Y120.142 E21.40693
G1 X171.738 Y119.385 E21.4623
G1 X171.803 Y118.218 E21.54627
G1 X171.953 Y117.562 E21.59461
G1 X172.006 Y116.741 E21.65372
G1 X171.905 Y116.063 E21.70297
G1 X171.614 Y115.13 E21.77318
G1 X171.581 Y114.532 E21.81621
G1 X171.811 Y113.711 E21.87746
G1 X171.84 Y113.087 E21.92234
G1 X171.726 Y112.262 E21.98217
G1 X171.405 Y111.439 E22.04563
G1 X171.339 Y111.043 E22.07448
G1 X171.527 Y109.51 E22.18543
G1 X171.442 Y108.836 E22.23424
G1 X171.345 Y108.471 E22.26137
G1 X170.96 Y107.735 E22.32104
G1 X170.829 Y107.206 E22.3602
G1 X170.833 Y106.987 E22.37593
G1 X171.015 Y106.279 E22.42845
G1 X171.094 Y105.731 E22.46823
G1 X171.037 Y104.925 E22.52628
G1 X170.76 Y104.14 E22.58608
G1 X170.39 Y103.538 E22.63684
G1 X170.258 Y103.166 E22.6652
G1 X170.233 Y102.692 E22.6993
G1 X170.365 Y101.979 E22.7514
G1 X170.383 Y101.472 E22.78784
G1 X170.349 Y101.088 E22.81554
G1 X170.152 Y100.382 E22.8682
G1 X169.836 Y99.805 E22.91546
G1 X169.518 Y99.289 E22.959
G1 X169.391 Y98.807 E22.99481
G1 X169.397 Y98.528 E23.01486
G1 X169.545 Y97.745 E23.07211
G1 X169.507 Y97.218 E23.11007
G1 X169.319 Y96.639 E23.1538
G1 X168.913 Y96.044 E23.20555
G1 X168.761 Y95.688 E23.23336
G1 X168.607 Y94.459 E23.32235
G1 X168.557 Y93.776 E23.37154
G1 X168.288 Y92.895 E23.43772
G1 X167.83 Y92.232 E23.49561
G1 X167.666 Y91.796 E23.52908
G1 X167.492 Y90.288 E23.63814
G1 X167.326 Y89.578 E23.69052
G1 X167.057 Y88.988 E23.7371
G1 X166.488 Y88.245 E23.80434
G1 X166.277 Y87.785 E23.84069
G1 X166.239 Y87.587 E23.85518
G1 X166.258 Y86.733 E23.91655
G1 X166.158 Y86.13 E23.96046
G1 X165.969 Y85.515 E24.00668
G1 X165.492 Y84.781 E24.06957
G1 X164.843 Y83.614 E24.1655
G1 X164.723 Y83.253 E24.19283
G1 X164.682 Y82.628 E24.23783
G1 X164.5 Y82.037 E24.28226
G1 X164.188 Y81.447 E24.3302
G1 X163.654 Y80.898 E24.38523
G1 X163.555 Y80.747 E24.3982
G1 X163.394 Y80.331 E24.43024
G1 X163.243 Y79.468 E24.49319
G1 X163.099 Y78.884 E24.5364
G1 X162.84 Y78.355 E24.57871
G1 X162.585 Y77.992 E24.61058
G1 X162.013 Y77.448 E24.66729
G1 X161.757 Y77.055 E24.70099
G1 X161.645 Y76.685 E24.72876
G1 X161.508 Y75.149 E24.83955
G1 X161.552 Y74.735 E24.86946
G1 X161.682 Y74.386 E24.89621
G1 X161.838 Y74.188 E24.91432
G1 X163.309 Y73.1 E25.04577
G1 X163.738 Y72.801 E25.08334
G1 X164.251 Y72.61 E25.12266
G1 X164.623 Y72.623 E25.1494
G1 X163.77 Y71.007 E25.28068
G1 X163.529 Y70.61 E25.31405
G1 X162.451 Y68.722 E25.47024
G1 X161.602 Y67.335 E25.58707
G1 X161.303 Y66.825 E25.62954
G1 X159.964 Y64.731 E25.8081
G1 X159.46 Y63.967 E25.87386
G1 X158.226 Y62.174 E26.03023
G1 X156.788 Y60.176 E26.20708
G1 X155.02 Y57.855 E26.41669
G1 X154.921 Y57.71 E26.42931
G1 X153.898 Y56.485 E26.54396
G1 X153.197 Y55.618 E26.62406
G1 X151.584 Y53.7 E26.80411
G1 X151.331 Y53.439 E26.83022
G1 X150.248 Y52.234 E26.94661
G1 X150.03 Y51.972 E26.9711
G1 X149.599 Y51.541 E27.01489
G1 X149.458 Y51.375 E27.03054
G1 X147.739 Y49.573 E27.20945
G1 X147.356 Y49.217 E27.24702
G1 X146.239 Y48.099 E27.36056
G1 X145.12 Y47.039 E27.47129
G1 X144.051 Y46.045 E27.57616
G1 X142.129 Y44.306 E27.76237
G1 X141.811 Y44.028 E27.79272
G1 X141.321 Y43.474 E27.84585
G1 X141.213 Y43.302 E27.86044
G1 X141.045 Y43.474 E27.87771
G1 X140.813 Y43.625 E27.8976
G1 X140.417 Y43.731 E27.92705
G1 X140.222 Y43.733 E27.94106
G1 X139.851 Y43.66 E27.96823
G1 X139.638 Y43.559 E27.98516
G1 X138.383 Y42.522 E28.10212
G1 X137.679 Y41.404 E28.19704
G1 X137.54 Y41.053 E28.22416
G1 X137.513 Y40.625 E28.25497
G1 X137.669 Y40.141 E28.2915
G1 X138.414 Y38.916 E28.39451
G1 X138.669 Y38.634 E28.42182
G1 X139.062 Y38.413 E28.45421
G1 X139.233 Y38.368 E28.46691
G1 X139.618 Y38.352 E28.4946
G1 X140.704 Y38.516 E28.5735
G1 X142.677 Y39.266 E28.72514
G1 X143.296 Y39.644 E28.77725
G1 X143.644 Y39.922 E28.80925
G1 X143.8 Y40.148 E28.82898
G1 X143.904 Y40.403 E28.84876
G1 X143.933 Y40.813 E28.87829
G1 X143.88 Y41.082 E28.89799
G1 X143.624 Y41.511 E28.93388
G1 X143.286 Y41.765 E28.96425
G1 X144.075 Y42.327 E29.03384
G1 X146.149 Y44.192 E29.23423
G1 X148.191 Y46.119 E29.43594
G1 X150.116 Y48.044 E29.63152
G1 X152.112 Y50.158 E29.84039
G1 X153.782 Y52.013 E30.01971
G1 X155.532 Y54.072 E30.21384
G1 X157.234 Y56.176 E30.40826
G1 X159.008 Y58.508 E30.61876
G1 X161.861 Y62.573 E30.97555
G1 X163.452 Y65.025 E31.18553
G1 X164.958 Y67.519 E31.39484
G1 X166.194 Y69.683 E31.57388
G1 X167.473 Y72.066 E31.76818
G1 X168.688 Y74.482 E31.96246
G1 X169.925 Y77.119 E32.17172
G1 X170.689 Y78.862 E32.30844
G1 X170.904 Y79.387 E32.34919
