;FLAVOR:Marlin
;TIME:5410
;Filament used: 8.62624m
;Layer height: 0.3
;MINX:81.687
;MINY:76.207
;MINZ:0.3
;MAXX:150.301
;MAXY:145.792
;MAXZ:39.9
;TARGET_MACHINE.NAME:Unknown
;Generated with Cura_SteamEngine 5.6.0
M140 S60
M105
M190 S60
M104 S200
M105
M109 S200
M82 ;absolute extrusion mode
G28 ;Home
G1 Z15.0 F6000 ;Move the platform down 15mm
;Prime the extruder
G92 E0
G1 F200 E3
G92 E0
G92 E0
G92 E0
G1 F1500 E-6.5
;LAYER_COUNT:133
;LAYER:0
M107
;MESH:BaseperSoldar.stl
G0 F3600 X140.281 Y145.392 Z0.3
;TYPE:WALL-INNER
G1 F1500 E0
G1 F1800 X140.847 Y145.312 E0.02852
G1 X141.615 Y145.09 E0.0684
G1 X141.967 Y144.935 E0.08759
G1 X142.633 Y144.528 E0.12653
G1 X142.938 Y144.28 E0.14614
G1 X143.497 Y143.68 E0.18706
G1 X143.724 Y143.358 E0.20671
G1 X144.114 Y142.588 E0.24977
G1 X144.25 Y142.184 E0.27104
G1 X144.374 Y141.635 E0.29912
G1 X149.901 Y81.332 E3.32026
G1 X149.878 Y80.475 E3.36303
G1 X149.694 Y79.642 E3.40559
G1 X149.361 Y78.878 E3.44717
G1 X148.944 Y78.253 E3.48465
G1 X148.689 Y77.963 E3.50392
G1 X148.074 Y77.43 E3.54452
G1 X147.727 Y77.205 E3.56515
G1 X147.005 Y76.871 E3.60484
G1 X146.245 Y76.669 E3.64408
G1 X145.717 Y76.607 E3.6706
G1 X86.457 Y76.607 E6.62709
G1 X85.585 Y76.704 E6.67087
G1 X84.774 Y76.957 E6.71325
G1 X84.074 Y77.329 E6.7528
G1 X83.773 Y77.546 E6.77131
G1 X83.199 Y78.085 E6.81059
G1 X82.7 Y78.771 E6.85292
G1 X82.356 Y79.496 E6.89295
G1 X82.24 Y79.861 E6.91206
G1 X82.102 Y80.649 E6.95197
G1 X82.087 Y81.137 E6.97633
G1 X87.637 Y141.757 E10.01332
G1 X87.82 Y142.408 E10.04706
G1 X88.15 Y143.145 E10.08734
G1 X88.641 Y143.849 E10.13017
G1 X88.914 Y144.141 E10.15011
G1 X89.523 Y144.638 E10.18933
G1 X90.224 Y145.023 E10.22923
G1 X90.579 Y145.161 E10.24823
G1 X91.356 Y145.346 E10.28808
G1 X91.787 Y145.387 E10.30968
G1 X140.281 Y145.392 E12.72905
G0 F3600 X140.268 Y145.079
G0 X145.315 Y76.906
G0 X145.332 Y76.207
;TYPE:WALL-OUTER
G1 F1800 X86.435 Y76.207 E15.66744
G1 X85.503 Y76.31 E15.71422
G1 X84.619 Y76.587 E15.76043
G1 X83.862 Y76.989 E15.8032
G1 X83.518 Y77.237 E15.82435
G1 X82.898 Y77.819 E15.86678
G1 X82.354 Y78.566 E15.91288
G1 X81.983 Y79.349 E15.95611
G1 X81.85 Y79.765 E15.9779
G1 X81.703 Y80.609 E16.02064
G1 X81.687 Y81.149 E16.04759
G1 X87.242 Y141.83 E19.08764
G1 X87.443 Y142.544 E19.12464
G1 X87.8 Y143.343 E19.1683
G1 X88.329 Y144.101 E19.21442
G1 X88.64 Y144.434 E19.23715
G1 X89.298 Y144.971 E19.27952
G1 X90.054 Y145.387 E19.32257
G1 X90.46 Y145.544 E19.34429
G1 X91.291 Y145.742 E19.38691
G1 X91.768 Y145.787 E19.41081
G1 X140.312 Y145.792 E21.83268
G1 X140.931 Y145.704 E21.86388
G1 X141.752 Y145.467 E21.90651
G1 X142.153 Y145.29 E21.92838
G1 X142.865 Y144.856 E21.96998
G1 X143.212 Y144.573 E21.99232
G1 X143.808 Y143.933 E22.03595
G1 X144.068 Y143.565 E22.05843
G1 X144.484 Y142.743 E22.10439
G1 X144.636 Y142.292 E22.12813
G1 X144.77 Y141.698 E22.15851
G1 X150.301 Y81.345 E25.18215
G1 X150.277 Y80.426 E25.22802
G1 X150.076 Y79.518 E25.27442
G1 X149.713 Y78.686 E25.3197
G1 X149.262 Y78.009 E25.36029
G1 X148.971 Y77.679 E25.38224
G1 X148.315 Y77.11 E25.42556
G1 X147.921 Y76.854 E25.449
G1 X147.141 Y76.493 E25.49188
G1 X146.32 Y76.275 E25.53426
G1 X145.847 Y76.219 E25.55803
G1 X145.332 Y76.207 E25.58373
G0 F3600 X145.132 Y76.207
G0 X145.132 Y76.907
G0 X140.251 Y145.012
;TYPE:SKIN
G1 F1800 X91.809 Y145.007 E28.00051
G1 X91.418 Y144.969 E28.02011
G1 X90.69 Y144.797 E28.05743
G1 X90.383 Y144.678 E28.07385
G1 X89.736 Y144.323 E28.11067
G1 X89.179 Y143.867 E28.14659
G1 X88.938 Y143.609 E28.1642
G1 X88.478 Y142.949 E28.20433
G1 X88.176 Y142.272 E28.24132
G1 X88.013 Y141.693 E28.27133
G1 X82.469 Y81.13 E31.30546
G1 X82.481 Y80.682 E31.32782
G1 X82.609 Y79.959 E31.36445
G1 X82.709 Y79.642 E31.38104
G1 X83.032 Y78.959 E31.41873
G1 X83.48 Y78.345 E31.45665
G1 X84.021 Y77.838 E31.49364
G1 X84.272 Y77.654 E31.50917
G1 X84.924 Y77.309 E31.54597
G1 X85.66 Y77.078 E31.58445
G1 X86.483 Y76.987 E31.62576
G1 X145.696 Y76.988 E34.57991
G1 X146.18 Y77.045 E34.60422
G1 X146.87 Y77.227 E34.63983
G1 X147.542 Y77.539 E34.67679
G1 X147.844 Y77.735 E34.69475
G1 X148.42 Y78.235 E34.73281
G1 X148.645 Y78.491 E34.74981
G1 X149.025 Y79.06 E34.78395
G1 X149.328 Y79.753 E34.82168
G1 X149.499 Y80.523 E34.86103
G1 X149.519 Y81.314 E34.90051
G1 X143.998 Y141.569 E37.91923
G1 X143.833 Y142.303 E37.95677
G1 X143.399 Y143.155 E38.00447
G1 X143.202 Y143.437 E38.02163
G1 X142.673 Y144.006 E38.06039
G1 X142.41 Y144.221 E38.07734
G1 X141.796 Y144.595 E38.11321
G1 X141.483 Y144.733 E38.13027
G1 X140.774 Y144.937 E38.16708
G1 X140.251 Y145.012 E38.19344
G0 F3600 X88.903 Y143.209
G1 F1800 X89.85 Y144.156 E38.26026
G1 X89.92 Y144.226
G0 F3600 X90.9 Y144.64
G1 F1800 X88.326 Y142.066 E38.44187
G0 F3600 X88.183 Y141.357
G1 F1800 X91.611 Y144.785 E38.68373
G0 F3600 X92.197 Y144.806
G1 F1800 X88.126 Y140.734 E38.971
G0 F3600 X88.069 Y140.112
G1 F1800 X92.763 Y144.806 E39.30218
G0 F3600 X93.328 Y144.806
G1 F1800 X88.012 Y139.489 E39.67729
G0 F3600 X87.954 Y138.866
G1 F1800 X93.894 Y144.806 E40.09639
G0 F3600 X94.46 Y144.806
G1 F1800 X87.898 Y138.244 E40.55938
G0 F3600 X87.841 Y137.621
G1 F1800 X95.025 Y144.806 E41.06628
G0 F3600 X95.591 Y144.806
G1 F1800 X87.784 Y136.999 E41.61711
G0 F3600 X87.727 Y136.376
G1 F1800 X96.157 Y144.806 E42.21189
G0 F3600 X96.723 Y144.806
G1 F1800 X87.669 Y135.753 E42.85066
G0 F3600 X87.613 Y135.13
G1 F1800 X97.288 Y144.806 E43.53332
G0 F3600 X97.854 Y144.806
G1 F1800 X87.556 Y134.507 E44.25994
G0 F3600 X87.498 Y133.885
G1 F1800 X98.42 Y144.806 E45.03051
G0 F3600 X98.986 Y144.806
G1 F1800 X87.442 Y133.262 E45.845
G0 F3600 X87.384 Y132.639
G1 F1800 X99.552 Y144.806 E46.70348
G0 F3600 X100.117 Y144.806
G1 F1800 X87.328 Y132.017 E47.60581
G0 F3600 X87.271 Y131.394
G1 F1800 X100.683 Y144.806 E48.5521
G0 F3600 X101.249 Y144.806
G1 F1800 X87.213 Y130.771 E49.54238
G0 F3600 X87.157 Y130.149
G1 F1800 X101.814 Y144.806 E50.57651
G0 F3600 X102.38 Y144.806
G1 F1800 X87.099 Y129.526 E51.65464
G0 F3600 X87.042 Y128.903
G1 F1800 X102.946 Y144.806 E52.77671
G0 F3600 X103.511 Y144.806
G1 F1800 X86.986 Y128.281 E53.94264
G0 F3600 X86.928 Y127.658
G1 F1800 X104.078 Y144.807 E55.15263
G0 F3600 X104.644 Y144.807
G1 F1800 X86.871 Y127.035 E56.40658
G0 F3600 X86.815 Y126.413
G1 F1800 X105.209 Y144.807 E57.70437
G0 F3600 X105.775 Y144.807
G1 F1800 X86.757 Y125.79 E59.04616
G0 F3600 X86.701 Y125.167
G1 F1800 X106.341 Y144.807 E60.43187
G0 F3600 X106.906 Y144.807
G1 F1800 X86.643 Y124.544 E61.86153
G0 F3600 X86.586 Y123.921
G1 F1800 X107.472 Y144.807 E63.33515
G0 F3600 X108.038 Y144.807
G1 F1800 X86.53 Y123.299 E64.85266
G0 F3600 X86.472 Y122.676
G1 F1800 X108.603 Y144.807 E66.41412
G0 F3600 X109.169 Y144.807
G1 F1800 X86.415 Y122.053 E68.01954
G0 F3600 X86.358 Y121.431
G1 F1800 X109.735 Y144.807 E69.66888
G0 F3600 X110.301 Y144.808
G1 F1800 X86.301 Y120.808 E71.36221
G0 F3600 X86.245 Y120.186
G1 F1800 X110.867 Y144.808 E73.09942
G0 F3600 X111.432 Y144.808
G1 F1800 X86.187 Y119.563 E74.88059
G0 F3600 X86.13 Y118.94
G1 F1800 X111.998 Y144.808 E76.70572
G0 F3600 X112.564 Y144.808
G1 F1800 X86.073 Y118.318 E78.57477
G0 F3600 X86.016 Y117.695
G1 F1800 X113.13 Y144.808 E80.48777
G0 F3600 X113.695 Y144.808
G1 F1800 X85.959 Y117.072 E82.44469
G0 F3600 X85.902 Y116.449
G1 F1800 X114.261 Y144.808 E84.44558
G0 F3600 X114.827 Y144.808
G1 F1800 X85.845 Y115.826 E86.49041
G0 F3600 X85.788 Y115.203
G1 F1800 X115.392 Y144.808 E88.57917
G0 F3600 X115.958 Y144.808
G1 F1800 X85.731 Y114.581 E90.71185
G0 F3600 X85.674 Y113.958
G1 F1800 X116.524 Y144.809 E92.88852
G0 F3600 X117.09 Y144.809
G1 F1800 X85.617 Y113.336 E95.10911
G0 F3600 X85.56 Y112.713
G1 F1800 X117.656 Y144.809 E97.37365
G0 F3600 X118.221 Y144.809
G1 F1800 X85.503 Y112.09 E99.68212
G0 F3600 X85.446 Y111.468
G1 F1800 X118.787 Y144.809 E102.03451
G0 F3600 X119.353 Y144.809
G1 F1800 X85.389 Y110.845 E104.43085
G0 F3600 X85.332 Y110.222
G1 F1800 X119.918 Y144.809 E106.87112
G0 F3600 X120.484 Y144.809
G1 F1800 X85.275 Y109.6 E109.3553
G0 F3600 X85.218 Y108.977
G1 F1800 X121.05 Y144.809 E111.88344
G0 F3600 X121.616 Y144.809
G1 F1800 X85.161 Y108.354 E114.45554
G0 F3600 X85.104 Y107.731
G1 F1800 X122.182 Y144.809 E117.07159
G0 F3600 X122.748 Y144.809
G1 F1800 X85.047 Y107.108 E119.7316
G0 F3600 X84.99 Y106.486
G1 F1800 X123.313 Y144.809 E122.4355
G0 F3600 X123.879 Y144.809
G1 F1800 X84.933 Y105.863 E125.18335
G0 F3600 X84.876 Y105.24
G1 F1800 X124.445 Y144.809 E127.97515
G0 F3600 X125.01 Y144.809
G1 F1800 X84.819 Y104.618 E130.81085
G0 F3600 X84.762 Y103.995
G1 F1800 X125.576 Y144.809 E133.69049
G0 F3600 X126.142 Y144.809
G1 F1800 X84.705 Y103.372 E136.6141
G0 F3600 X84.648 Y102.75
G1 F1800 X126.707 Y144.809 E139.58159
G0 F3600 X127.273 Y144.809
G1 F1800 X84.591 Y102.127 E142.59303
G0 F3600 X84.534 Y101.505
G1 F1800 X127.839 Y144.809 E145.6484
G0 F3600 X128.405 Y144.81
G1 F1800 X84.477 Y100.882 E148.74776
G0 F3600 X84.42 Y100.259
G1 F1800 X128.971 Y144.81 E151.89107
G0 F3600 X129.537 Y144.81
G1 F1800 X84.363 Y99.637 E155.07831
G0 F3600 X84.306 Y99.014
G1 F1800 X130.102 Y144.81 E158.30946
G0 F3600 X130.668 Y144.81
G1 F1800 X84.248 Y98.391 E161.58461
G0 F3600 X84.192 Y97.768
G1 F1800 X131.234 Y144.81 E164.90367
G0 F3600 X131.799 Y144.81
G1 F1800 X84.135 Y97.145 E168.26666
G0 F3600 X84.078 Y96.523
G1 F1800 X132.365 Y144.81 E171.67357
G0 F3600 X132.931 Y144.81
G1 F1800 X84.021 Y95.9 E175.12444
G0 F3600 X83.963 Y95.277
G1 F1800 X133.496 Y144.81 E178.61926
G0 F3600 X134.062 Y144.81
G1 F1800 X83.907 Y94.655 E182.15796
G0 F3600 X83.85 Y94.032
G1 F1800 X134.628 Y144.811 E185.74066
G0 F3600 X135.194 Y144.811
G1 F1800 X83.792 Y93.409 E189.36735
G0 F3600 X83.736 Y92.787
G1 F1800 X135.76 Y144.811 E193.03792
G0 F3600 X136.325 Y144.811
G1 F1800 X83.679 Y92.164 E196.75242
G0 F3600 X83.621 Y91.541
G1 F1800 X136.891 Y144.811 E200.5109
G0 F3600 X137.457 Y144.811
G1 F1800 X83.565 Y90.919 E204.31328
G0 F3600 X83.507 Y90.296
G1 F1800 X138.023 Y144.811 E208.15964
G0 F3600 X138.588 Y144.811
G1 F1800 X83.451 Y89.673 E212.04989
G0 F3600 X83.394 Y89.05
G1 F1800 X139.154 Y144.811 E215.98409
G0 F3600 X139.72 Y144.811
G1 F1800 X83.336 Y88.427 E219.96229
G0 F3600 X83.28 Y87.805
G1 F1800 X140.28 Y144.805 E223.98394
G0 F3600 X140.768 Y144.728
G1 F1800 X83.222 Y87.182 E228.04413
G0 F3600 X83.165 Y86.559
G1 F1800 X141.209 Y144.603 E232.13944
G0 F3600 X141.622 Y144.451
G1 F1800 X83.109 Y85.937 E236.26789
G0 F3600 X83.051 Y85.314
G1 F1800 X141.982 Y144.245 E240.42579
G0 F3600 X142.329 Y144.026
G1 F1800 X82.995 Y84.692 E244.61212
G0 F3600 X82.937 Y84.069
G1 F1800 X142.628 Y143.759 E248.82361
G0 F3600 X142.9 Y143.466
G1 F1800 X82.88 Y83.446 E253.05834
G0 F3600 X82.824 Y82.824
G1 F1800 X143.154 Y143.154 E257.31495
G0 F3600 X143.358 Y142.793
G1 F1800 X82.766 Y82.201 E261.59004
G0 F3600 X82.709 Y81.578
G1 F1800 X143.549 Y142.418 E265.88263
G0 F3600 X143.696 Y141.999
G1 F1800 X82.672 Y80.975 E270.18821
G0 F3600 X82.723 Y80.46
G1 F1800 X143.8 Y141.537 E274.49752
G0 F3600 X143.847 Y141.019
G1 F1800 X82.81 Y79.982 E278.80401
G0 F3600 X82.964 Y79.57
G1 F1800 X143.894 Y140.5 E283.10295
G0 F3600 X143.942 Y139.982
G1 F1800 X83.145 Y79.186 E287.39247
G0 F3600 X83.365 Y78.84
G1 F1800 X143.989 Y139.464 E291.66982
G0 F3600 X144.036 Y138.945
G1 F1800 X83.604 Y78.512 E295.93366
G0 F3600 X83.891 Y78.234
G1 F1800 X144.085 Y138.428 E300.18067
G0 F3600 X144.132 Y137.909
G1 F1800 X84.182 Y77.959 E304.41047
G0 F3600 X84.531 Y77.742
G1 F1800 X144.179 Y137.391 E308.61899
G0 F3600 X144.227 Y136.873
G1 F1800 X84.9 Y77.546 E312.80483
G0 F3600 X85.315 Y77.395
G1 F1800 X144.274 Y136.354 E316.96471
G0 F3600 X144.321 Y135.836
G1 F1800 X85.754 Y77.269 E321.09693
G0 F3600 X86.263 Y77.212
G1 F1800 X144.369 Y135.318 E325.19662
G0 F3600 X144.417 Y134.8
G1 F1800 X86.803 Y77.187 E329.26156
G0 F3600 X87.369 Y77.187
G1 F1800 X144.464 Y134.282 E333.28992
G0 F3600 X144.512 Y133.764
G1 F1800 X87.935 Y77.187 E337.28174
G0 F3600 X88.5 Y77.187
G1 F1800 X144.559 Y133.245 E341.23697
G0 F3600 X144.606 Y132.727
G1 F1800 X89.066 Y77.187 E345.15561
G0 F3600 X89.632 Y77.187
G1 F1800 X144.654 Y132.209 E349.03771
G0 F3600 X144.702 Y131.691
G1 F1800 X90.197 Y77.187 E352.8833
G0 F3600 X90.763 Y77.187
G1 F1800 X144.749 Y131.173 E356.6923
G0 F3600 X144.797 Y130.654
G1 F1800 X91.329 Y77.187 E360.46473
G0 F3600 X91.894 Y77.187
G1 F1800 X144.844 Y130.136 E364.2006
G0 F3600 X144.891 Y129.618
G1 F1800 X92.46 Y77.187 E367.89989
G0 F3600 X93.026 Y77.187
G1 F1800 X144.939 Y129.1 E371.56263
G0 F3600 X144.986 Y128.581
G1 F1800 X93.591 Y77.187 E375.18879
G0 F3600 X94.157 Y77.187
G1 F1800 X145.034 Y128.064 E378.77844
G0 F3600 X145.082 Y127.545
G1 F1800 X94.723 Y77.187 E382.3315
G0 F3600 X95.289 Y77.187
G1 F1800 X145.129 Y127.027 E385.84798
G0 F3600 X145.176 Y126.509
G1 F1800 X95.854 Y77.187 E389.32792
G0 F3600 X96.42 Y77.187
G1 F1800 X145.224 Y125.99 E392.77127
G0 F3600 X145.271 Y125.472
G1 F1800 X96.986 Y77.187 E396.17803
G0 F3600 X97.551 Y77.187
G1 F1800 X145.319 Y124.954 E399.54829
G0 F3600 X145.367 Y124.436
G1 F1800 X98.117 Y77.187 E402.882
G0 F3600 X98.683 Y77.187
G1 F1800 X145.414 Y123.918 E406.17912
G0 F3600 X145.461 Y123.4
G1 F1800 X99.248 Y77.187 E409.4397
G0 F3600 X99.814 Y77.187
G1 F1800 X145.509 Y122.881 E412.66369
G0 F3600 X145.556 Y122.363
G1 F1800 X100.38 Y77.187 E415.8511
G0 F3600 X100.945 Y77.187
G1 F1800 X145.603 Y121.845 E419.00197
G0 F3600 X145.651 Y121.327
G1 F1800 X101.511 Y77.187 E422.11628
G0 F3600 X102.077 Y77.187
G1 F1800 X145.699 Y120.809 E425.19405
G0 F3600 X145.746 Y120.29
G1 F1800 X102.642 Y77.187 E428.23523
G0 F3600 X103.208 Y77.187
G1 F1800 X145.794 Y119.772 E431.23987
G0 F3600 X145.841 Y119.254
G1 F1800 X103.774 Y77.187 E434.20793
G0 F3600 X104.339 Y77.187
G1 F1800 X145.888 Y118.735 E437.1394
G0 F3600 X145.936 Y118.217
G1 F1800 X104.905 Y77.187 E440.03432
G0 F3600 X105.471 Y77.187
G1 F1800 X145.984 Y117.7 E442.89273
G0 F3600 X146.031 Y117.181
G1 F1800 X106.037 Y77.187 E445.71452
G0 F3600 X106.603 Y77.187
G1 F1800 X146.079 Y116.663 E448.49977
G0 F3600 X146.126 Y116.145
G1 F1800 X107.169 Y77.187 E451.24843
G0 F3600 X107.734 Y77.187
G1 F1800 X146.173 Y115.626 E453.96051
G0 F3600 X146.221 Y115.108
G1 F1800 X108.3 Y77.187 E456.63604
G0 F3600 X108.866 Y77.187
G1 F1800 X146.269 Y114.59 E459.27502
G0 F3600 X146.316 Y114.072
G1 F1800 X109.431 Y77.187 E461.87746
G0 F3600 X109.997 Y77.187
G1 F1800 X146.364 Y113.554 E464.44335
G0 F3600 X146.411 Y113.035
G1 F1800 X110.563 Y77.187 E466.97262
G0 F3600 X111.128 Y77.187
G1 F1800 X146.458 Y112.517 E469.46534
G0 F3600 X146.506 Y111.999
G1 F1800 X111.694 Y77.187 E471.92152
G0 F3600 X112.26 Y77.187
G1 F1800 X146.553 Y111.481 E474.34111
G0 F3600 X146.601 Y110.963
G1 F1800 X112.825 Y77.187 E476.72419
G0 F3600 X113.391 Y77.187
G1 F1800 X146.648 Y110.445 E479.07068
G0 F3600 X146.696 Y109.926
G1 F1800 X113.957 Y77.187 E481.3806
G0 F3600 X114.523 Y77.187
G1 F1800 X146.743 Y109.408 E483.65393
G0 F3600 X146.791 Y108.89
G1 F1800 X115.088 Y77.187 E485.89074
G0 F3600 X115.654 Y77.187
G1 F1800 X146.838 Y108.371 E488.09094
G0 F3600 X146.886 Y107.854
G1 F1800 X116.22 Y77.187 E490.25463
G0 F3600 X116.785 Y77.187
G1 F1800 X146.933 Y107.335 E492.38174
G0 F3600 X146.981 Y106.817
G1 F1800 X117.351 Y77.187 E494.47229
G0 F3600 X117.917 Y77.187
G1 F1800 X147.028 Y106.299 E496.52627
G0 F3600 X147.076 Y105.781
G1 F1800 X118.482 Y77.187 E498.54373
G0 F3600 X119.048 Y77.187
G1 F1800 X147.123 Y105.262 E500.52457
G0 F3600 X147.17 Y104.744
G1 F1800 X119.614 Y77.187 E502.46883
G0 F3600 X120.179 Y77.187
G1 F1800 X147.218 Y104.226 E504.37658
G0 F3600 X147.266 Y103.708
G1 F1800 X120.745 Y77.187 E506.24778
G0 F3600 X121.311 Y77.187
G1 F1800 X147.313 Y103.19 E508.08239
G0 F3600 X147.361 Y102.671
G1 F1800 X121.876 Y77.187 E509.88046
G0 F3600 X122.442 Y77.187
G1 F1800 X147.408 Y102.153 E511.64195
G0 F3600 X147.455 Y101.635
G1 F1800 X123.008 Y77.187 E513.36685
G0 F3600 X123.573 Y77.187
G1 F1800 X147.503 Y101.116 E515.05521
G0 F3600 X147.551 Y100.599
G1 F1800 X124.139 Y77.187 E516.70705
G0 F3600 X124.705 Y77.187
G1 F1800 X147.598 Y100.081 E518.32231
G0 F3600 X147.646 Y99.562
G1 F1800 X125.271 Y77.187 E519.90099
G0 F3600 X125.836 Y77.187
