;FLAVOR:Marlin
;TIME:216
;Filament used: 0.344936m
;Layer height: 0.2
;MINX:97.303
;MINY:91.994
;MINZ:0.3
;MAXX:134.697
;MAXY:129.989
;MAXZ:1.3
;TARGET_MACHINE.NAME:Unknown
;Generated with Cura_SteamEngine 5.5.0
M140 S60
M105
M190 S60
M104 S185
M105
M109 S185
M82 ;absolute extrusion mode
G28 ;Home
G1 Z15.0 F6000 ;Move the platform down 15mm
;Prime the extruder
G92 E0
G1 F200 E3
G92 E0
G92 E0
G92 E0
G1 F4800 E-2.5
;LAYER_COUNT:6
;LAYER:0
M107
M204 S3000
M205 X20 Y20
G0 F2400 X102.238 Y97.997 Z0.3
M204 S2000
;TYPE:SKIRT
G1 F4800 E0
G1 F3000 X104.282 Y96.083 E0.20117
G1 X106.522 Y94.538 E0.39667
G1 X109.101 Y93.275 E0.60297
G1 X111.625 Y92.475 E0.79319
G1 X114.531 Y92.015 E1.00456
G1 X117.181 Y91.994 E1.19495
G1 X120.094 Y92.41 E1.40635
G1 X122.698 Y93.198 E1.6018
G1 X125.291 Y94.43 E1.80805
G1 X127.609 Y95.998 E2.0091
G1 X129.613 Y97.838 E2.20455
G1 X131.375 Y100.015 E2.40576
G1 X132.82 Y102.487 E2.61147
G1 X133.828 Y105.019 E2.80726
G1 X134.452 Y107.63 E3.00012
G1 X134.697 Y110.599 E3.21414
G1 X134.497 Y113.388 E3.41502
G1 X133.924 Y115.978 E3.60559
G1 X132.867 Y118.723 E3.81691
G1 X131.517 Y121.086 E4.01243
G1 X129.837 Y123.231 E4.20817
G1 X127.723 Y125.224 E4.41689
G1 X126.364 Y126.165 E4.53565
G1 X126.562 Y126.618 E4.57116
G1 X126.717 Y127.166 E4.61208
G1 X126.735 Y127.73 E4.65262
G1 X126.595 Y128.373 E4.69989
G1 X126.25 Y129.019 E4.75251
G1 X125.809 Y129.471 E4.79788
G1 X125.314 Y129.776 E4.83965
G1 X124.629 Y129.986 E4.89112
G1 X124.006 Y129.989 E4.93588
G1 X123.422 Y129.861 E4.97883
G1 X122.778 Y129.517 E5.03128
G1 X122.327 Y129.073 E5.07675
G1 X122.055 Y128.648 E5.113
G1 X121.913 Y128.346 E5.13697
G1 X120.369 Y128.836 E5.25335
G1 X117.501 Y129.292 E5.46198
G1 X114.852 Y129.317 E5.6523
G1 X111.973 Y128.914 E5.86115
G1 X109.397 Y128.148 E6.05422
G1 X106.737 Y126.896 E6.26543
G1 X104.474 Y125.377 E6.46124
G1 X102.385 Y123.469 E6.66449
G1 X100.603 Y121.262 E6.86828
G1 X99.194 Y118.853 E7.06878
G1 X98.192 Y116.354 E7.2622
G1 X97.548 Y113.672 E7.46036
G1 X97.303 Y110.78 E7.66887
G1 X97.499 Y107.954 E7.87238
G1 X98.067 Y105.362 E8.06302
G1 X99.118 Y102.614 E8.27438
G1 X100.424 Y100.309 E8.46471
G1 X102.238 Y97.997 E8.67583
M204 S3000
G0 F2400 X102.567 Y98.347
M204 S2000
G1 F3000 X104.555 Y96.478 E8.87186
G1 X106.795 Y94.933 E9.06736
G1 X109.246 Y93.733 E9.26341
G1 X111.77 Y92.933 E9.45363
G1 X114.535 Y92.495 E9.65475
G1 X117.185 Y92.474 E9.84514
G1 X119.956 Y92.87 E10.04623
G1 X122.493 Y93.632 E10.23654
G1 X125.023 Y94.828 E10.43759
G1 X127.284 Y96.352 E10.63348
G1 X129.288 Y98.192 E10.82893
G1 X131.001 Y100.316 E11.02496
G1 X132.374 Y102.665 E11.22043
G1 X133.361 Y105.131 E11.41126
G1 X133.985 Y107.742 E11.60412
G1 X134.218 Y110.566 E11.80769
G1 X134.028 Y113.284 E12.00343
G1 X133.455 Y115.874 E12.194
G1 X132.45 Y118.485 E12.395
G1 X131.1 Y120.848 E12.59051
G1 X129.46 Y122.934 E12.78114
G1 X127.45 Y124.829 E12.9796
G1 X125.763 Y125.997 E13.12701
G1 X126.1 Y126.749 E13.18621
G1 X126.239 Y127.24 E13.22288
G1 X126.253 Y127.687 E13.255
G1 X126.14 Y128.207 E13.29323
G1 X125.86 Y128.731 E13.33592
G1 X125.507 Y129.093 E13.37224
G1 X125.114 Y129.335 E13.4054
G1 X124.556 Y129.506 E13.44733
G1 X124.109 Y129.52 E13.47946
G1 X123.589 Y129.406 E13.5177
G1 X123.066 Y129.126 E13.56032
G1 X122.702 Y128.769 E13.59695
G1 X122.46 Y128.39 E13.62925
G1 X122.174 Y127.759 E13.67902
G1 X120.224 Y128.378 E13.82601
G1 X117.496 Y128.812 E14.02445
G1 X114.847 Y128.837 E14.21477
G1 X112.11 Y128.454 E14.41332
G1 X109.534 Y127.688 E14.60639
G1 X107.004 Y126.497 E14.80729
G1 X104.797 Y125.022 E14.99799
G1 X102.758 Y123.167 E15.19603
G1 X101.017 Y121.019 E15.39467
G1 X99.64 Y118.674 E15.59003
G1 X98.638 Y116.175 E15.78346
G1 X98.015 Y113.561 E15.97651
G1 X97.782 Y110.812 E16.17472
G1 X97.968 Y108.057 E16.37309
G1 X98.536 Y105.465 E16.56372
G1 X99.536 Y102.851 E16.76479
G1 X100.842 Y100.546 E16.95512
G1 X102.567 Y98.347 E17.15591
M204 S3000
G0 F2400 X102.897 Y98.696
M204 S2000
G1 F3000 X104.828 Y96.873 E17.34669
G1 X107.007 Y95.364 E17.53711
G1 X109.391 Y94.191 E17.72799
G1 X111.915 Y93.391 E17.91821
G1 X114.539 Y92.975 E18.10907
G1 X117.189 Y92.954 E18.29946
G1 X119.818 Y93.33 E18.49025
G1 X122.355 Y94.092 E18.68056
G1 X124.756 Y95.227 E18.87136
G1 X126.96 Y96.706 E19.06204
G1 X128.915 Y98.494 E19.25238
G1 X130.587 Y100.559 E19.44326
G1 X131.928 Y102.843 E19.63354
G1 X132.915 Y105.309 E19.82437
G1 X133.518 Y107.853 E20.0122
G1 X133.739 Y110.533 E20.20539
G1 X133.559 Y113.18 E20.39599
G1 X132.986 Y115.77 E20.58656
G1 X132.033 Y118.248 E20.7773
G1 X130.723 Y120.551 E20.96764
G1 X129.083 Y122.637 E21.15827
G1 X127.177 Y124.434 E21.34647
G1 X125.161 Y125.83 E21.52263
G1 X125.642 Y126.892 E21.60639
G1 X125.76 Y127.27 E21.63484
G1 X125.781 Y127.601 E21.65867
G1 X125.709 Y127.995 E21.68744
G1 X125.507 Y128.405 E21.72028
G1 X125.241 Y128.693 E21.74844
G1 X124.96 Y128.88 E21.77269
G1 X124.526 Y129.027 E21.80561
G1 X124.195 Y129.048 E21.82944
G1 X123.802 Y128.976 E21.85814
G1 X123.392 Y128.773 E21.89101
G1 X123.103 Y128.506 E21.91928
G1 X122.897 Y128.192 E21.94626
G1 X122.435 Y127.171 E22.02677
G1 X120.148 Y127.904 E22.1993
G1 X117.491 Y128.332 E22.39265
G1 X114.842 Y128.357 E22.58296
G1 X112.247 Y127.994 E22.77121
G1 X109.671 Y127.228 E22.96428
G1 X107.271 Y126.098 E23.15486
G1 X105.064 Y124.623 E23.34556
G1 X103.13 Y122.864 E23.53338
G1 X101.43 Y120.775 E23.72687
G1 X100.085 Y118.494 E23.91711
G1 X99.105 Y116.064 E24.10535
G1 X98.482 Y113.45 E24.2984
G1 X98.261 Y110.843 E24.48637
G1 X98.437 Y108.16 E24.67953
G1 X99.005 Y105.568 E24.87017
G1 X99.954 Y103.088 E25.06093
G1 X101.26 Y100.783 E25.25126
G1 X102.897 Y98.696 E25.44182
M204 S3000
G1 F4800 E22.94182
;MESH:micky.stl
G0 F2400 X104.819 Y98.486
G0 X103.058 Y100.316
G0 X101.628 Y102.417
G0 X100.537 Y104.713
G0 X99.809 Y107.148
G0 X99.465 Y109.666
G0 X99.527 Y112.639
G0 X104.676 Y112.74
G0 X104.899 Y105.298
G0 X108.124 Y101.282
G0 X113.305 Y99.293
G0 X113.81 Y99.207
G0 X114.675 Y99.242
G0 X115.485 Y99.483
G0 X116.034 Y99.876
G0 X115.441 Y99.861
M204 S2000
;TYPE:WALL-OUTER
G1 F4800 E25.44182
G1 F3600 X115.4 Y99.987 E25.45134
G1 X115.093 Y100.412 E25.489
G1 X113.947 Y101.195 E25.58871
G1 X113.835 Y101.212 E25.59685
G1 X113.632 Y101.061 E25.61503
G1 X113.533 Y100.81 E25.63441
G1 X113.27 Y100.821 E25.65332
G1 X112.576 Y101.934 E25.74755
G1 X112.281 Y102.218 E25.77697
G1 X111.99 Y102.42 E25.80242
G1 X111.536 Y102.504 E25.83559
G1 X111.216 Y102.388 E25.86005
G1 X111.122 Y102.243 E25.87246
G1 X111.237 Y101.559 E25.92229
G1 X111.383 Y101.164 E25.95254
G1 X111.782 Y100.521 E26.00691
G1 X112.046 Y100.23 E26.03514
G1 X112.467 Y99.89 E26.07401
G1 X112.94 Y99.634 E26.11265
G1 X113.34 Y99.491 E26.14317
G1 X113.817 Y99.406 E26.17798
G1 X114.648 Y99.442 E26.23773
G1 X115.3 Y99.632 E26.28652
G1 X115.422 Y99.756 E26.29902
G1 X115.441 Y99.861 E26.30669
M204 S3000
G0 F2400 X115.4 Y99.987
G0 X115.361 Y100.042
G0 X115.908 Y100.41
G0 X122.828 Y100.213
G0 X125.329 Y100.345
G0 X127.857 Y100.872
G0 X128.785 Y101.423
G0 X129.579 Y102.056
G0 X130.203 Y102.858
G0 X131.359 Y104.892
G0 X129.273 Y107.982
G0 X127.26 Y108.354
G0 X126.686 Y108.295
G0 X126.206 Y108.137
G0 X125.446 Y107.796
G0 X125.244 Y108.54
M204 S2000
G1 F3607.5 X125.463 Y108.484 E26.32289
G1 X125.883 Y108.604 E26.35421
G1 F3600 X126.207 Y108.786 E26.38091
G1 X126.547 Y109.096 E26.41396
G1 F3107.9 X126.868 Y109.49 E26.45625
G1 F2747.2 X126.929 Y111.333 E26.62985
G1 F2791.6 X126.663 Y113.136 E26.7987
G1 F2828.2 X126.064 Y114.872 E26.96664
G1 F2837.4 X125.173 Y116.451 E27.1319
G1 F2842.1 X124.09 Y117.743 E27.28531
G1 F3176.5 X123.701 Y117.927 E27.32035
G1 F3600 X123.406 Y117.962 E27.34169
G1 X123.252 Y117.923 E27.35311
G1 X123.082 Y117.783 E27.36893
G1 F3512.2 X122.918 Y117.501 E27.39295
G1 F3124.8 X122.828 Y117.242 E27.41564
G1 F2969.1 X122.867 Y116.54 E27.47689
G1 F3074.7 X122.788 Y116.235 E27.50339
G1 X122.643 Y116.086 E27.52088
G1 X122.446 Y116.08 E27.53746
G1 F3021 X122.346 Y116.163 E27.54858
G1 F2979.3 X122.225 Y117.254 E27.64387
G1 F3229.9 X122.089 Y117.459 E27.66357
G1 F3555.6 X121.772 Y118.21 E27.72287
G1 F3600 X121.148 Y119.024 E27.79655
G1 X120.352 Y119.636 E27.86868
G1 X119.413 Y120.025 E27.9417
G1 X118.404 Y120.164 E28.01488
G1 X117.431 Y120.054 E28.08522
G1 X116.493 Y119.688 E28.15756
G1 X115.678 Y119.095 E28.22997
G1 X115.045 Y118.323 E28.30169
G1 X114.619 Y117.404 E28.37446
G1 X114.262 Y114.871 E28.55824
G1 X114.144 Y112.371 E28.73804
G1 X114.262 Y109.795 E28.9233
G1 X114.193 Y109.617 E28.93702
G1 X114.08 Y109.524 E28.94753
G1 X113.93 Y109.493 E28.95853
G1 X113.724 Y109.578 E28.97454
G1 X113.304 Y110.163 E29.02628
G1 X112.876 Y110.628 E29.07168
G1 F3085.7 X111.942 Y111.398 E29.17314
G1 F2618.2 X111.415 Y111.663 E29.23141
G1 F2979.3 X111.062 Y111.681 E29.26209
G1 F3600 X110.627 Y111.803 E29.29455
G1 X109.996 Y111.891 E29.34032
G1 X109.343 Y111.893 E29.38723
G1 X108.738 Y111.811 E29.4311
G1 X108.117 Y111.641 E29.47735
G1 X107.531 Y111.391 E29.52312
G1 X106.992 Y111.071 E29.56816
G1 X106.453 Y110.635 E29.61796
G1 X106.038 Y110.189 E29.66173
G1 X105.648 Y109.638 E29.71023
G1 X105.349 Y109.065 E29.75666
G1 X105.435 Y107.387 E29.87737
G1 X105.802 Y105.801 E29.99432
G1 X106.443 Y104.306 E30.11118
G1 X107.341 Y102.939 E30.22868
G1 X107.462 Y102.812 E30.24128
G1 F2979.3 X107.663 Y102.454 E30.27692
G1 F2634.1 X108.413 Y101.702 E30.3812
G1 F2700 X108.559 Y101.622 E30.39715
G1 F2979.3 X108.884 Y101.629 E30.42537
G1 F3483.9 X109.142 Y101.762 E30.44692
G1 F3600 X109.177 Y101.852 E30.45386
G1 X109.114 Y102.496 E30.50034
G1 X109.528 Y102.608 E30.53115
G1 X109.88 Y102.592 E30.55647
G1 X110.025 Y102.715 E30.57013
G1 X110.049 Y102.85 E30.57998
G1 X109.98 Y103.475 E30.62515
G1 X109.958 Y104.284 E30.68329
G1 X109.962 Y105.134 E30.74436
G1 X109.816 Y105.661 E30.78365
G1 X108.903 Y107.553 E30.93457
G1 F3684.4 X108.753 Y107.675 E30.94814
G1 F3748.4 X108.172 Y107.619 E30.98842
G1 F3732.2 X107.952 Y107.655 E31.00387
G1 X107.86 Y107.899 E31.02194
G1 X108.017 Y108.034 E31.03628
G1 X108.143 Y108.085 E31.0457
G1 F3764.7 X108.803 Y108.119 E31.09111
G1 F3692.3 X109.62 Y108.308 E31.14984
G1 F3600 X110.304 Y108.103 E31.20114
G1 F3676.6 X111.073 Y108.123 E31.25526
G1 F3748.4 X111.279 Y108.041 E31.27056
G1 X111.339 Y107.864 E31.28345
G1 X111.248 Y107.693 E31.29682
G1 X111.148 Y107.658 E31.30413
G1 F3756.5 X110.901 Y107.665 E31.32114
G1 F3684.4 X110.689 Y107.545 E31.33824
G1 F3600 X110.573 Y107.29 E31.35837
G1 X110.58 Y107.14 E31.36915
G1 X112.022 Y105.455 E31.52848
G1 X113.849 Y103.883 E31.70164
G1 X115.869 Y102.619 E31.87283
G1 X118.113 Y101.655 E32.04829
G1 X120.427 Y101.058 E32.21997
G1 X122.855 Y100.815 E32.39528
G1 X125.242 Y100.941 E32.567
G1 X127.635 Y101.437 E32.74257
G1 X128.432 Y101.91 E32.80916
G1 X129.151 Y102.48 E32.87507
G1 X129.696 Y103.182 E32.93892
G1 X130.171 Y104.001 E33.00694
G1 X130.185 Y104.131 E33.01633
G1 X130.124 Y104.255 E33.02626
G1 X129.989 Y104.328 E33.03729
G1 X128.6 Y104.35 E33.13709
G1 X128.036 Y104.547 E33.18001
G1 X127.797 Y104.726 E33.20146
G1 X127.608 Y104.954 E33.22273
G1 X127.485 Y105.209 E33.24307
G1 X127.443 Y105.489 E33.26341
G1 X127.468 Y105.784 E33.28468
G1 X127.548 Y106.077 E33.3065
G1 X128.216 Y107.279 E33.4053
G1 X128.2 Y107.498 E33.42107
G1 X128.042 Y107.609 E33.43494
G1 X127.241 Y107.752 E33.4934
G1 X126.68 Y107.687 E33.53397
G1 X124.958 Y106.948 E33.6686
G1 X124.593 Y106.685 E33.70092
G1 X124.43 Y106.484 E33.71951
G1 X124.29 Y106.194 E33.74264
G1 X123.747 Y106.169 E33.78169
G1 X123.593 Y106.224 E33.79344
G1 X123.08 Y106.711 E33.84426
G1 F3505.1 X122.698 Y106.945 E33.87731
G1 F3304 X122.23 Y107.106 E33.91606
G1 F3348.8 X121.985 Y107.089 E33.93502
G1 F3548.3 X121.079 Y107.096 E34.00106
G1 F3119.1 X120.55 Y107.04 E34.04517
G1 F2704.2 X120.019 Y106.726 E34.10417
G1 F2638.2 X119.238 Y106.639 E34.18121
G1 F2598.5 X119.163 Y106.695 E34.19052
G1 F2575.3 X119.224 Y107.005 E34.22225
G1 X119.366 Y107.171 E34.24419
G1 F2606.3 X120.093 Y107.537 E34.32496
G1 F2860.9 X120.191 Y107.721 E34.34381
G1 F3348.8 X120.284 Y108.121 E34.37552
G1 F3600 X120.025 Y108.996 E34.44108
G1 X119.868 Y110.03 E34.51622
G1 X119.812 Y111.176 E34.59865
G1 X119.868 Y112.32 E34.68093
G1 X120.026 Y113.353 E34.75601
G1 X120.269 Y114.185 E34.81828
G1 X120.568 Y114.739 E34.8635
G1 X120.816 Y114.938 E34.88635
G1 X121.003 Y114.906 E34.89998
G1 X121.273 Y114.602 E34.92919
G1 X121.563 Y113.945 E34.98078
G1 X121.781 Y113.047 E35.04717
G1 X121.909 Y111.96 E35.1258
G1 X121.929 Y110.795 E35.20951
G1 X121.842 Y109.699 E35.28849
G1 X121.64 Y108.645 E35.36559
G1 X121.74 Y108.177 E35.39997
G1 F3548.3 X122.115 Y107.751 E35.44134
G1 F3316.7 X122.56 Y107.569 E35.47883
G1 F3278.9 X122.77 Y107.59 E35.49548
G1 F3505.1 X123.235 Y107.78 E35.53254
G1 F3600 X123.426 Y107.953 E35.55106
G1 X123.643 Y108.389 E35.58605
G1 X123.667 Y108.709 E35.6091
G1 X123.443 Y109.675 E35.68034
G1 X123.355 Y110.521 E35.74145
G1 X123.369 Y111.402 E35.80475
G1 X123.484 Y112.255 E35.86658
G1 X123.681 Y112.963 E35.91938
G1 X123.947 Y113.499 E35.96237
G1 X124.077 Y113.663 E35.9774
G1 X124.275 Y113.81 E35.99512
G1 X124.45 Y113.847 E36.00797
G1 X124.657 Y113.758 E36.02416
G1 X124.942 Y113.417 E36.05609
G1 X125.197 Y112.852 E36.10062
G1 X125.382 Y112.116 E36.15514
G1 X125.479 Y111.26 E36.21703
G1 X125.476 Y110.378 E36.28039
G1 X125.373 Y109.534 E36.34148
G1 X125.159 Y108.721 E36.40188
G1 X125.244 Y108.54 E36.41624
M204 S3000
G0 F2400 X125.437 Y108.491
G0 X125.614 Y107.842
G0 X126.698 Y108.964
G0 X126.994 Y109.424
G0 X127.06 Y111.313
G0 X126.8 Y113.104
G0 X126.225 Y114.82
G0 X125.354 Y116.406
G0 X124.2 Y117.829
G0 X120.418 Y120.268
G0 X120.731 Y120.902
M204 S2000
G1 F3607.5 X120.841 Y120.712 E36.43198
G1 X122.521 Y119.894 E36.56594
G1 F3600 X124.159 Y118.664 E36.7131
G1 F3176.5 X124.503 Y118.189 E36.76085
G1 F2764.8 X125.462 Y117.106 E36.89617
G1 F2769.2 X125.768 Y116.634 E36.94871
G1 F2782.6 X126.565 Y115.29 E37.09394
G1 F2725.6 X127.241 Y113.41 E37.28352
G1 F2734.2 X127.551 Y111.467 E37.46963
G1 X127.493 Y109.413 E37.664
G1 F3026.3 X127.574 Y109.282 E37.67717
G1 F3442.2 X128.191 Y108.794 E37.73627
G1 F3548.3 X128.984 Y108.655 E37.79495
G1 F3600 X129.116 Y108.669 E37.80449
G1 X129.209 Y108.737 E37.81277
G1 X129.392 Y109.207 E37.849
G1 X129.606 Y109.525 E37.87654
G1 X129.892 Y109.782 E37.90416
G1 X130.237 Y109.964 E37.93219
G1 X130.605 Y110.054 E37.9594
G1 X130.995 Y110.047 E37.98743
G1 X131.438 Y109.929 E38.02036
G1 X132.137 Y109.98 E38.07071
G1 X132.281 Y110.042 E38.08198
G1 F2984.5 X132.47 Y110.202 E38.10344
G1 F2544.9 X132.323 Y112.837 E38.37164
G1 F2537.4 X131.804 Y115.288 E38.627
G1 F2522.6 X130.897 Y117.672 E38.88851
G1 F2515.3 X129.664 Y119.847 E39.14558
G1 F2522.6 X128.087 Y121.841 E39.40622
G1 F2533.7 X126.235 Y123.556 E39.66387
G1 X125.511 Y124.047 E39.75317
G1 F2969.1 X125.123 Y124.184 E39.78901
G1 F3600 X123.965 Y124.96 E39.88916
G1 X123.774 Y124.924 E39.90312
G1 X123.685 Y124.844 E39.91172
G1 X123.275 Y123.629 E40.00384
G1 X122.62 Y122.617 E40.09044
G1 X121.739 Y121.805 E40.17652
G1 X120.85 Y121.325 E40.2491
G1 X120.762 Y121.242 E40.25779
G1 X120.731 Y120.902 E40.28232
M204 S3000
G0 F2400 X120.831 Y120.729
G0 X120.57 Y120.203
G0 X119.95 Y120.483
G0 X119.928 Y121.502
G0 X120.837 Y122.008
G0 X123.259 Y126.333
G0 X122.697 Y126.675
M204 S2000
G1 F3600 X122.786 Y126.777 E40.29205
G1 X123.065 Y127.4 E40.34109
G1 F3310.3 X123.306 Y127.836 E40.38001
G1 X123.341 Y127.253 E40.42564
G1 F3600 X123.467 Y126.996 E40.4462
G1 X123.758 Y126.709 E40.47556
G1 X124.236 Y126.566 E40.51141
G1 X124.691 Y126.669 E40.54492
G1 F3310.3 X125.128 Y127.009 E40.58818
G1 X124.985 Y126.604 E40.62174
G1 F3600 X124.629 Y125.815 E40.68393
G1 X124.625 Y125.693 E40.69269
G1 X124.693 Y125.573 E40.7026
G1 X125.625 Y124.923 E40.78424
G1 F2969.1 X125.895 Y124.612 E40.82011
G1 F2519 X126.76 Y124.016 E40.92797
G1 F2508 X128.658 Y122.231 E41.19665
G1 F2511.6 X130.25 Y120.206 E41.4619
G1 F2515.3 X131.512 Y117.981 E41.72492
G1 F2508 X132.43 Y115.584 E41.98961
G1 F2497.1 X132.992 Y113.032 E42.26026
G1 F2486.3 X133.151 Y110.51 E42.52312
G1 F2519 X133.131 Y110.136 E42.56158
G1 F2989.6 X133.184 Y109.596 E42.60852
G1 F3600 X133.047 Y107.957 E42.72668
