;FLAVOR:Marlin
;TIME:7765
;Filament used: 7.66419m
;Layer height: 0.2
;MINX:23.137
;MINY:42.824
;MINZ:0.3
;MAXX:199.622
;MAXY:178.653
;MAXZ:1.9
;TARGET_MACHINE.NAME:Unknown
;Generated with Cura_SteamEngine 5.6.0
M140 S60
M105
M190 S60
M104 S200
M105
M109 S200
M82 ;absolute extrusion mode
G28 ;Home
G1 Z15.0 F6000 ;Move the platform down 15mm
;Prime the extruder
G92 E0
G1 F200 E3
G92 E0
G92 E0
G92 E0
G1 F1500 E-6.5
;LAYER_COUNT:9
;LAYER:0
M107
G0 F3600 X60.399 Y53.278 Z0.3
;TYPE:SKIRT
G1 F1500 E0
G1 F1800 X60.627 Y53.156 E0.0129
G1 X60.832 Y53.43 E0.02997
G1 X60.859 Y53.46 E0.03199
G1 X61.164 Y53.731 E0.05234
G1 X61.196 Y53.754 E0.05431
G1 X61.536 Y53.952 E0.07394
G1 X61.573 Y53.968 E0.07595
G1 X61.961 Y54.1 E0.0964
G1 X61.92 Y54.351 E0.10908
G1 X60.783 Y54.351 E0.16581
G1 X60.399 Y53.278 E0.22267
G1 F1500 E-6.27733
G0 F3600 X67.825 Y54.096
G1 F1500 E0.22267
G1 F1800 X68.161 Y53.992 E0.24021
G1 X68.198 Y53.976 E0.24223
G1 X68.548 Y53.784 E0.26214
G1 X68.581 Y53.762 E0.26412
G1 X68.889 Y53.502 E0.28423
G1 X68.916 Y53.474 E0.28617
G1 X69.175 Y53.149 E0.3069
G1 X69.397 Y53.273 E0.31959
G1 X69.014 Y54.351 E0.37666
G1 X67.863 Y54.351 E0.43409
G1 X67.825 Y54.096 E0.44695
G1 F1500 E-6.05305
G0 F3600 X65.97 Y63.929
G1 F1500 E0.44695
G1 F1800 X65.012 Y66.259 E0.57264
G1 X64.968 Y66.36 E0.57813
G1 X64.768 Y66.358 E0.58811
G1 X63.808 Y63.933 E0.71823
G1 X65.97 Y63.929 E0.82609
G0 F3600 X65.373 Y64.33
G1 F1800 X64.875 Y65.541 E0.89142
G1 X64.396 Y64.332 E0.9563
G1 X65.373 Y64.33 E1.00504
G1 F1500 E-5.49496
G0 F3600 X68.975 Y99.849
G1 F1500 E1.00504
G1 F1800 X69.197 Y99.973 E1.01773
G1 X68.814 Y101.051 E1.0748
G1 X67.663 Y101.051 E1.13223
G1 X67.625 Y100.796 E1.14509
G1 X67.961 Y100.692 E1.16264
G1 X67.998 Y100.676 E1.16465
G1 X68.348 Y100.484 E1.18456
G1 X68.381 Y100.462 E1.18654
G1 X68.689 Y100.202 E1.20665
G1 X68.716 Y100.174 E1.20859
G1 X68.975 Y99.849 E1.22933
G1 F1500 E-5.27067
G0 F3600 X61.761 Y100.8
G1 F1500 E1.22933
G1 F1800 X61.72 Y101.051 E1.24201
G1 X60.583 Y101.051 E1.29874
G1 X60.199 Y99.978 E1.3556
G1 X60.427 Y99.856 E1.3685
G1 X60.632 Y100.13 E1.38557
G1 X60.659 Y100.16 E1.38758
G1 X60.964 Y100.431 E1.40794
G1 X60.996 Y100.454 E1.40991
G1 X61.336 Y100.652 E1.42953
G1 X61.373 Y100.668 E1.43155
G1 X61.761 Y100.8 E1.45199
G1 F1500 E-5.04801
G0 F3600 X63.608 Y110.633
G1 F1500 E1.45199
G1 F1800 X65.77 Y110.629 E1.55986
G1 X64.812 Y112.959 E1.68554
G1 X64.768 Y113.06 E1.69104
G1 X64.568 Y113.058 E1.70102
G1 X63.608 Y110.633 E1.83114
G0 F3600 X64.196 Y111.032
G1 F1800 X65.173 Y111.03 E1.87988
G1 X64.675 Y112.241 E1.9452
G1 X64.196 Y111.032 E2.01008
G1 F1500 E-4.48992
G0 F3600 X66.275 Y147.772
G1 F1500 E2.01008
G1 F1800 X66.497 Y147.896 E2.02277
G1 X66.114 Y148.974 E2.07985
G1 X64.963 Y148.974 E2.13727
G1 X64.925 Y148.719 E2.15013
G1 X65.261 Y148.615 E2.16768
G1 X65.298 Y148.599 E2.16969
G1 X65.648 Y148.407 E2.18961
G1 X65.681 Y148.385 E2.19159
G1 X65.989 Y148.125 E2.21169
G1 X66.016 Y148.097 E2.21363
G1 X66.275 Y147.772 E2.23437
G1 F1500 E-4.26563
G0 F3600 X59.061 Y148.723
G1 F1500 E2.23437
G1 F1800 X59.02 Y148.974 E2.24706
G1 X57.883 Y148.974 E2.30378
G1 X57.499 Y147.901 E2.36064
G1 X57.727 Y147.779 E2.37354
G1 X57.932 Y148.053 E2.39061
G1 X57.959 Y148.083 E2.39263
G1 X58.264 Y148.354 E2.41298
G1 X58.296 Y148.377 E2.41495
G1 X58.636 Y148.575 E2.43458
G1 X58.673 Y148.591 E2.43659
G1 X59.061 Y148.723 E2.45703
G1 F1500 E-4.04297
G0 F3600 X60.908 Y158.556
G1 F1500 E2.45703
G1 F1800 X63.07 Y158.552 E2.5649
G1 X62.112 Y160.882 E2.69058
G1 X62.068 Y160.983 E2.69608
G1 X61.868 Y160.981 E2.70606
G1 X60.908 Y158.556 E2.83618
G0 F3600 X61.496 Y158.955
G1 F1800 X62.473 Y158.953 E2.88492
G1 X61.975 Y160.164 E2.95025
G1 X61.496 Y158.955 E3.01513
G1 F1500 E-3.48487
G0 F3600 X121.668 Y113.058
G1 F1500 E3.01513
G1 F1800 X120.708 Y110.633 E3.14524
G1 X122.87 Y110.629 E3.25311
G1 X121.912 Y112.959 E3.37879
G1 X121.868 Y113.06 E3.38429
G1 X121.668 Y113.058 E3.39427
G0 F3600 X121.775 Y112.241
G1 F1800 X121.296 Y111.032 E3.45915
G1 X122.273 Y111.03 E3.50789
G1 X121.775 Y112.241 E3.57322
G1 F1500 E-2.92678
G0 F3600 X118.82 Y101.051
G1 F1500 E3.57322
G1 F1800 X117.683 Y101.051 E3.62994
G1 X117.299 Y99.978 E3.6868
G1 X117.527 Y99.856 E3.6997
G1 X117.732 Y100.13 E3.71677
G1 X117.759 Y100.16 E3.71879
G1 X118.064 Y100.431 E3.73914
G1 X118.096 Y100.454 E3.74111
G1 X118.436 Y100.652 E3.76074
G1 X118.473 Y100.668 E3.76275
G1 X118.861 Y100.8 E3.78319
G1 X118.82 Y101.051 E3.79588
G1 F1500 E-2.70412
G0 F3600 X124.725 Y100.796
G1 F1500 E3.79588
G1 F1800 X125.061 Y100.692 E3.81343
G1 X125.098 Y100.676 E3.81544
G1 X125.448 Y100.484 E3.83536
G1 X125.481 Y100.462 E3.83734
G1 X125.789 Y100.202 E3.85745
G1 X125.816 Y100.174 E3.85939
G1 X126.075 Y99.849 E3.88012
G1 X126.297 Y99.973 E3.89281
G1 X125.914 Y101.051 E3.94988
G1 X124.763 Y101.051 E4.0073
G1 X124.725 Y100.796 E4.02017
G1 F1500 E-2.47983
G0 F3600 X122.068 Y66.36
G1 F1500 E4.02017
G1 F1800 X121.868 Y66.358 E4.03015
G1 X120.908 Y63.933 E4.16026
G1 X123.07 Y63.929 E4.26813
G1 X122.112 Y66.259 E4.39381
G1 X122.068 Y66.36 E4.39931
G0 F3600 X121.975 Y65.541
G1 F1800 X121.496 Y64.332 E4.46419
G1 X122.473 Y64.33 E4.51293
G1 X121.975 Y65.541 E4.57826
G1 F1500 E-1.92174
G0 F3600 X119.02 Y54.351
G1 F1500 E4.57826
G1 F1800 X117.883 Y54.351 E4.63498
G1 X117.499 Y53.278 E4.69184
G1 X117.727 Y53.156 E4.70474
G1 X117.932 Y53.43 E4.72181
G1 X117.959 Y53.46 E4.72383
G1 X118.264 Y53.731 E4.74418
G1 X118.296 Y53.754 E4.74615
G1 X118.636 Y53.952 E4.76578
G1 X118.673 Y53.968 E4.76779
G1 X119.061 Y54.1 E4.78824
G1 X119.02 Y54.351 E4.80092
G1 F1500 E-1.69908
G0 F3600 X124.925 Y54.096
G1 F1500 E4.80092
G1 F1800 X125.261 Y53.992 E4.81847
G1 X125.298 Y53.976 E4.82048
G1 X125.648 Y53.784 E4.8404
G1 X125.681 Y53.762 E4.84238
G1 X125.989 Y53.502 E4.86249
G1 X126.016 Y53.474 E4.86443
G1 X126.275 Y53.149 E4.88516
G1 X126.497 Y53.273 E4.89785
G1 X126.114 Y54.351 E4.95492
G1 X124.963 Y54.351 E5.01235
G1 X124.925 Y54.096 E5.02521
G1 F1500 E-1.47479
G0 F3600 X130.007 Y44.115
G0 X139.822 Y44.605
G0 X139.622 Y91.305
G0 X123.375 Y147.772
G1 F1500 E5.02521
G1 F1800 X123.597 Y147.896 E5.0379
G1 X123.214 Y148.974 E5.09497
G1 X122.063 Y148.974 E5.15239
G1 X122.025 Y148.719 E5.16526
G1 X122.361 Y148.615 E5.1828
G1 X122.398 Y148.599 E5.18482
G1 X122.748 Y148.407 E5.20473
G1 X122.781 Y148.385 E5.20671
G1 X123.089 Y148.125 E5.22682
G1 X123.116 Y148.097 E5.22876
G1 X123.375 Y147.772 E5.24949
G1 F1500 E-1.25051
G0 F3600 X116.161 Y148.723
G1 F1500 E5.24949
G1 F1800 X116.12 Y148.974 E5.26218
G1 X114.983 Y148.974 E5.31891
G1 X114.599 Y147.901 E5.37576
G1 X114.827 Y147.779 E5.38867
G1 X115.032 Y148.053 E5.40574
G1 X115.059 Y148.083 E5.40775
G1 X115.364 Y148.354 E5.42811
G1 X115.396 Y148.377 E5.43007
G1 X115.736 Y148.575 E5.4497
G1 X115.773 Y148.591 E5.45171
G1 X116.161 Y148.723 E5.47216
G1 F1500 E-1.02784
G0 F3600 X118.008 Y158.556
G1 F1500 E5.47216
G1 F1800 X120.17 Y158.552 E5.58002
G1 X119.212 Y160.882 E5.70571
G1 X119.168 Y160.983 E5.71121
G1 X118.968 Y160.981 E5.72118
G1 X118.008 Y158.556 E5.8513
G0 F3600 X118.596 Y158.955
G1 F1800 X119.573 Y158.953 E5.90005
G1 X119.075 Y160.164 E5.96537
G1 X118.596 Y158.955 E6.03025
G1 F1500 E-0.46975
G0 F3600 X181.468 Y112.458
G1 F1500 E6.03025
G1 F1800 X180.508 Y110.033 E6.16037
G1 X182.67 Y110.029 E6.26823
G1 X181.712 Y112.359 E6.39392
G1 X181.668 Y112.46 E6.39942
G1 X181.468 Y112.458 E6.40939
G0 F3600 X181.575 Y111.641
G1 F1800 X181.096 Y110.432 E6.47427
G1 X182.073 Y110.43 E6.52302
G1 X181.575 Y111.641 E6.58834
G1 F1500 E0.08834
G0 F3600 X178.62 Y100.451
G1 F1500 E6.58834
G1 F1800 X177.483 Y100.451 E6.64507
G1 X177.099 Y99.378 E6.70192
G1 X177.327 Y99.256 E6.71483
G1 X177.532 Y99.53 E6.7319
G1 X177.559 Y99.56 E6.73391
G1 X177.864 Y99.831 E6.75427
G1 X177.896 Y99.854 E6.75623
G1 X178.236 Y100.052 E6.77586
G1 X178.273 Y100.068 E6.77787
G1 X178.661 Y100.2 E6.79832
G1 X178.62 Y100.451 E6.81101
G1 F1500 E0.31101
G0 F3600 X184.525 Y100.196
G1 F1500 E6.81101
G1 F1800 X184.861 Y100.092 E6.82856
G1 X184.898 Y100.076 E6.83057
G1 X185.248 Y99.884 E6.85048
G1 X185.281 Y99.862 E6.85246
G1 X185.589 Y99.602 E6.87257
G1 X185.616 Y99.574 E6.87451
G1 X185.875 Y99.249 E6.89525
G1 X186.097 Y99.373 E6.90793
G1 X185.714 Y100.451 E6.96501
G1 X184.563 Y100.451 E7.02243
G1 X184.525 Y100.196 E7.03529
G1 F1500 E0.53529
G0 F3600 X181.868 Y65.76
G1 F1500 E7.03529
G1 F1800 X181.668 Y65.758 E7.04527
G1 X180.708 Y63.333 E7.17539
G1 X182.87 Y63.329 E7.28325
G1 X181.912 Y65.659 E7.40894
G1 X181.868 Y65.76 E7.41444
G0 F3600 X181.775 Y64.941
G1 F1800 X181.296 Y63.732 E7.47931
G1 X182.273 Y63.73 E7.52806
G1 X181.775 Y64.941 E7.59338
G1 F1500 E1.09338
G0 F3600 X178.82 Y53.751
G1 F1500 E7.59338
G1 F1800 X177.683 Y53.751 E7.65011
G1 X177.299 Y52.678 E7.70697
G1 X177.527 Y52.556 E7.71987
G1 X177.732 Y52.83 E7.73694
G1 X177.759 Y52.86 E7.73895
G1 X178.064 Y53.131 E7.75931
G1 X178.096 Y53.154 E7.76127
G1 X178.436 Y53.352 E7.7809
G1 X178.473 Y53.368 E7.78291
G1 X178.861 Y53.5 E7.80336
G1 X178.82 Y53.751 E7.81605
G1 F1500 E1.31605
G0 F3600 X184.725 Y53.496
G1 F1500 E7.81605
G1 F1800 X185.061 Y53.392 E7.8336
G1 X185.098 Y53.376 E7.83561
G1 X185.448 Y53.184 E7.85553
G1 X185.481 Y53.162 E7.8575
G1 X185.789 Y52.902 E7.87761
G1 X185.816 Y52.874 E7.87955
G1 X186.075 Y52.549 E7.90029
G1 X186.297 Y52.673 E7.91297
G1 X185.914 Y53.751 E7.97005
G1 X184.763 Y53.751 E8.02747
G1 X184.725 Y53.496 E8.04033
G1 F1500 E1.54033
G0 F3600 X189.807 Y43.515
G0 X199.622 Y44.005
G0 X199.422 Y90.705
G0 X183.175 Y147.172
G1 F1500 E8.04033
G1 F1800 X183.397 Y147.296 E8.05302
G1 X183.014 Y148.374 E8.1101
G1 X181.863 Y148.374 E8.16752
G1 X181.825 Y148.119 E8.18038
G1 X182.161 Y148.015 E8.19793
G1 X182.198 Y147.999 E8.19994
G1 X182.548 Y147.807 E8.21986
G1 X182.581 Y147.785 E8.22184
G1 X182.889 Y147.525 E8.24195
G1 X182.916 Y147.497 E8.24389
G1 X183.175 Y147.172 E8.26462
G1 F1500 E1.76462
G0 F3600 X175.961 Y148.123
G1 F1500 E8.26462
G1 F1800 X175.92 Y148.374 E8.27731
G1 X174.783 Y148.374 E8.33403
G1 X174.399 Y147.301 E8.39089
G1 X174.627 Y147.179 E8.40379
G1 X174.832 Y147.453 E8.42086
G1 X174.859 Y147.483 E8.42288
G1 X175.164 Y147.754 E8.44323
G1 X175.196 Y147.777 E8.4452
G1 X175.536 Y147.975 E8.46483
G1 X175.573 Y147.991 E8.46684
G1 X175.961 Y148.123 E8.48729
G1 F1500 E1.98729
G0 F3600 X177.808 Y157.956
G1 F1500 E8.48729
G1 F1800 X179.97 Y157.952 E8.59515
G1 X179.012 Y160.282 E8.72084
G1 X178.968 Y160.383 E8.72633
G1 X178.768 Y160.381 E8.73631
G1 X177.808 Y157.956 E8.86643
G0 F3600 X178.396 Y158.355
G1 F1800 X179.373 Y158.353 E8.91517
G1 X178.875 Y159.564 E8.9805
G1 X178.396 Y158.355 E9.04538
G1 F1500 E2.54538
;MESH:3enrayaTA.stl
G0 F3600 X177.583 Y160.918
G0 X178.589 Y163.475
G0 X178.992 Y163.56
;TYPE:WALL-INNER
G1 F1500 E9.04538
G1 F1800 X178.766 Y163.56 E9.05665
G1 X178.589 Y163.507 E9.06587
G1 X178.417 Y163.384 E9.07642
G1 X178.292 Y163.192 E9.08785
G1 X177.395 Y160.991 E9.20643
G1 X175.921 Y157.257 E9.40671
G1 X175.888 Y157.014 E9.41894
G1 X176.012 Y156.688 E9.43634
G1 X176.156 Y156.555 E9.44612
G1 X176.41 Y156.456 E9.45972
G1 X181.394 Y156.452 E9.70837
G1 X181.642 Y156.551 E9.7217
G1 X181.787 Y156.686 E9.73158
G1 X181.911 Y157.016 E9.74917
G1 X181.877 Y157.253 E9.76111
G1 X180.398 Y160.859 E9.95556
G1 X179.437 Y163.263 E10.08473
G1 X179.17 Y163.507 E10.10277
G1 X178.992 Y163.56 E10.11204
G0 F3600 X178.993 Y163.941
G0 X175.277 Y156.235
G0 X173.955 Y150.174
G0 X173.955 Y149.843
G1 F1800 X173.779 Y149.747 E10.12204
G1 X173.608 Y149.543 E10.13532
G1 X169.987 Y139.44 E10.67076
G1 X162.854 Y139.79 E11.02705
G1 X175.843 Y176.502 E12.96988
G1 X181.959 Y176.502 E13.27501
G1 X194.984 Y139.792 E15.21834
G1 X187.78 Y139.44 E15.57818
G1 X184.189 Y149.548 E16.11335
G1 X183.934 Y149.803 E16.13134
G1 X183.73 Y149.874 E16.14212
G1 X174.149 Y149.874 E16.62011
G1 X173.955 Y149.843 E16.62991
G0 F3600 X173.955 Y150.174
G0 X183.685 Y150.174
G0 X183.685 Y149.471
;TYPE:WALL-OUTER
G1 F1800 X174.102 Y149.474 E17.10801
G1 X173.974 Y149.373 E17.11615
G1 X170.263 Y139.026 E17.66456
G1 X162.298 Y139.417 E18.06241
G1 X175.56 Y176.902 E20.04614
G1 X182.241 Y176.902 E20.37946
G1 X195.541 Y139.418 E22.36377
G1 X187.502 Y139.026 E22.76531
G1 X183.822 Y149.376 E23.31335
G1 X183.685 Y149.471 E23.32166
G0 F3600 X183.485 Y149.471
G0 X183.485 Y150.174
G0 X182.542 Y156.229
G0 X179.445 Y163.872
G0 X178.937 Y163.164
G1 F1800 X178.761 Y163.146 E23.33049
G1 X178.673 Y163.064 E23.33649
G1 X177.767 Y160.844 E23.45611
G1 X176.3 Y157.13 E23.65534
G1 X176.294 Y157 E23.66183
G1 X176.376 Y156.889 E23.66872
G1 X176.452 Y156.858 E23.67281
G1 X181.351 Y156.855 E23.91722
G1 X181.45 Y156.907 E23.9228
G1 X181.523 Y157.065 E23.93148
G1 X180.026 Y160.711 E24.12812
G1 X179.078 Y163.074 E24.25514
G1 X178.937 Y163.164 E24.26349
G0 F3600 X178.761 Y163.146
G0 X178.744 Y163.13
G0 X178.058 Y163.408
G0 X179.445 Y163.872
G0 X182.542 Y156.229
G0 X184.116 Y150.174
G0 X184.116 Y150.137
;TYPE:SKIN
G1 F1800 X184.359 Y149.947 E24.27888
G1 X184.528 Y149.728 E24.29268
G1 X188.044 Y139.835 E24.81649
G1 X194.455 Y140.146 E25.13671
G1 X181.691 Y176.121 E27.04113
G1 X176.11 Y176.121 E27.31957
G1 X163.382 Y140.145 E29.22344
G1 X169.723 Y139.835 E29.54017
G1 X173.271 Y149.724 E30.06433
G1 X173.402 Y149.908 E30.07559
G1 X173.654 Y150.119 E30.09199
G1 X174.005 Y150.251 E30.1107
G1 X183.791 Y150.251 E30.59893
G1 X184.116 Y150.137 E30.61611
G0 F3600 X184.116 Y150.174
G0 X182.542 Y156.229
G0 X179.445 Y163.872
G0 X178.715 Y163.936
G1 F1800 X179.182 Y163.907 E30.63945
G1 X179.481 Y163.762 E30.65603
G1 X179.771 Y163.451 E30.67725
G1 X180.745 Y161.016 E30.80809
G1 X182.246 Y157.346 E31.00591
G1 X182.291 Y156.991 E31.02376
G1 X182.186 Y156.608 E31.04357
G1 X181.989 Y156.342 E31.06009
G1 X181.721 Y156.164 E31.07614
G1 X181.455 Y156.072 E31.09018
G1 X176.356 Y156.078 E31.34457
G1 X175.942 Y156.241 E31.36677
G1 X175.716 Y156.45 E31.38212
G1 X175.54 Y156.803 E31.4018
G1 X175.508 Y157.031 E31.41329
G1 X175.562 Y157.384 E31.43111
G1 X177.041 Y161.132 E31.63213
G1 X177.95 Y163.358 E31.75208
G1 X178.143 Y163.649 E31.76951
G1 X178.424 Y163.85 E31.78674
G1 X178.715 Y163.936 E31.80188
G0 F3600 X178.714 Y163.942
G0 X176.486 Y175.921
G1 F1800 X176.121 Y175.555 E31.82767
G0 F3600 X175.811 Y174.68
G1 F1800 X177.052 Y175.921 E31.91523
G0 F3600 X177.618 Y175.921
G1 F1800 X175.501 Y173.804 E32.06459
G1 X175.431 Y173.734
G0 F3600 X175.192 Y172.929
G1 F1800 X178.183 Y175.921 E32.27566
G0 F3600 X178.749 Y175.921
G1 F1800 X174.882 Y172.053 E32.54853
G1 X174.812 Y171.983
G0 F3600 X174.572 Y171.178
G1 F1800 X179.315 Y175.921 E32.88318
G0 F3600 X179.88 Y175.921
G1 F1800 X174.262 Y170.303 E33.27956
G1 X174.192 Y170.233
G0 F3600 X173.953 Y169.427
G1 F1800 X180.446 Y175.921 E33.73771
G0 F3600 X181.012 Y175.921
G1 F1800 X173.643 Y168.552 E34.25763
G1 X173.573 Y168.482
G0 F3600 X173.333 Y167.676
G1 F1800 X181.557 Y175.9 E34.83788
G0 F3600 X181.705 Y175.482
G1 F1800 X173.024 Y166.801 E35.45037
G1 X172.954 Y166.731
G0 F3600 X172.714 Y165.926
G1 F1800 X181.853 Y175.065 E36.09518
G0 F3600 X182.001 Y174.647
G1 F1800 X172.404 Y165.05 E36.7723
G1 X172.334 Y164.98
G0 F3600 X172.094 Y164.175
G1 F1800 X182.149 Y174.23 E37.48173
G0 F3600 X182.297 Y173.812
G1 F1800 X171.785 Y163.299 E38.22345
G1 X171.715 Y163.229
G0 F3600 X171.475 Y162.424
G1 F1800 X182.446 Y173.395 E38.99751
G0 F3600 X182.594 Y172.977
G1 F1800 X171.165 Y161.549 E39.80385
G1 X171.095 Y161.479
G0 F3600 X170.856 Y160.673
G1 F1800 X182.742 Y172.56 E40.64251
G0 F3600 X182.89 Y172.142
G1 F1800 X170.546 Y159.798 E41.51344
G1 X170.476 Y159.728
G0 F3600 X170.236 Y158.922
G1 F1800 X183.038 Y171.725 E42.41673
G0 F3600 X183.186 Y171.307
G1 F1800 X169.926 Y158.047 E43.35229
G1 X169.856 Y157.977
G0 F3600 X169.617 Y157.172
G1 F1800 X183.335 Y170.89 E44.32017
G0 F3600 X183.482 Y170.472
G1 F1800 X169.307 Y156.296 E45.32033
G1 X169.237 Y156.226
G0 F3600 X168.997 Y155.421
G1 F1800 X183.631 Y170.054 E46.3528
G0 F3600 X183.779 Y169.637
G1 F1800 X168.688 Y154.545 E47.41759
G1 X168.618 Y154.475
G0 F3600 X168.378 Y153.67
G1 F1800 X177.506 Y162.798 E48.06162
G1 X177.576 Y162.868
G0 F3600 X177.115 Y161.841
G1 F1800 X168.068 Y152.795 E48.6999
