;FLAVOR:Marlin
;TIME:8184
;Filament used: 18.37m
;Layer height: 0.3
;MINX:26.388
;MINY:53.065
;MINZ:0.3
;MAXX:205.612
;MAXY:168.935
;MAXZ:9.9
;TARGET_MACHINE.NAME:Unknown
;Generated with Cura_SteamEngine 5.6.0
M140 S60
M105
M190 S60
M104 S200
M105
M109 S200
M82 ;absolute extrusion mode
G28 ;Home
G1 Z15.0 F6000 ;Move the platform down 15mm
;Prime the extruder
G92 E0
G1 F200 E3
G92 E0
G92 E0
G92 E0
G1 F1500 E-6.5
;LAYER_COUNT:33
;LAYER:0
M107
G0 F3600 X27.115 Y53.119 Z0.3
;TYPE:SKIRT
G1 F1500 E0
G1 F2400 X27.388 Y53.065 E0.01388
G1 X48.091 Y53.065 E1.04676
G1 X48.429 Y53.135 E1.06398
G1 X48.692 Y53.272 E1.07878
G1 X48.831 Y53.41 E1.08855
G1 X49.037 Y53.792 E1.1102
G1 X49.091 Y54.065 E1.12408
G1 X49.091 Y63.418 E1.59071
G1 X57.443 Y63.418 E2.00739
G1 X57.443 Y54.065 E2.47401
G1 X57.513 Y53.727 E2.49123
G1 X57.65 Y53.464 E2.50603
G1 X57.788 Y53.325 E2.5158
G1 X58.17 Y53.119 E2.53745
G1 X58.443 Y53.065 E2.55134
G1 X79.146 Y53.065 E3.58421
G1 X79.484 Y53.135 E3.60144
G1 X79.747 Y53.272 E3.61623
G1 X79.886 Y53.41 E3.626
G1 X80.092 Y53.792 E3.64765
G1 X80.146 Y54.065 E3.66154
G1 X80.146 Y64.418 E4.17805
G1 X80.076 Y64.756 E4.19527
G1 X79.939 Y65.019 E4.21007
G1 X79.801 Y65.158 E4.21984
G1 X79.419 Y65.364 E4.24149
G1 X79.146 Y65.418 E4.25538
G1 X69.794 Y65.418 E4.72195
G1 X69.794 Y73.769 E5.13858
G1 X79.146 Y73.769 E5.60515
G1 X79.484 Y73.839 E5.62238
G1 X79.747 Y73.976 E5.63717
G1 X79.886 Y74.114 E5.64694
G1 X80.092 Y74.496 E5.66859
G1 X80.146 Y74.769 E5.68248
G1 X80.146 Y85.121 E6.19894
G1 X80.076 Y85.459 E6.21616
G1 X79.939 Y85.722 E6.23096
G1 X79.801 Y85.861 E6.24073
G1 X79.419 Y86.067 E6.26238
G1 X79.146 Y86.121 E6.27627
G1 X69.794 Y86.121 E6.74284
G1 X69.794 Y94.472 E7.15947
G1 X79.146 Y94.472 E7.62605
G1 X79.484 Y94.542 E7.64327
G1 X79.747 Y94.679 E7.65806
G1 X79.886 Y94.817 E7.66783
G1 X80.092 Y95.199 E7.68949
G1 X80.146 Y95.472 E7.70337
G1 X80.146 Y105.823 E8.21978
G1 X80.076 Y106.161 E8.237
G1 X79.939 Y106.424 E8.2518
G1 X79.801 Y106.563 E8.26157
G1 X79.419 Y106.769 E8.28322
G1 X79.146 Y106.823 E8.29711
G1 X48.091 Y106.823 E9.84645
G1 X47.753 Y106.753 E9.86367
G1 X47.49 Y106.616 E9.87846
G1 X47.351 Y106.478 E9.88823
G1 X47.145 Y106.096 E9.90989
G1 X47.091 Y105.823 E9.92377
G1 X47.091 Y96.472 E10.39029
G1 X27.388 Y96.472 E11.37328
G1 X27.05 Y96.402 E11.3905
G1 X26.787 Y96.265 E11.4053
G1 X26.648 Y96.127 E11.41507
G1 X26.442 Y95.745 E11.43672
G1 X26.388 Y95.472 E11.4506
G1 X26.388 Y85.121 E11.96702
G1 X26.458 Y84.783 E11.98424
G1 X26.595 Y84.52 E11.99903
G1 X26.733 Y84.381 E12.0088
G1 X27.115 Y84.175 E12.03046
G1 X27.388 Y84.121 E12.04434
G1 X36.74 Y84.121 E12.51091
G1 X36.74 Y75.769 E12.9276
G1 X27.388 Y75.769 E13.39417
G1 X27.05 Y75.699 E13.41139
G1 X26.787 Y75.562 E13.42619
G1 X26.648 Y75.424 E13.43596
G1 X26.442 Y75.042 E13.45761
G1 X26.388 Y74.769 E13.47149
G1 X26.388 Y54.065 E14.50442
G1 X26.458 Y53.727 E14.52164
G1 X26.595 Y53.464 E14.53644
G1 X26.733 Y53.325 E14.54621
G1 X27.115 Y53.119 E14.56786
G0 F3600 X27.208 Y53.508
G1 F2400 X27.388 Y53.465 E14.57709
G1 X48.091 Y53.465 E15.60997
G1 X48.335 Y53.524 E15.62249
G1 X48.487 Y53.615 E15.63133
G1 X48.648 Y53.885 E15.64702
G1 X48.691 Y54.065 E15.65625
G1 X48.691 Y63.818 E16.14283
G1 X57.843 Y63.818 E16.59942
G1 X57.843 Y54.065 E17.086
G1 X57.902 Y53.821 E17.09853
G1 X57.993 Y53.669 E17.10737
G1 X58.263 Y53.508 E17.12305
G1 X58.443 Y53.465 E17.13228
G1 X79.146 Y53.465 E18.16516
G1 X79.39 Y53.524 E18.17768
G1 X79.542 Y53.615 E18.18652
G1 X79.703 Y53.885 E18.2022
G1 X79.746 Y54.065 E18.21144
G1 X79.746 Y64.418 E18.72795
G1 X79.687 Y64.662 E18.74047
G1 X79.596 Y64.814 E18.74931
G1 X79.326 Y64.975 E18.765
G1 X79.146 Y65.018 E18.77423
G1 X69.394 Y65.018 E19.26076
G1 X69.394 Y74.169 E19.7173
G1 X79.146 Y74.169 E20.20383
G1 X79.39 Y74.228 E20.21636
G1 X79.542 Y74.319 E20.2252
G1 X79.703 Y74.589 E20.24088
G1 X79.746 Y74.769 E20.25011
G1 X79.746 Y85.121 E20.76658
G1 X79.687 Y85.365 E20.7791
G1 X79.596 Y85.517 E20.78794
G1 X79.326 Y85.678 E20.80362
G1 X79.146 Y85.721 E20.81285
G1 X69.394 Y85.721 E21.29938
G1 X69.394 Y94.872 E21.75593
G1 X79.146 Y94.872 E22.24246
G1 X79.39 Y94.931 E22.25498
G1 X79.542 Y95.022 E22.26382
G1 X79.703 Y95.292 E22.2795
G1 X79.746 Y95.472 E22.28874
G1 X79.746 Y105.823 E22.80515
G1 X79.687 Y106.067 E22.81767
G1 X79.596 Y106.219 E22.82651
G1 X79.326 Y106.38 E22.8422
G1 X79.146 Y106.423 E22.85143
G1 X48.091 Y106.423 E24.40077
G1 X47.847 Y106.364 E24.41329
G1 X47.695 Y106.273 E24.42213
G1 X47.534 Y106.003 E24.43782
G1 X47.491 Y105.823 E24.44705
G1 X47.491 Y96.072 E24.93353
G1 X27.388 Y96.072 E25.93647
G1 X27.144 Y96.013 E25.94899
G1 X26.992 Y95.922 E25.95783
G1 X26.831 Y95.652 E25.97352
G1 X26.788 Y95.472 E25.98275
G1 X26.788 Y85.121 E26.49916
G1 X26.847 Y84.877 E26.51169
G1 X26.938 Y84.725 E26.52053
G1 X27.208 Y84.564 E26.53621
G1 X27.388 Y84.521 E26.54544
G1 X37.14 Y84.521 E27.03197
G1 X37.14 Y75.369 E27.48857
G1 X27.388 Y75.369 E27.9751
G1 X27.144 Y75.31 E27.98762
G1 X26.992 Y75.219 E27.99646
G1 X26.831 Y74.949 E28.01214
G1 X26.788 Y74.769 E28.02137
G1 X26.788 Y54.065 E29.0543
G1 X26.847 Y53.821 E29.06682
G1 X26.938 Y53.669 E29.07566
G1 X27.208 Y53.508 E29.09135
G0 F3600 X27.227 Y53.946
G1 F2400 X27.388 Y53.865 E29.10034
G1 X48.091 Y53.865 E30.13321
G1 X48.21 Y53.904 E30.13946
G1 X48.291 Y54.065 E30.14845
G1 X48.291 Y64.218 E30.65499
G1 X58.243 Y64.218 E31.1515
G1 X58.243 Y54.065 E31.65803
G1 X58.282 Y53.946 E31.66428
G1 X58.443 Y53.865 E31.67327
G1 X79.146 Y53.865 E32.70615
G1 X79.265 Y53.904 E32.7124
G1 X79.346 Y54.065 E32.72139
G1 X79.346 Y64.418 E33.2379
G1 X79.307 Y64.537 E33.24415
G1 X79.146 Y64.618 E33.25314
G1 X68.994 Y64.618 E33.75963
G1 X68.994 Y74.569 E34.25608
G1 X79.146 Y74.569 E34.76257
G1 X79.265 Y74.608 E34.76882
G1 X79.346 Y74.769 E34.77781
G1 X79.346 Y85.121 E35.29427
G1 X79.307 Y85.24 E35.30052
G1 X79.146 Y85.321 E35.30951
G1 X68.994 Y85.321 E35.816
G1 X68.994 Y95.272 E36.31245
G1 X79.146 Y95.272 E36.81894
G1 X79.265 Y95.311 E36.82519
G1 X79.346 Y95.472 E36.83418
G1 X79.346 Y105.823 E37.35059
G1 X79.307 Y105.942 E37.35684
G1 X79.146 Y106.023 E37.36583
G1 X48.091 Y106.023 E38.91517
G1 X47.972 Y105.984 E38.92142
G1 X47.891 Y105.823 E38.93041
G1 X47.891 Y95.672 E39.43684
G1 X27.388 Y95.672 E40.45974
G1 X27.269 Y95.633 E40.46599
G1 X27.188 Y95.472 E40.47498
G1 X27.188 Y85.121 E40.9914
G1 X27.227 Y85.002 E40.99764
G1 X27.388 Y84.921 E41.00664
G1 X37.54 Y84.921 E41.51312
G1 X37.54 Y74.969 E42.00963
G1 X27.388 Y74.969 E42.51611
G1 X27.269 Y74.93 E42.52236
G1 X27.188 Y74.769 E42.53135
G1 X27.188 Y54.065 E43.56428
G1 X27.227 Y53.946 E43.57053
G1 F1500 E37.07053
G0 F3600 X27.227 Y53.4
G0 X79.799 Y53.412
G0 X89.121 Y64.418
G1 F1500 E43.57053
G1 F2400 X89.121 Y74.769 E44.08694
G1 X89.175 Y75.042 E44.10082
G1 X89.381 Y75.424 E44.12248
G1 X89.52 Y75.562 E44.13225
G1 X89.783 Y75.699 E44.14704
G1 X90.121 Y75.769 E44.16426
G1 X99.472 Y75.769 E44.63079
G1 X99.472 Y84.121 E45.04747
G1 X90.121 Y84.121 E45.51399
G1 X89.848 Y84.175 E45.52788
G1 X89.466 Y84.381 E45.54953
G1 X89.328 Y84.52 E45.5593
G1 X89.191 Y84.783 E45.5741
G1 X89.121 Y85.121 E45.59132
G1 X89.121 Y95.472 E46.10773
G1 X89.175 Y95.745 E46.12162
G1 X89.381 Y96.127 E46.14327
G1 X89.52 Y96.265 E46.15304
G1 X89.783 Y96.402 E46.16783
G1 X90.121 Y96.472 E46.18505
G1 X99.472 Y96.472 E46.65158
G1 X99.472 Y105.823 E47.1181
G1 X99.526 Y106.096 E47.13199
G1 X99.732 Y106.478 E47.15364
G1 X99.871 Y106.616 E47.16341
G1 X100.134 Y106.753 E47.1782
G1 X100.472 Y106.823 E47.19543
G1 X110.824 Y106.823 E47.71189
G1 X111.097 Y106.769 E47.72577
G1 X111.479 Y106.563 E47.74743
G1 X111.617 Y106.424 E47.7572
G1 X111.754 Y106.161 E47.77199
G1 X111.824 Y105.823 E47.78921
G1 X111.824 Y96.472 E48.25574
G1 X141.879 Y96.472 E49.75519
G1 X142.152 Y96.418 E49.76907
G1 X142.534 Y96.212 E49.79072
G1 X142.672 Y96.073 E49.80049
G1 X142.809 Y95.81 E49.81529
G1 X142.879 Y95.472 E49.83251
G1 X142.879 Y74.769 E50.86539
G1 X142.825 Y74.496 E50.87927
G1 X142.619 Y74.114 E50.90092
G1 X142.48 Y73.976 E50.9107
G1 X142.217 Y73.839 E50.92549
G1 X141.879 Y73.769 E50.94271
G1 X132.527 Y73.769 E51.40928
G1 X132.527 Y54.065 E52.39232
G1 X132.473 Y53.792 E52.4062
G1 X132.267 Y53.41 E52.42786
G1 X132.128 Y53.272 E52.43763
G1 X131.865 Y53.135 E52.45242
G1 X131.527 Y53.065 E52.46964
G1 X121.176 Y53.065 E52.98606
G1 X120.903 Y53.119 E52.99994
G1 X120.521 Y53.325 E53.02159
G1 X120.383 Y53.464 E53.03137
G1 X120.246 Y53.727 E53.04616
G1 X120.176 Y54.065 E53.06338
G1 X120.176 Y63.418 E53.53
G1 X111.824 Y63.418 E53.94669
G1 X111.824 Y54.065 E54.41331
G1 X111.77 Y53.792 E54.42719
G1 X111.564 Y53.41 E54.44885
G1 X111.425 Y53.272 E54.45862
G1 X111.162 Y53.135 E54.47341
G1 X110.824 Y53.065 E54.49063
G1 X100.472 Y53.065 E55.0071
G1 X100.199 Y53.119 E55.02098
G1 X99.817 Y53.325 E55.04263
G1 X99.679 Y53.464 E55.05241
G1 X99.542 Y53.727 E55.0672
G1 X99.472 Y54.065 E55.08442
G1 X99.472 Y63.418 E55.55104
G1 X90.121 Y63.418 E56.01757
G1 X89.848 Y63.472 E56.03145
G1 X89.466 Y63.678 E56.0531
G1 X89.328 Y63.817 E56.06288
G1 X89.191 Y64.08 E56.07767
G1 X89.121 Y64.418 E56.09489
G0 F3600 X89.671 Y64.022
G1 F2400 X89.941 Y63.861 E56.11057
G1 X90.121 Y63.818 E56.11981
G1 X99.872 Y63.818 E56.60629
G1 X99.872 Y54.065 E57.09287
G1 X99.931 Y53.821 E57.10539
G1 X100.022 Y53.669 E57.11423
G1 X100.292 Y53.508 E57.12991
G1 X100.472 Y53.465 E57.13915
G1 X110.824 Y53.465 E57.65561
G1 X111.068 Y53.524 E57.66813
G1 X111.22 Y53.615 E57.67697
G1 X111.381 Y53.885 E57.69265
G1 X111.424 Y54.065 E57.70189
G1 X111.424 Y63.818 E58.18847
G1 X120.576 Y63.818 E58.64506
G1 X120.576 Y54.065 E59.13164
G1 X120.635 Y53.821 E59.14416
G1 X120.726 Y53.669 E59.153
G1 X120.996 Y53.508 E59.16869
G1 X121.176 Y53.465 E59.17792
G1 X131.527 Y53.465 E59.69433
G1 X131.771 Y53.524 E59.70686
G1 X131.923 Y53.615 E59.7157
G1 X132.084 Y53.885 E59.73138
G1 X132.127 Y54.065 E59.74061
G1 X132.127 Y74.169 E60.7436
G1 X141.879 Y74.169 E61.23013
G1 X142.123 Y74.228 E61.24266
G1 X142.275 Y74.319 E61.2515
G1 X142.436 Y74.589 E61.26718
G1 X142.479 Y74.769 E61.27641
G1 X142.479 Y95.472 E62.30929
G1 X142.42 Y95.716 E62.32181
G1 X142.329 Y95.868 E62.33065
G1 X142.059 Y96.029 E62.34634
G1 X141.879 Y96.072 E62.35557
G1 X111.424 Y96.072 E63.87497
G1 X111.424 Y105.823 E64.36145
G1 X111.365 Y106.067 E64.37398
G1 X111.274 Y106.219 E64.38282
G1 X111.004 Y106.38 E64.3985
G1 X110.824 Y106.423 E64.40773
G1 X100.472 Y106.423 E64.9242
G1 X100.228 Y106.364 E64.93672
G1 X100.076 Y106.273 E64.94556
G1 X99.915 Y106.003 E64.96124
G1 X99.872 Y105.823 E64.97047
G1 X99.872 Y96.072 E65.45695
G1 X90.121 Y96.072 E65.94343
G1 X89.877 Y96.013 E65.95596
G1 X89.725 Y95.922 E65.9648
G1 X89.564 Y95.652 E65.98048
G1 X89.521 Y95.472 E65.98971
G1 X89.521 Y85.121 E66.50613
G1 X89.58 Y84.877 E66.51865
G1 X89.671 Y84.725 E66.52749
G1 X89.941 Y84.564 E66.54317
G1 X90.121 Y84.521 E66.5524
G1 X99.872 Y84.521 E67.03888
G1 X99.872 Y75.369 E67.49548
G1 X90.121 Y75.369 E67.98196
G1 X89.877 Y75.31 E67.99448
G1 X89.725 Y75.219 E68.00332
G1 X89.564 Y74.949 E68.019
G1 X89.521 Y74.769 E68.02824
G1 X89.521 Y64.418 E68.54465
G1 X89.58 Y64.174 E68.55717
G1 X89.671 Y64.022 E68.56601
G0 F3600 X89.96 Y64.299
G1 F2400 X89.921 Y64.418 E68.57226
G1 X89.921 Y74.769 E69.08867
G1 X90.002 Y74.93 E69.09767
G1 X90.121 Y74.969 E69.10391
G1 X100.272 Y74.969 E69.61035
G1 X100.272 Y84.921 E70.10686
G1 X90.121 Y84.921 E70.61329
G1 X89.96 Y85.002 E70.62228
G1 X89.921 Y85.121 E70.62853
G1 X89.921 Y95.472 E71.14494
G1 X90.002 Y95.633 E71.15394
G1 X90.121 Y95.672 E71.16018
G1 X100.272 Y95.672 E71.66662
G1 X100.272 Y105.823 E72.17305
G1 X100.353 Y105.984 E72.18205
G1 X100.472 Y106.023 E72.18829
G1 X110.824 Y106.023 E72.70476
G1 X110.985 Y105.942 E72.71375
G1 X111.024 Y105.823 E72.72
G1 X111.024 Y95.672 E73.22643
G1 X141.879 Y95.672 E74.76579
G1 X142.04 Y95.591 E74.77479
G1 X142.079 Y95.472 E74.78103
G1 X142.079 Y74.769 E75.81391
G1 X141.998 Y74.608 E75.8229
G1 X141.879 Y74.569 E75.82915
G1 X131.727 Y74.569 E76.33563
G1 X131.727 Y54.065 E77.35858
G1 X131.646 Y53.904 E77.36757
G1 X131.527 Y53.865 E77.37382
G1 X121.176 Y53.865 E77.89024
G1 X121.015 Y53.946 E77.89923
G1 X120.976 Y54.065 E77.90548
G1 X120.976 Y64.218 E78.41201
G1 X111.024 Y64.218 E78.90852
G1 X111.024 Y54.065 E79.41505
G1 X110.943 Y53.904 E79.42404
G1 X110.824 Y53.865 E79.43029
G1 X100.472 Y53.865 E79.94676
G1 X100.311 Y53.946 E79.95575
G1 X100.272 Y54.065 E79.96199
G1 X100.272 Y64.218 E80.46853
G1 X90.121 Y64.218 E80.97497
G1 X89.96 Y64.299 E80.98396
G1 F1500 E74.48396
G0 F3600 X89.456 Y64.299
G0 X79.799 Y106.476
G0 X69.132 Y115.246
G1 F1500 E80.98396
G1 F2400 X69.395 Y115.383 E80.99875
G1 X69.534 Y115.521 E81.00852
G1 X69.74 Y115.903 E81.03018
G1 X69.794 Y116.176 E81.04406
G1 X69.794 Y135.879 E82.02705
G1 X79.146 Y135.879 E82.49362
G1 X79.484 Y135.949 E82.51084
G1 X79.747 Y136.086 E82.52564
G1 X79.886 Y136.224 E82.53541
G1 X80.092 Y136.606 E82.55706
G1 X80.146 Y136.879 E82.57094
G1 X80.146 Y147.231 E83.08741
G1 X80.076 Y147.569 E83.10463
G1 X79.939 Y147.832 E83.11942
G1 X79.801 Y147.971 E83.12919
G1 X79.419 Y148.177 E83.15085
G1 X79.146 Y148.231 E83.16473
G1 X69.794 Y148.231 E83.6313
G1 X69.794 Y157.582 E84.09783
G1 X69.724 Y157.92 E84.11505
G1 X69.587 Y158.183 E84.12984
G1 X69.449 Y158.322 E84.13961
G1 X69.067 Y158.528 E84.16127
G1 X68.794 Y158.582 E84.17515
G1 X49.091 Y158.582 E85.15814
G1 X49.091 Y167.935 E85.62476
G1 X49.021 Y168.273 E85.64198
G1 X48.884 Y168.536 E85.65678
G1 X48.746 Y168.675 E85.66655
G1 X48.364 Y168.881 E85.6882
G1 X48.091 Y168.935 E85.70208
G1 X27.388 Y168.935 E86.73496
G1 X27.05 Y168.865 E86.75218
G1 X26.787 Y168.728 E86.76698
G1 X26.648 Y168.59 E86.77675
G1 X26.442 Y168.208 E86.7984
G1 X26.388 Y167.935 E86.81229
G1 X26.388 Y147.231 E87.84521
G1 X26.458 Y146.893 E87.86243
G1 X26.595 Y146.63 E87.87723
G1 X26.733 Y146.491 E87.887
G1 X27.115 Y146.285 E87.90865
G1 X27.388 Y146.231 E87.92254
G1 X36.74 Y146.231 E88.38911
G1 X36.74 Y137.879 E88.80579
G1 X27.388 Y137.879 E89.27237
G1 X27.05 Y137.809 E89.28959
G1 X26.787 Y137.672 E89.30438
G1 X26.648 Y137.534 E89.31415
G1 X26.442 Y137.152 E89.33581
G1 X26.388 Y136.879 E89.34969
G1 X26.388 Y126.528 E89.8661
G1 X26.458 Y126.19 E89.88332
G1 X26.595 Y125.927 E89.89812
G1 X26.733 Y125.788 E89.90789
G1 X27.115 Y125.582 E89.92954
G1 X27.388 Y125.528 E89.94343
G1 X57.443 Y125.528 E91.44288
G1 X57.443 Y116.176 E91.90945
G1 X57.513 Y115.838 E91.92667
G1 X57.65 Y115.575 E91.94147
G1 X57.788 Y115.436 E91.95124
G1 X58.17 Y115.23 E91.97289
G1 X58.443 Y115.176 E91.98677
G1 X68.794 Y115.176 E92.50319
G1 X69.132 Y115.246 E92.52041
G1 F1500 E86.02041
G0 F3600 X57.79 Y115.523
G0 X27.388 Y125.863
G0 X27.388 Y125.928
G1 F1500 E92.52041
G1 F2400 X57.843 Y125.928 E94.03981
G1 X57.843 Y116.176 E94.52634
G1 X57.902 Y115.932 E94.53887
G1 X57.993 Y115.78 E94.54771
G1 X58.263 Y115.619 E94.56339
G1 X58.443 Y115.576 E94.57262
G1 X68.794 Y115.576 E95.08904
G1 X69.038 Y115.635 E95.10156
G1 X69.19 Y115.726 E95.1104
G1 X69.351 Y115.996 E95.12608
G1 X69.394 Y116.176 E95.13531
G1 X69.394 Y136.279 E96.13826
G1 X79.146 Y136.279 E96.62479
G1 X79.39 Y136.338 E96.63731
G1 X79.542 Y136.429 E96.64615
G1 X79.703 Y136.699 E96.66183
G1 X79.746 Y136.879 E96.67107
G1 X79.746 Y147.231 E97.18753
G1 X79.687 Y147.475 E97.20005
G1 X79.596 Y147.627 E97.20889
G1 X79.326 Y147.788 E97.22457
G1 X79.146 Y147.831 E97.23381
G1 X69.394 Y147.831 E97.72034
G1 X69.394 Y157.582 E98.20682
G1 X69.335 Y157.826 E98.21934
G1 X69.244 Y157.978 E98.22818
G1 X68.974 Y158.139 E98.24386
G1 X68.794 Y158.182 E98.25309
G1 X48.691 Y158.182 E99.25604
G1 X48.691 Y167.935 E99.74262
G1 X48.632 Y168.179 E99.75514
G1 X48.541 Y168.331 E99.76398
G1 X48.271 Y168.492 E99.77966
G1 X48.091 Y168.535 E99.7889
G1 X27.388 Y168.535 E100.82177
G1 X27.144 Y168.476 E100.8343
G1 X26.992 Y168.385 E100.84313
G1 X26.831 Y168.115 E100.85882
G1 X26.788 Y167.935 E100.86805
G1 X26.788 Y147.231 E101.90098
G1 X26.847 Y146.987 E101.9135
G1 X26.938 Y146.835 E101.92234
G1 X27.208 Y146.674 E101.93802
G1 X27.388 Y146.631 E101.94726
G1 X37.14 Y146.631 E102.43379
G1 X37.14 Y137.479 E102.89038
G1 X27.388 Y137.479 E103.37691
G1 X27.144 Y137.42 E103.38943
