;FLAVOR:Marlin
;TIME:2838
;Filament used: 1.43351m
;Layer height: 0.1
;MINX:78.706
;MINY:78.158
;MINZ:0.3
;MAXX:143.3
;MAXY:143.836
;MAXZ:3
;Generated with Cura_SteamEngine 5.4.0
M140 S60
M105
M190 S60
M104 S200
M105
M109 S200
M82 ;absolute extrusion mode
G28 ;Home
G1 Z15.0 F6000 ;Move the platform down 15mm
;Prime the extruder
G92 E0
G1 F200 E3
G92 E0
G92 E0
G92 E0
G1 F1500 E-6.5
;LAYER_COUNT:28
;LAYER:0
M107
G0 F3600 X86.742 Y88.08 Z0.3
;TYPE:SKIRT
G1 F1500 E0
G1 F1800 X87.893 Y87.043 E0.07729
G1 X88.844 Y86.264 E0.13862
G1 X89.752 Y85.564 E0.19582
G1 X90.726 Y84.855 E0.25593
G1 X91.708 Y84.179 E0.3154
G1 X92.722 Y83.52 E0.37574
G1 X93.759 Y82.891 E0.43625
G1 X94.495 Y82.492 E0.47802
G1 X96.266 Y81.666 E0.57551
G1 X97.774 Y81.047 E0.65684
G1 X99.271 Y80.503 E0.7363
G1 X100.96 Y79.964 E0.82475
G1 X102.615 Y79.487 E0.91068
G1 X104.242 Y79.086 E0.99428
G1 X105.889 Y78.741 E1.07823
G1 X107.528 Y78.487 E1.16098
G1 X109.393 Y78.303 E1.25448
G1 X111.285 Y78.188 E1.34904
G1 X113.178 Y78.158 E1.4435
G1 X115.05 Y78.212 E1.53693
G1 X116.884 Y78.349 E1.62868
G1 X118.693 Y78.57 E1.71961
G1 X120.021 Y78.808 E1.78692
G1 X122.173 Y79.367 E1.89784
G1 X123.143 Y79.7 E1.94901
G1 X124.155 Y80.104 E2.00337
G1 X125.128 Y80.531 E2.05638
G1 X126.124 Y81.005 E2.11141
G1 X127.105 Y81.503 E2.1663
G1 X128.102 Y82.039 E2.22277
G1 X129.078 Y82.602 E2.27899
G1 X130.172 Y83.297 E2.34365
G1 X130.9 Y83.821 E2.3884
G1 X132.21 Y84.891 E2.47279
G1 X133.282 Y85.859 E2.54485
G1 X134.289 Y86.829 E2.6146
G1 X135.262 Y87.825 E2.68407
G1 X136.225 Y88.874 E2.75511
G1 X136.847 Y89.618 E2.80349
G1 X137.827 Y90.965 E2.8866
G1 X138.51 Y92.083 E2.95196
G1 X139.046 Y93.044 E3.00686
G1 X139.559 Y94.035 E3.06253
G1 X140.07 Y95.078 E3.12048
G1 X140.585 Y96.192 E3.18171
G1 X141.021 Y97.209 E3.23691
G1 X141.454 Y98.297 E3.29533
G1 X141.787 Y99.248 E3.3456
G1 X142.207 Y100.532 E3.413
G1 X142.559 Y101.777 E3.47755
G1 X142.758 Y102.632 E3.52135
G1 X143.057 Y104.381 E3.60987
G1 X143.158 Y105.287 E3.65535
G1 X143.258 Y106.924 E3.73717
G1 X143.291 Y108.238 E3.80275
G1 X143.3 Y109.759 E3.87863
G1 X143.29 Y111.303 E3.95567
G1 X143.238 Y112.718 E4.02631
G1 X143.097 Y114.328 E4.10694
G1 X142.954 Y115.295 E4.15571
G1 X142.55 Y117.085 E4.24726
G1 X142.206 Y118.21 E4.30595
G1 X141.653 Y119.692 E4.38487
G1 X141.07 Y121.094 E4.46062
G1 X140.173 Y123.024 E4.5668
G1 X138.827 Y125.409 E4.70343
G1 X137.579 Y127.203 E4.81246
G1 X136.024 Y129.002 E4.93109
G1 X134.45 Y130.438 E5.03739
G1 X132.553 Y131.768 E5.15297
G1 X129.985 Y133.046 E5.29608
G1 X127.64 Y133.814 E5.41919
G1 X126.925 Y133.963 E5.45563
G1 X125.789 Y134.1 E5.51271
G1 X125.658 Y134.312 E5.52514
G1 X124.8 Y135.418 E5.59498
G1 X123.472 Y136.719 E5.68773
G1 X122.184 Y137.677 E5.76781
G1 X122.07 Y138.008 E5.78528
G1 X121.455 Y139.259 E5.85483
G1 X120.488 Y140.766 E5.94416
G1 X118.507 Y142.503 E6.0756
G1 X116.019 Y143.591 E6.21108
G1 X113.547 Y143.836 E6.33501
G1 X112.124 Y143.764 E6.4061
G1 X111.335 Y143.645 E6.44591
G1 X109.906 Y143.325 E6.51896
G1 X109.142 Y143.104 E6.55864
G1 X108.11 Y142.745 E6.61316
G1 X107.203 Y142.402 E6.66153
G1 X106.253 Y142.015 E6.71271
G1 X105.358 Y141.621 E6.7615
G1 X104.471 Y141.203 E6.81042
G1 X102.809 Y140.333 E6.90401
G1 X101.024 Y138.748 E7.0231
G1 X100.224 Y137.823 E7.08412
G1 X99.182 Y136.329 E7.17499
G1 X98.412 Y133.915 E7.30141
G1 X98.372 Y133.307 E7.3318
G1 X97.977 Y132.886 E7.36061
G1 X97.277 Y131.631 E7.4323
G1 X96.591 Y131.464 E7.46752
G1 X94.975 Y130.921 E7.55258
G1 X92.828 Y129.962 E7.66989
G1 X91.506 Y129.236 E7.74514
G1 X89.561 Y127.985 E7.86051
G1 X88.316 Y127.048 E7.93825
G1 X86.438 Y125.392 E8.06317
G1 X84.96 Y123.835 E8.17027
G1 X83.689 Y122.232 E8.27233
G1 X82.343 Y120.191 E8.39431
G1 X81.377 Y118.411 E8.49535
G1 X80.325 Y115.976 E8.62768
G1 X79.697 Y114.083 E8.72719
G1 X79.096 Y111.543 E8.85741
G1 X78.827 Y109.649 E8.95285
G1 X78.706 Y107.176 E9.07637
G1 X78.83 Y104.701 E9.20001
G1 X79.084 Y102.791 E9.29614
G1 X79.703 Y99.928 E9.44227
G1 X80.47 Y97.519 E9.5684
G1 X81.43 Y95.26 E9.69086
G1 X82.239 Y93.75 E9.77632
G1 X83.908 Y91.256 E9.92604
G1 X85.306 Y89.561 E10.03566
G1 X86.742 Y88.08 E10.13857
G0 F3600 X87.01 Y88.377
G1 F1800 X88.147 Y87.352 E10.21495
G1 X89.088 Y86.581 E10.27564
G1 X89.988 Y85.887 E10.33234
G1 X90.953 Y85.184 E10.3919
G1 X91.926 Y84.514 E10.45084
G1 X92.93 Y83.862 E10.51057
G1 X93.95 Y83.243 E10.57009
G1 X94.686 Y82.844 E10.61186
G1 X96.418 Y82.036 E10.70721
G1 X97.911 Y81.423 E10.78773
G1 X99.393 Y80.884 E10.86641
G1 X101.071 Y80.348 E10.95429
G1 X102.711 Y79.875 E11.03944
G1 X104.324 Y79.478 E11.12232
G1 X105.971 Y79.133 E11.20627
G1 X107.567 Y78.885 E11.28685
G1 X109.417 Y78.702 E11.3796
G1 X111.291 Y78.588 E11.47327
G1 X113.167 Y78.558 E11.56687
G1 X115.02 Y78.611 E11.65936
G1 X116.836 Y78.746 E11.75021
G1 X118.623 Y78.964 E11.84002
G1 X119.92 Y79.195 E11.90575
G1 X122.072 Y79.754 E12.01667
G1 X122.995 Y80.071 E12.06536
G1 X123.994 Y80.47 E12.11903
G1 X124.956 Y80.892 E12.17144
G1 X125.943 Y81.362 E12.22598
G1 X126.916 Y81.855 E12.2804
G1 X127.902 Y82.385 E12.33625
G1 X128.864 Y82.94 E12.39166
G1 X129.938 Y83.622 E12.45513
G1 X130.666 Y84.146 E12.49988
G1 X131.942 Y85.188 E12.58207
G1 X133.005 Y86.147 E12.65349
G1 X134.003 Y87.108 E12.72262
G1 X134.967 Y88.095 E12.79145
G1 X135.918 Y89.131 E12.86161
G1 X136.54 Y89.875 E12.90999
G1 X137.503 Y91.2 E12.99171
G1 X138.161 Y92.278 E13.05472
G1 X138.691 Y93.228 E13.10899
G1 X139.2 Y94.211 E13.16422
G1 X139.707 Y95.246 E13.22172
G1 X140.217 Y96.35 E13.28239
G1 X140.649 Y97.357 E13.33705
G1 X141.082 Y98.445 E13.39548
G1 X141.407 Y99.372 E13.44448
G1 X141.822 Y100.641 E13.51109
G1 X142.169 Y101.868 E13.57471
G1 X142.368 Y102.723 E13.61851
G1 X142.659 Y104.425 E13.70465
G1 X142.76 Y105.331 E13.75013
G1 X142.858 Y106.934 E13.83026
G1 X142.891 Y108.24 E13.89543
G1 X142.9 Y109.756 E13.97107
G1 X142.89 Y111.288 E14.0475
G1 X142.838 Y112.703 E14.11814
G1 X142.701 Y114.269 E14.19657
G1 X142.558 Y115.236 E14.24534
G1 X142.16 Y116.997 E14.33541
G1 X141.831 Y118.07 E14.3914
G1 X141.284 Y119.538 E14.46956
G1 X140.707 Y120.926 E14.54455
G1 X139.825 Y122.827 E14.64911
G1 X138.479 Y125.212 E14.78574
G1 X137.276 Y126.941 E14.89082
G1 X135.721 Y128.74 E15.00945
G1 X134.22 Y130.11 E15.11084
G1 X132.323 Y131.44 E15.22643
G1 X129.86 Y132.666 E15.36369
G1 X127.558 Y133.422 E15.48457
G1 X126.843 Y133.571 E15.52101
G1 X125.547 Y133.726 E15.58613
G1 X125.341 Y134.068 E15.60605
G1 X124.52 Y135.132 E15.67309
G1 X123.192 Y136.433 E15.76584
G1 X121.844 Y137.432 E15.84955
G1 X121.711 Y137.832 E15.87058
G1 X121.118 Y139.043 E15.93785
G1 X120.182 Y140.502 E16.02433
G1 X118.287 Y142.163 E16.15005
G1 X115.918 Y143.199 E16.27905
G1 X113.567 Y143.436 E16.39694
G1 X112.184 Y143.368 E16.46602
G1 X111.395 Y143.249 E16.50583
G1 X110.017 Y142.941 E16.57627
G1 X109.273 Y142.726 E16.61491
G1 X108.251 Y142.371 E16.66889
G1 X107.354 Y142.032 E16.71673
G1 X106.414 Y141.649 E16.76737
G1 X105.529 Y141.259 E16.81562
G1 X104.642 Y140.841 E16.86454
G1 X103.041 Y140.003 E16.95469
G1 X101.327 Y138.486 E17.06888
G1 X100.527 Y137.561 E17.1299
G1 X99.544 Y136.149 E17.21573
G1 X98.808 Y133.84 E17.33664
G1 X98.762 Y133.138 E17.37174
G1 X98.302 Y132.649 E17.40523
G1 X97.541 Y131.283 E17.48324
G1 X96.685 Y131.075 E17.52719
G1 X95.138 Y130.556 E17.6086
G1 X93.021 Y129.611 E17.72426
G1 X91.699 Y128.885 E17.79951
G1 X89.802 Y127.665 E17.91203
G1 X88.557 Y126.728 E17.98977
G1 X86.703 Y125.092 E18.11313
G1 X85.273 Y123.586 E18.21674
G1 X84.023 Y122.012 E18.31702
G1 X82.695 Y120 E18.43729
G1 X81.729 Y118.22 E18.53833
G1 X80.705 Y115.85 E18.66714
G1 X80.077 Y113.957 E18.76664
G1 X79.492 Y111.486 E18.89333
G1 X79.227 Y109.629 E18.98691
G1 X79.106 Y107.156 E19.11044
G1 X79.227 Y104.754 E19.23043
G1 X79.481 Y102.844 E19.32655
G1 X80.094 Y100.013 E19.47107
G1 X80.838 Y97.675 E19.59347
G1 X81.783 Y95.449 E19.71412
G1 X82.592 Y93.939 E19.79959
G1 X84.217 Y91.511 E19.94535
G1 X85.615 Y89.816 E20.05496
G1 X87.01 Y88.377 E20.15495
G0 F3600 X87.297 Y88.656
G1 F1800 X88.415 Y87.649 E20.23002
G1 X89.332 Y86.898 E20.28915
G1 X90.223 Y86.21 E20.34531
G1 X91.18 Y85.513 E20.40438
G1 X92.144 Y84.849 E20.46278
G1 X93.137 Y84.204 E20.52185
G1 X94.141 Y83.595 E20.58044
G1 X94.877 Y83.196 E20.62221
G1 X96.57 Y82.406 E20.71541
G1 X98.048 Y81.799 E20.79513
G1 X99.515 Y81.265 E20.87301
G1 X101.182 Y80.732 E20.96033
G1 X102.807 Y80.263 E21.04471
G1 X104.406 Y79.869 E21.12687
G1 X106.032 Y79.528 E21.20976
G1 X107.607 Y79.283 E21.28928
G1 X109.441 Y79.101 E21.38123
G1 X111.297 Y78.988 E21.47399
G1 X113.156 Y78.958 E21.56675
G1 X114.99 Y79.01 E21.65829
G1 X116.788 Y79.143 E21.74824
G1 X118.553 Y79.358 E21.83694
G1 X119.85 Y79.589 E21.90267
G1 X121.942 Y80.132 E22.0105
G1 X122.847 Y80.443 E22.05824
G1 X123.833 Y80.836 E22.11119
G1 X124.784 Y81.253 E22.163
G1 X125.762 Y81.719 E22.21705
G1 X126.727 Y82.207 E22.271
G1 X127.702 Y82.731 E22.32622
G1 X128.65 Y83.278 E22.38083
G1 X129.704 Y83.947 E22.44311
G1 X130.432 Y84.471 E22.48786
G1 X131.674 Y85.485 E22.56785
G1 X132.728 Y86.435 E22.63864
G1 X133.717 Y87.387 E22.70713
G1 X134.672 Y88.365 E22.77533
G1 X135.611 Y89.388 E22.8446
G1 X136.233 Y90.132 E22.89299
G1 X137.162 Y91.409 E22.97177
G1 X137.812 Y92.473 E23.03398
G1 X138.336 Y93.412 E23.08762
G1 X138.841 Y94.387 E23.1424
G1 X139.344 Y95.414 E23.19946
G1 X139.849 Y96.508 E23.25957
G1 X140.277 Y97.505 E23.3137
G1 X140.71 Y98.593 E23.37212
G1 X141.027 Y99.496 E23.41987
G1 X141.437 Y100.75 E23.48569
G1 X141.779 Y101.959 E23.54837
G1 X141.978 Y102.814 E23.59217
G1 X142.261 Y104.469 E23.67594
G1 X142.362 Y105.375 E23.72142
G1 X142.458 Y106.944 E23.79984
G1 X142.491 Y108.242 E23.86462
G1 X142.5 Y109.753 E23.94
G1 X142.49 Y111.273 E24.01584
G1 X142.438 Y112.688 E24.08648
G1 X142.305 Y114.21 E24.1627
G1 X142.162 Y115.177 E24.21147
G1 X141.777 Y116.88 E24.29858
G1 X141.456 Y117.93 E24.35336
G1 X140.909 Y119.398 E24.43152
G1 X140.344 Y120.758 E24.50499
G1 X139.477 Y122.63 E24.60791
G1 X138.131 Y125.015 E24.74454
G1 X136.973 Y126.679 E24.84568
G1 X135.418 Y128.478 E24.96432
G1 X133.99 Y129.782 E25.0608
G1 X132.093 Y131.112 E25.17638
G1 X129.735 Y132.286 E25.3078
G1 X127.476 Y133.03 E25.42645
G1 X126.761 Y133.179 E25.46289
G1 X125.303 Y133.352 E25.53614
G1 X125.024 Y133.824 E25.5635
G1 X124.239 Y134.847 E25.62783
G1 X122.953 Y136.112 E25.71782
G1 X121.649 Y137.083 E25.79894
G1 X121.512 Y137.159 E25.80675
G1 X121.351 Y137.657 E25.83286
G1 X120.781 Y138.827 E25.89779
G1 X119.876 Y140.238 E25.98143
G1 X118.07 Y141.821 E26.10124
G1 X115.814 Y142.807 E26.22407
G1 X113.527 Y143.038 E26.33875
G1 X112.244 Y142.972 E26.40285
G1 X111.455 Y142.853 E26.44265
G1 X110.128 Y142.557 E26.51049
G1 X109.404 Y142.348 E26.54808
G1 X108.392 Y141.997 E26.60152
G1 X107.505 Y141.662 E26.64882
G1 X106.575 Y141.283 E26.69893
G1 X105.7 Y140.897 E26.74664
G1 X104.813 Y140.479 E26.79556
G1 X103.272 Y139.673 E26.88232
G1 X101.63 Y138.224 E26.99158
G1 X100.83 Y137.299 E27.05259
G1 X99.907 Y135.971 E27.13328
G1 X99.204 Y133.765 E27.24879
G1 X99.152 Y132.967 E27.28868
G1 X98.628 Y132.412 E27.32676
G1 X97.806 Y130.935 E27.4111
G1 X96.779 Y130.686 E27.46382
G1 X95.301 Y130.191 E27.54158
G1 X93.213 Y129.26 E27.65564
G1 X91.915 Y128.548 E27.7295
G1 X90.043 Y127.345 E27.84051
G1 X88.798 Y126.408 E27.91825
G1 X86.993 Y124.816 E28.03833
G1 X85.586 Y123.337 E28.14017
G1 X84.357 Y121.792 E28.23866
G1 X83.047 Y119.809 E28.35723
G1 X82.081 Y118.029 E28.45827
G1 X81.085 Y115.724 E28.58355
G1 X80.457 Y113.831 E28.68305
G1 X79.888 Y111.429 E28.8062
G1 X79.627 Y109.609 E28.89793
G1 X79.506 Y107.176 E29.01946
G1 X79.624 Y104.807 E29.1378
G1 X79.878 Y102.897 E29.23393
G1 X80.475 Y100.134 E29.37496
G1 X81.206 Y97.831 E29.4955
G1 X82.136 Y95.638 E29.61434
G1 X82.945 Y94.128 E29.69981
G1 X84.526 Y91.766 E29.84161
G1 X85.924 Y90.071 E29.95123
G1 X87.297 Y88.656 E30.04959
G0 F3600 X87.584 Y88.935
G1 F1800 X88.669 Y87.958 E30.12244
G1 X89.577 Y87.214 E30.181
G1 X90.458 Y86.533 E30.23655
G1 X91.407 Y85.842 E30.29512
G1 X92.362 Y85.184 E30.35298
G1 X93.344 Y84.546 E30.41141
G1 X94.332 Y83.947 E30.46905
G1 X95.068 Y83.548 E30.51082
G1 X96.722 Y82.776 E30.60188
G1 X98.185 Y82.175 E30.68079
G1 X99.637 Y81.646 E30.75789
G1 X101.293 Y81.116 E30.84463
G1 X102.903 Y80.651 E30.92824
G1 X104.488 Y80.26 E31.00969
G1 X106.094 Y79.923 E31.09155
G1 X107.647 Y79.681 E31.16997
G1 X109.465 Y79.5 E31.26112
G1 X111.304 Y79.388 E31.35304
G1 X113.145 Y79.358 E31.4449
G1 X114.961 Y79.409 E31.53553
G1 X116.74 Y79.54 E31.62453
G1 X118.483 Y79.752 E31.71213
G1 X119.78 Y79.983 E31.77785
G1 X121.812 Y80.51 E31.88258
G1 X122.699 Y80.815 E31.92938
G1 X123.672 Y81.202 E31.98162
G1 X124.612 Y81.614 E32.03282
G1 X125.582 Y82.076 E32.08643
G1 X126.538 Y82.559 E32.13986
G1 X127.502 Y83.077 E32.19446
G1 X128.436 Y83.616 E32.24826
G1 X129.47 Y84.272 E32.30935
G1 X130.198 Y84.796 E32.3541
G1 X131.406 Y85.782 E32.4319
G1 X132.451 Y86.723 E32.50206
G1 X133.431 Y87.666 E32.56991
G1 X134.377 Y88.635 E32.63747
G1 X135.304 Y89.645 E32.70587
G1 X135.926 Y90.389 E32.75425
G1 X136.838 Y91.644 E32.83164
G1 X137.463 Y92.668 E32.8915
G1 X137.981 Y93.596 E32.94452
G1 X138.482 Y94.563 E32.99885
G1 X138.981 Y95.582 E33.05546
G1 X139.481 Y96.666 E33.11502
G1 X139.905 Y97.653 E33.16861
G1 X140.333 Y98.726 E33.22624
G1 X140.647 Y99.62 E33.27352
G1 X141.052 Y100.859 E33.33855
G1 X141.389 Y102.05 E33.4003
G1 X141.588 Y102.905 E33.4441
G1 X141.863 Y104.513 E33.52548
G1 X141.964 Y105.419 E33.57097
G1 X142.058 Y106.954 E33.64769
G1 X142.091 Y108.244 E33.71207
G1 X142.1 Y109.75 E33.78721
G1 X142.09 Y111.258 E33.86244
G1 X142.038 Y112.673 E33.93308
G1 X141.909 Y114.151 E34.0071
G1 X141.766 Y115.118 E34.05587
G1 X141.387 Y116.792 E34.1415
G1 X141.081 Y117.79 E34.19358
G1 X140.534 Y119.258 E34.27174
G1 X139.981 Y120.59 E34.34369
G1 X139.114 Y122.462 E34.44661
G1 X137.803 Y124.787 E34.57978
G1 X136.67 Y126.417 E34.67882
G1 X135.115 Y128.216 E34.79745
G1 X133.76 Y129.454 E34.88902
G1 X131.863 Y130.784 E35.0046
G1 X129.61 Y131.906 E35.13017
G1 X127.394 Y132.638 E35.24661
G1 X126.679 Y132.787 E35.28304
G1 X125.057 Y132.979 E35.36453
G1 X124.707 Y133.58 E35.39923
G1 X123.922 Y134.603 E35.46356
G1 X122.714 Y135.791 E35.54809
G1 X121.41 Y136.762 E35.6292
G1 X121.182 Y136.878 E35.64196
G1 X120.97 Y137.534 E35.67636
G1 X120.444 Y138.611 E35.73616
G1 X119.57 Y139.974 E35.81693
G1 X117.853 Y141.479 E35.93085
G1 X115.71 Y142.415 E36.04751
G1 X113.547 Y142.638 E36.156
G1 X112.304 Y142.576 E36.21809
G1 X111.515 Y142.457 E36.2579
G1 X110.239 Y142.173 E36.32311
G1 X109.535 Y141.97 E36.35967
G1 X108.533 Y141.623 E36.41257
G1 X107.656 Y141.292 E36.45934
G1 X106.736 Y140.917 E36.5089
G1 X105.87 Y140.535 E36.55612
G1 X104.998 Y140.125 E36.6042
G1 X103.501 Y139.342 E36.68848
G1 X101.933 Y137.962 E36.79269
G1 X101.133 Y137.037 E36.85371
G1 X100.269 Y135.791 E36.92935
G1 X99.6 Y133.691 E37.03931
G1 X99.542 Y132.796 E37.08405
G1 X98.953 Y132.173 E37.12683
G1 X98.071 Y130.587 E37.21737
G1 X96.873 Y130.297 E37.27886
G1 X95.464 Y129.826 E37.35298
G1 X93.405 Y128.909 E37.46543
G1 X92.107 Y128.197 E37.53929
G1 X90.284 Y127.025 E37.64741
G1 X89.039 Y126.088 E37.72515
G1 X87.283 Y124.54 E37.84194
G1 X85.899 Y123.088 E37.94202
G1 X84.691 Y121.571 E38.03877
G1 X83.399 Y119.618 E38.15559
G1 X82.433 Y117.838 E38.25663
G1 X81.465 Y115.598 E38.37837
G1 X80.837 Y113.705 E38.47788
G1 X80.284 Y111.372 E38.5975
G1 X80.027 Y109.589 E38.68737
G1 X79.906 Y107.156 E38.8089
G1 X80.021 Y104.86 E38.9236
G1 X80.275 Y102.95 E39.01972
G1 X80.866 Y100.219 E39.15913
G1 X81.574 Y97.987 E39.27595
G1 X82.489 Y95.827 E39.39298
G1 X83.298 Y94.317 E39.47845
G1 X84.835 Y92.021 E39.61629
G1 X86.233 Y90.326 E39.72591
G1 X87.584 Y88.935 E39.82265
G0 F3600 X87.871 Y89.214
G1 F1800 X88.937 Y88.255 E39.89419
G1 X89.822 Y87.53 E39.95127
G1 X90.693 Y86.856 E40.00621
G1 X91.634 Y86.171 E40.06428
G1 X92.58 Y85.519 E40.1216
G1 X93.551 Y84.888 E40.17937
G1 X94.523 Y84.299 E40.23607
G1 X95.259 Y83.9 E40.27784
G1 X96.874 Y83.146 E40.36676
G1 X98.322 Y82.551 E40.44487
G1 X99.759 Y82.027 E40.52118
G1 X101.404 Y81.5 E40.60735
G1 X102.999 Y81.039 E40.69019
G1 X104.57 Y80.651 E40.77092
