;FLAVOR:Marlin
;TIME:9337
;Filament used: 18.6497m
;Layer height: 0.2
;MINX:48.627
;MINY:25.255
;MINZ:0.3
;MAXX:186.139
;MAXY:201.62
;MAXZ:21.5
;TARGET_MACHINE.NAME:Unknown
;Generated with Cura_SteamEngine 5.5.0
M140 S60
M105
M190 S60
M104 S185
M105
M109 S185
M82 ;absolute extrusion mode
G28 ;Home
G1 Z15.0 F6000 ;Move the platform down 15mm
;Prime the extruder
G92 E0
G1 F200 E3
G92 E0
G92 E0
G92 E0
G1 F4800 E-2.5
;LAYER_COUNT:9
;LAYER:0
M107
M204 S3000
M205 X20 Y20
G0 F2400 X69.379 Y143.585 Z0.3
M204 S2000
;TYPE:SKIRT
G1 F4800 E0
G1 F3000 X69.992 Y143.3 E0.04857
G1 X70.594 Y143.076 E0.09471
G1 X71.207 Y142.902 E0.14049
G1 X71.879 Y142.767 E0.18973
G1 X72.528 Y142.692 E0.23667
G1 X73.091 Y142.669 E0.27715
G1 X79.214 Y142.669 E0.71704
G1 X79.779 Y142.694 E0.75767
G1 X80.725 Y142.818 E0.82621
G1 X81.491 Y143.013 E0.883
G1 X82.21 Y143.257 E0.93755
G1 X83.013 Y143.642 E1.00152
G1 X83.569 Y143.967 E1.04779
G1 X84.108 Y144.344 E1.09504
G1 X84.574 Y144.727 E1.13838
G1 X85.091 Y145.226 E1.19
G1 X85.515 Y145.709 E1.23617
G1 X86.031 Y146.41 E1.29871
G1 X86.38 Y147.016 E1.34895
G1 X86.71 Y147.719 E1.40474
G1 X86.935 Y148.321 E1.45091
G1 X87.109 Y148.936 E1.49683
G1 X87.24 Y149.586 E1.54446
G1 X87.336 Y150.451 E1.60699
G1 X87.33 Y151.363 E1.67251
G1 X87.274 Y152.005 E1.71881
G1 X87.136 Y152.813 E1.7777
G1 X86.923 Y153.552 E1.83295
G1 X86.689 Y154.173 E1.88062
G1 X86.399 Y154.8 E1.93025
G1 X85.919 Y155.583 E1.99623
G1 X85.538 Y156.099 E2.04232
G1 X85.143 Y156.558 E2.08582
G1 X78.987 Y162.719 E2.71152
G1 X78.541 Y163.126 E2.7549
G1 X78.002 Y163.544 E2.8039
G1 X77.483 Y163.885 E2.84852
G1 X76.903 Y164.206 E2.89614
G1 X76.387 Y164.442 E2.9369
G1 X75.705 Y164.689 E2.98901
G1 X75.144 Y164.843 E3.03081
G1 X74.284 Y165.007 E3.09371
G1 X73.27 Y165.078 E3.16673
G1 X72.504 Y165.044 E3.22182
G1 X71.752 Y164.949 E3.27627
G1 X71.163 Y164.825 E3.31951
G1 X70.472 Y164.621 E3.37128
G1 X69.732 Y164.332 E3.42835
G1 X68.976 Y163.93 E3.48986
G1 X68.425 Y163.574 E3.53699
G1 X67.896 Y163.171 E3.58477
G1 X67.422 Y162.744 E3.6306
G1 X66.853 Y162.141 E3.69016
G1 X66.35 Y161.463 E3.75081
G1 X66.006 Y160.907 E3.79778
G1 X65.711 Y160.336 E3.84396
G1 X65.447 Y159.702 E3.89329
G1 X65.196 Y158.916 E3.95257
G1 X65.037 Y158.112 E4.01145
G1 X64.964 Y157.482 E4.05701
G1 X64.941 Y156.899 E4.09893
G1 X64.943 Y150.793 E4.5376
G1 X64.989 Y149.943 E4.59875
G1 X65.122 Y149.156 E4.65609
G1 X65.275 Y148.555 E4.70065
G1 X65.551 Y147.745 E4.76213
G1 X65.897 Y147.028 E4.81932
G1 X66.251 Y146.424 E4.86962
G1 X66.702 Y145.782 E4.92598
G1 X67.266 Y145.15 E4.98684
G1 X67.885 Y144.567 E5.04793
G1 X68.631 Y144.014 E5.11464
G1 X69.379 Y143.585 E5.17659
M204 S3000
G0 F2400 X69.582 Y144.02
M204 S2000
G1 F3000 X70.161 Y143.749 E5.22251
G1 X70.726 Y143.537 E5.26587
G1 X71.302 Y143.372 E5.30891
G1 X71.935 Y143.244 E5.35531
G1 X72.548 Y143.172 E5.39965
G1 X73.111 Y143.149 E5.44013
G1 X79.193 Y143.149 E5.87708
G1 X79.758 Y143.174 E5.91771
G1 X80.607 Y143.283 E5.9792
G1 X81.337 Y143.468 E6.0333
G1 X82.056 Y143.712 E6.08785
G1 X82.772 Y144.057 E6.14495
G1 X83.295 Y144.361 E6.18841
G1 X83.803 Y144.715 E6.23289
G1 X84.269 Y145.098 E6.27623
G1 X84.73 Y145.543 E6.32226
G1 X85.154 Y146.026 E6.36843
G1 X85.615 Y146.65 E6.42417
G1 X85.964 Y147.256 E6.47441
G1 X86.261 Y147.888 E6.52458
G1 X86.473 Y148.453 E6.56793
G1 X86.638 Y149.031 E6.61111
G1 X86.769 Y149.681 E6.65875
G1 X86.856 Y150.449 E6.71428
G1 X86.852 Y151.323 E6.77707
G1 X86.801 Y151.926 E6.82054
G1 X86.675 Y152.681 E6.87553
G1 X86.474 Y153.383 E6.92799
G1 X86.253 Y153.971 E6.97312
G1 X85.963 Y154.598 E7.02275
G1 X85.532 Y155.299 E7.08187
G1 X85.174 Y155.786 E7.12529
G1 X84.779 Y156.245 E7.1688
G1 X78.663 Y162.364 E7.79033
G1 X78.217 Y162.771 E7.83371
G1 X77.738 Y163.143 E7.87728
G1 X77.25 Y163.465 E7.91929
G1 X76.703 Y163.769 E7.96424
G1 X76.187 Y164.005 E8.00501
G1 X75.578 Y164.226 E8.05155
G1 X75.017 Y164.38 E8.09335
G1 X74.249 Y164.528 E8.14953
G1 X73.291 Y164.598 E8.21854
G1 X72.525 Y164.564 E8.27363
G1 X71.851 Y164.479 E8.32243
G1 X71.262 Y164.355 E8.36568
G1 X70.647 Y164.174 E8.41173
G1 X69.907 Y163.885 E8.46881
G1 X69.235 Y163.526 E8.52354
G1 X68.715 Y163.192 E8.56794
G1 X68.217 Y162.814 E8.61286
G1 X67.77 Y162.413 E8.656
G1 X67.238 Y161.854 E8.71144
G1 X66.758 Y161.209 E8.7692
G1 X66.432 Y160.685 E8.81354
G1 X66.154 Y160.151 E8.85679
G1 X65.904 Y159.554 E8.90328
G1 X65.667 Y158.822 E8.95856
G1 X65.514 Y158.056 E9.01468
G1 X65.444 Y157.462 E9.05765
G1 X65.421 Y156.899 E9.09813
G1 X65.422 Y150.817 E9.53507
G1 X65.462 Y150.023 E9.59219
G1 X65.588 Y149.273 E9.64682
G1 X65.73 Y148.708 E9.68868
G1 X65.984 Y147.953 E9.7459
G1 X66.312 Y147.27 E9.80034
G1 X66.644 Y146.7 E9.84773
G1 X67.095 Y146.058 E9.90409
G1 X67.597 Y145.498 E9.95812
G1 X68.172 Y144.952 E10.01509
G1 X68.871 Y144.43 E10.07776
G1 X69.582 Y144.02 E10.13673
M204 S3000
G0 F2400 X69.786 Y144.454
M204 S2000
G1 F3000 X70.331 Y144.198 E10.17998
G1 X70.859 Y143.998 E10.22055
G1 X71.398 Y143.842 E10.26086
G1 X71.992 Y143.721 E10.30441
G1 X72.568 Y143.652 E10.34609
G1 X73.131 Y143.629 E10.38657
G1 X79.172 Y143.629 E10.82056
G1 X79.737 Y143.654 E10.86119
G1 X80.49 Y143.748 E10.91571
G1 X81.185 Y143.923 E10.9672
G1 X81.848 Y144.145 E11.01743
G1 X82.532 Y144.473 E11.07193
G1 X83.021 Y144.755 E11.11248
G1 X83.498 Y145.086 E11.15419
G1 X83.964 Y145.469 E11.19753
G1 X84.37 Y145.861 E11.23807
G1 X84.769 Y146.313 E11.28139
G1 X85.199 Y146.89 E11.33308
G1 X85.548 Y147.496 E11.38332
G1 X85.812 Y148.058 E11.42793
G1 X86.012 Y148.586 E11.46849
G1 X86.168 Y149.127 E11.50894
G1 X86.292 Y149.737 E11.55366
G1 X86.376 Y150.448 E11.6051
G1 X86.374 Y151.283 E11.66509
G1 X86.327 Y151.849 E11.70589
G1 X86.213 Y152.55 E11.75691
G1 X86.024 Y153.215 E11.80658
G1 X85.817 Y153.769 E11.84907
G1 X85.527 Y154.396 E11.8987
G1 X85.145 Y155.015 E11.95095
G1 X84.809 Y155.474 E11.99182
G1 X84.439 Y155.906 E12.03268
G1 X78.339 Y162.01 E12.65264
G1 X77.921 Y162.393 E12.69337
G1 X77.473 Y162.743 E12.73422
G1 X77.016 Y163.046 E12.77361
G1 X76.503 Y163.333 E12.81584
G1 X76.022 Y163.554 E12.85387
G1 X75.45 Y163.763 E12.89762
G1 X74.924 Y163.909 E12.93684
G1 X74.212 Y164.049 E12.98897
G1 X73.312 Y164.118 E13.05382
G1 X72.546 Y164.084 E13.1089
G1 X71.949 Y164.009 E13.15213
G1 X71.396 Y163.894 E13.19271
G1 X70.82 Y163.726 E13.23581
G1 X70.132 Y163.461 E13.28878
G1 X69.493 Y163.121 E13.34078
G1 X69.004 Y162.809 E13.38245
G1 X68.537 Y162.456 E13.42451
G1 X68.116 Y162.08 E13.46506
G1 X67.623 Y161.567 E13.51617
G1 X67.165 Y160.954 E13.57115
G1 X66.857 Y160.462 E13.61285
G1 X66.596 Y159.964 E13.65324
G1 X66.36 Y159.405 E13.69683
G1 X66.138 Y158.727 E13.74809
G1 X65.991 Y157.999 E13.80144
G1 X65.924 Y157.442 E13.84175
G1 X65.901 Y156.879 E13.88223
G1 X65.901 Y150.839 E14.31615
G1 X65.935 Y150.102 E14.36916
G1 X66.054 Y149.39 E14.42102
G1 X66.196 Y148.825 E14.46287
G1 X66.417 Y148.161 E14.51315
G1 X66.745 Y147.478 E14.56758
G1 X67.038 Y146.974 E14.60946
G1 X67.453 Y146.378 E14.66164
G1 X67.929 Y145.845 E14.71298
G1 X68.459 Y145.337 E14.76572
G1 X69.158 Y144.815 E14.82839
G1 X69.786 Y144.454 E14.88043
M204 S3000
G1 F4800 E12.38043
;MESH:Post-it_clapperboard_Connector_x2.stl(1)
G0 F2400 X70.079 Y145.045
G0 X69.24 Y148.465
G0 X69.214 Y149.111
G0 X69.497 Y149.902
G0 X70.02 Y150.445
G0 X71.529 Y151.233
G0 X71.343 Y150.6
M204 S2000
;TYPE:WALL-OUTER
G1 F4800 E14.88043
G1 F3000 X70.736 Y150.561 E14.92413
G1 X70.195 Y150.334 E14.96628
G1 X69.843 Y150.026 E14.99988
G1 X69.68 Y149.814 E15.0191
G1 X69.478 Y149.38 E15.05349
G1 X69.413 Y149.096 E15.07442
G1 X69.439 Y148.504 E15.11699
G1 X69.582 Y148.092 E15.14832
G1 X69.762 Y147.806 E15.1726
G1 X70.165 Y147.428 E15.21229
G1 X70.583 Y147.217 E15.24593
G1 X71.174 Y147.126 E15.28889
G1 X71.758 Y147.24 E15.33164
G1 X72.236 Y147.518 E15.37136
G1 X72.584 Y147.897 E15.40833
G1 X72.733 Y148.171 E15.43074
G1 X72.872 Y148.69 E15.46934
G1 X72.875 Y149.028 E15.49362
G1 X72.727 Y149.588 E15.53523
G1 X72.504 Y149.952 E15.5659
G1 X72.282 Y150.184 E15.58897
G1 X71.92 Y150.425 E15.62021
G1 X71.343 Y150.6 E15.66353
M204 S3000
G0 F2400 X71.144 Y150.588
G0 X71.106 Y151.247
G0 X81.294 Y151.258
G0 X81.332 Y150.602
M204 S2000
G1 F3000 X80.744 Y150.563 E15.70586
G1 X80.188 Y150.326 E15.74929
G1 X79.858 Y150.043 E15.78052
G1 X79.674 Y149.806 E15.80207
G1 X79.489 Y149.414 E15.83321
G1 X79.415 Y149.09 E15.85709
G1 X79.437 Y148.517 E15.89829
G1 X79.574 Y148.113 E15.92893
G1 X79.777 Y147.791 E15.95628
G1 X80.169 Y147.425 E15.99481
G1 X80.584 Y147.22 E16.02806
G1 X81.17 Y147.129 E16.07067
G1 X81.752 Y147.237 E16.11319
G1 X82.279 Y147.55 E16.15723
G1 X82.557 Y147.858 E16.18703
G1 X82.729 Y148.156 E16.21175
G1 X82.868 Y148.67 E16.25001
G1 X82.875 Y149.023 E16.27537
G1 X82.733 Y149.572 E16.31611
G1 X82.494 Y149.965 E16.34916
G1 X82.271 Y150.193 E16.37207
G1 X81.918 Y150.426 E16.40245
G1 X81.332 Y150.602 E16.44641
M204 S3000
G0 F2400 X81.133 Y150.589
G0 X81.095 Y151.247
G0 X72.665 Y160.649
G0 X72.257 Y160.92
G0 X71.289 Y161.258
G0 X71.327 Y160.599
M204 S2000
G1 F3000 X70.746 Y160.567 E16.48822
G1 X70.187 Y160.325 E16.53198
G1 X69.86 Y160.046 E16.56286
G1 X69.681 Y159.815 E16.58385
G1 X69.478 Y159.38 E16.61834
G1 X69.413 Y159.096 E16.63927
G1 X69.439 Y158.504 E16.68184
G1 X69.59 Y158.078 E16.71431
G1 X69.777 Y157.791 E16.73892
G1 X70.172 Y157.42 E16.77785
G1 X70.621 Y157.211 E16.81343
G1 X71.188 Y157.13 E16.85458
G1 X71.747 Y157.236 E16.89546
G1 X72.245 Y157.524 E16.93679
G1 X72.568 Y157.873 E16.97095
G1 X72.723 Y158.14 E16.99313
G1 X72.867 Y158.67 E17.03259
G1 X72.874 Y159.032 E17.0586
G1 X72.736 Y159.561 E17.09787
G1 X72.502 Y159.955 E17.13079
G1 X72.299 Y160.168 E17.15193
G1 X71.919 Y160.425 E17.18489
G1 X71.327 Y160.599 E17.22922
M204 S3000
G0 F2400 X71.127 Y160.588
G0 X71.089 Y161.247
G0 X72.637 Y162.948
G0 X72.579 Y163.603
M204 S2000
G1 F3000 X73.33 Y163.638 E17.28323
G1 X74.15 Y163.572 E17.34233
G1 X74.817 Y163.442 E17.39115
G1 X75.313 Y163.301 E17.4282
G1 X75.829 Y163.112 E17.46768
G1 X76.298 Y162.897 E17.50474
G1 X76.991 Y162.51 E17.56177
G1 X77.617 Y162.02 E17.61888
G1 X78.009 Y161.658 E17.65721
G1 X84.099 Y155.562 E18.27626
G1 X84.441 Y155.164 E18.31396
G1 X84.748 Y154.744 E18.35133
G1 X85.093 Y154.186 E18.39846
G1 X85.373 Y153.583 E18.44623
G1 X85.574 Y153.044 E18.48756
G1 X85.748 Y152.429 E18.53347
G1 X85.853 Y151.771 E18.58134
G1 X85.895 Y151.268 E18.6176
G1 X85.895 Y150.469 E18.67501
G1 X85.818 Y149.819 E18.72203
G1 X85.701 Y149.239 E18.76454
G1 X85.554 Y148.728 E18.80274
G1 X85.373 Y148.249 E18.83953
G1 X85.134 Y147.739 E18.87999
G1 X84.792 Y147.146 E18.92917
G1 X84.392 Y146.612 E18.9771
G1 X84.039 Y146.212 E19.01543
G1 X83.638 Y145.824 E19.05551
G1 X83.197 Y145.461 E19.09655
G1 X82.766 Y145.164 E19.13415
G1 X82.295 Y144.892 E19.17323
G1 X81.678 Y144.596 E19.22239
G1 X81.046 Y144.383 E19.2703
G1 X80.39 Y144.219 E19.31888
G1 X79.703 Y144.135 E19.36861
G1 X79.149 Y144.109 E19.40845
G1 X73.154 Y144.109 E19.83914
G1 X72.596 Y144.133 E19.87927
G1 X72.083 Y144.194 E19.91638
G1 X71.511 Y144.309 E19.9583
G1 X71.002 Y144.456 E19.99636
G1 X70.524 Y144.637 E20.03308
G1 X69.995 Y144.887 E20.07511
G1 X69.436 Y145.208 E20.12142
G1 X68.758 Y145.714 E20.1822
G1 X68.289 Y146.163 E20.22885
G1 X67.827 Y146.682 E20.27877
G1 X67.44 Y147.242 E20.32767
G1 X67.166 Y147.711 E20.36669
G1 X66.871 Y148.325 E20.41563
G1 X66.652 Y148.981 E20.46532
G1 X66.526 Y149.485 E20.50264
G1 X66.413 Y150.168 E20.55237
G1 X66.381 Y150.861 E20.60221
G1 X66.381 Y156.871 E21.03398
G1 X66.403 Y157.398 E21.07188
G1 X66.465 Y157.918 E21.1095
G1 X66.606 Y158.615 E21.16059
G1 X66.819 Y159.257 E21.20918
G1 X67.034 Y159.764 E21.24874
G1 X67.272 Y160.22 E21.2857
G1 X67.574 Y160.699 E21.32638
G1 X67.981 Y161.247 E21.37542
G1 X68.435 Y161.721 E21.42257
G1 X68.851 Y162.092 E21.46262
G1 X69.285 Y162.419 E21.50166
G1 X69.739 Y162.708 E21.54032
G1 X70.35 Y163.032 E21.59001
G1 X70.991 Y163.277 E21.6393
G1 X71.492 Y163.422 E21.67677
G1 X72.042 Y163.536 E21.71713
G1 X72.579 Y163.603 E21.75601
M204 S3000
G0 F2400 X72.779 Y163.612
G0 X72.62 Y163.124
M204 S2000
;TYPE:WALL-INNER
G1 F3000 X73.321 Y163.157 E21.80642
G1 X74.084 Y163.096 E21.86141
G1 X74.923 Y162.932 E21.92283
G1 X75.871 Y162.586 E21.99533
G1 X76.726 Y162.108 E22.0657
G1 X77.306 Y161.654 E22.11862
G1 X77.676 Y161.312 E22.15482
G1 X83.747 Y155.236 E22.77188
G1 X84.35 Y154.476 E22.84158
G1 X84.669 Y153.958 E22.88528
G1 X84.929 Y153.398 E22.92964
G1 X85.117 Y152.894 E22.96829
G1 X85.278 Y152.325 E23.01077
G1 X85.415 Y151.469 E23.07305
G1 X85.415 Y150.497 E23.14288
G1 X85.344 Y149.895 E23.18643
G1 X85.235 Y149.353 E23.22615
G1 X84.931 Y148.436 E23.29555
G1 X84.708 Y147.961 E23.33325
G1 X84.39 Y147.411 E23.37889
G1 X83.875 Y146.723 E23.44063
G1 X83.318 Y146.182 E23.49642
G1 X82.721 Y145.692 E23.5519
G1 X82.071 Y145.317 E23.60581
G1 X81.497 Y145.042 E23.65154
G1 X80.911 Y144.845 E23.69595
G1 X80.302 Y144.692 E23.74106
G1 X79.663 Y144.613 E23.78732
G1 X79.138 Y144.589 E23.82508
G1 X73.164 Y144.589 E24.25426
G1 X72.384 Y144.623 E24.31035
G1 X71.625 Y144.775 E24.36596
G1 X70.712 Y145.079 E24.43509
G1 X70.217 Y145.313 E24.47443
G1 X69.7 Y145.61 E24.51726
G1 X69.069 Y146.081 E24.57383
G1 X68.635 Y146.497 E24.61702
G1 X68.205 Y146.98 E24.66348
G1 X67.845 Y147.5 E24.70892
G1 X67.59 Y147.936 E24.7452
G1 X67.317 Y148.505 E24.79054
G1 X67.036 Y149.352 E24.85465
G1 X66.891 Y150.218 E24.91774
G1 X66.861 Y150.872 E24.96477
G1 X66.861 Y156.861 E25.39503
G1 X66.939 Y157.842 E25.46573
G1 X67.071 Y158.491 E25.51331
G1 X67.269 Y159.087 E25.55843
G1 X67.561 Y159.777 E25.61226
G1 X67.97 Y160.427 E25.66743
G1 X68.348 Y160.936 E25.71298
G1 X68.97 Y161.583 E25.77745
G1 X69.559 Y162.024 E25.83032
G1 X69.981 Y162.293 E25.86627
G1 X70.549 Y162.594 E25.91245
G1 X71.367 Y162.906 E25.97535
G1 X72.12 Y163.062 E26.03059
G1 X72.62 Y163.124 E26.06679
M204 S3000
G0 F2400 X72.637 Y162.948
G0 X71.46 Y161.253
G0 X71.41 Y161.08
M204 S2000
G1 F3000 X70.644 Y161.044 E26.12188
G1 X69.996 Y160.769 E26.17245
G1 X69.514 Y160.379 E26.217
G1 X69.295 Y160.101 E26.24242
G1 X69.06 Y159.631 E26.28017
G1 X68.931 Y159.116 E26.31831
G1 X68.967 Y158.416 E26.36867
G1 X69.168 Y157.848 E26.41196
G1 X69.448 Y157.441 E26.44745
G1 X69.903 Y157.013 E26.49232
G1 X70.493 Y156.748 E26.53879
G1 X71.173 Y156.64 E26.58825
G1 X71.929 Y156.779 E26.64348
G1 X72.578 Y157.164 E26.69769
G1 X72.974 Y157.616 E26.74086
G1 X73.165 Y157.954 E26.76875
G1 X73.331 Y158.546 E26.81292
G1 X73.35 Y159.099 E26.85268
G1 X73.185 Y159.744 E26.90051
G1 X72.889 Y160.239 E26.94194
G1 X72.525 Y160.601 E26.97882
G1 X72.101 Y160.877 E27.01517
G1 X71.41 Y161.08 E27.06691
M204 S3000
G0 F2400 X71.46 Y161.253
G0 X72.162 Y160.983
G0 X72.665 Y160.649
G0 X72.971 Y160.335
G0 X73.284 Y159.83
G0 X73.475 Y159.105
G0 X71.456 Y151.254
G0 X71.406 Y151.082
M204 S2000
G1 F3000 X70.656 Y151.043 E27.12086
G1 X70.043 Y150.791 E27.16848
G1 X69.565 Y150.427 E27.21164
G1 X69.255 Y150.053 E27.24654
G1 X69.018 Y149.518 E27.28858
G1 X68.935 Y149.042 E27.32329
G1 X68.967 Y148.416 E27.36832
G1 X69.146 Y147.891 E27.40817
G1 X69.404 Y147.486 E27.44267
G1 X69.877 Y147.044 E27.48918
G1 X70.431 Y146.755 E27.53407
G1 X71.184 Y146.64 E27.58879
G1 X71.926 Y146.778 E27.64301
G1 X72.486 Y147.108 E27.68971
G1 X72.911 Y147.535 E27.73299
G1 X73.17 Y147.944 E27.76777
G1 X73.344 Y148.605 E27.81688
G1 X73.353 Y149.107 E27.85295
G1 X73.171 Y149.785 E27.90338
G1 X72.872 Y150.261 E27.94376
G1 X72.592 Y150.55 E27.97267
G1 X72.117 Y150.868 E28.01374
G1 X71.406 Y151.082 E28.06708
M204 S3000
G0 F2400 X71.456 Y151.254
G0 X81.372 Y151.263
G0 X81.382 Y151.085
M204 S2000
G1 F3000 X80.633 Y151.041 E28.12098
G1 X79.952 Y150.752 E28.17413
G1 X79.485 Y150.347 E28.21854
G1 X79.244 Y150.022 E28.24761
G1 X79.042 Y149.589 E28.28194
G1 X78.932 Y149.114 E28.31696
G1 X78.961 Y148.457 E28.36421
G1 X79.121 Y147.953 E28.4022
G1 X79.372 Y147.511 E28.43872
G1 X79.916 Y147.01 E28.49185
G1 X80.463 Y146.75 E28.53536
G1 X81.18 Y146.638 E28.58749
G1 X81.933 Y146.781 E28.64256
G1 X82.583 Y147.171 E28.69701
G1 X82.917 Y147.54 E28.73277
G1 X83.166 Y147.94 E28.76662
G1 X83.332 Y148.546 E28.81176
G1 X83.351 Y149.114 E28.85259
G1 X83.189 Y149.722 E28.89779
