;FLAVOR:Marlin
;TIME:18250
;Filament used: 19.0897m
;Layer height: 0.15
;MINX:16.677
;MINY:68.299
;MINZ:0.3
;MAXX:203.016
;MAXY:197.652
;MAXZ:21.5
;TARGET_MACHINE.NAME:Unknown
;Generated with Cura_SteamEngine 5.6.0
M140 S60
M105
M190 S60
M104 S200
M105
M109 S200
M82 ;absolute extrusion mode
G28 ;Home
G1 Z15.0 F6000 ;Move the platform down 15mm
;Prime the extruder
G92 E0
G1 F200 E3
G92 E0
G92 E0
G92 E0
G1 F1500 E-6.5
;LAYER_COUNT:12
;LAYER:0
M107
G0 F3600 X24.404 Y103.996 Z0.3
;TYPE:SKIRT
G1 F1500 E0
G1 F1800 X25.092 Y103.859 E0.035
G1 X25.888 Y103.77 E0.07496
G1 X32.875 Y103.779 E0.42354
G1 X33.847 Y103.907 E0.47245
G1 X34.567 Y104.09 E0.50952
G1 X35.346 Y104.356 E0.55058
G1 X36.055 Y104.696 E0.58981
G1 X36.642 Y105.04 E0.62376
G1 X37.314 Y105.515 E0.66481
G1 X37.899 Y106.041 E0.70406
G1 X38.283 Y106.444 E0.73183
G1 X38.735 Y106.998 E0.7675
G1 X39.088 Y107.516 E0.79878
G1 X39.502 Y108.249 E0.84078
G1 X39.812 Y108.988 E0.88076
G1 X40.005 Y109.578 E0.91173
G1 X40.148 Y110.162 E0.94173
G1 X40.257 Y110.849 E0.97643
G1 X40.319 Y111.718 E1.01989
G1 X40.285 Y112.494 E1.05865
G1 X40.203 Y113.163 E1.09227
G1 X40.073 Y113.794 E1.12441
G1 X39.915 Y114.345 E1.15301
G1 X39.7 Y114.926 E1.18392
G1 X39.426 Y115.521 E1.2166
G1 X39.113 Y116.071 E1.24817
G1 X38.644 Y116.76 E1.28975
G1 X38.155 Y117.328 E1.32715
G1 X31.833 Y123.647 E1.77309
G1 X31.214 Y124.169 E1.81349
G1 X30.569 Y124.598 E1.85214
G1 X29.987 Y124.921 E1.88534
G1 X29.433 Y125.172 E1.91569
G1 X28.85 Y125.384 E1.94664
G1 X28.105 Y125.589 E1.98519
G1 X27.302 Y125.714 E2.02573
G1 X26.446 Y125.774 E2.06854
G1 X25.443 Y125.724 E2.11864
G1 X24.675 Y125.596 E2.15749
G1 X24.053 Y125.439 E2.18949
G1 X23.292 Y125.181 E2.22958
G1 X22.564 Y124.832 E2.26986
G1 X21.979 Y124.491 E2.30364
G1 X21.347 Y124.049 E2.34212
G1 X20.733 Y123.499 E2.38324
G1 X20.296 Y123.039 E2.4149
G1 X19.885 Y122.531 E2.4475
G1 X19.513 Y121.985 E2.48046
G1 X19.115 Y121.281 E2.52081
G1 X18.828 Y120.601 E2.55763
G1 X18.561 Y119.773 E2.60103
G1 X18.404 Y118.983 E2.64122
G1 X18.315 Y118.188 E2.68113
G1 X18.324 Y111.199 E3.02981
G1 X18.452 Y110.227 E3.07872
G1 X18.626 Y109.538 E3.11418
G1 X18.845 Y108.887 E3.14844
G1 X19.097 Y108.304 E3.18013
G1 X19.504 Y107.549 E3.22292
G1 X20.004 Y106.829 E3.26665
G1 X20.542 Y106.223 E3.30708
G1 X21.188 Y105.612 E3.35145
G1 X21.934 Y105.061 E3.39771
G1 X22.632 Y104.661 E3.43785
G1 X23.173 Y104.407 E3.46767
G1 X23.817 Y104.164 E3.50201
G1 X24.404 Y103.996 E3.53247
G0 F3600 X24.514 Y104.381
G1 F1800 X25.138 Y104.256 E3.56422
G1 X25.888 Y104.17 E3.60188
G1 X32.824 Y104.176 E3.94792
G1 X33.749 Y104.295 E3.99445
G1 X34.439 Y104.469 E4.02995
G1 X35.173 Y104.717 E4.06861
G1 X35.882 Y105.057 E4.10783
G1 X36.412 Y105.367 E4.13847
G1 X37.047 Y105.813 E4.17718
G1 X37.609 Y106.317 E4.21484
G1 X37.993 Y106.72 E4.24261
G1 X38.404 Y107.223 E4.27502
G1 X38.757 Y107.741 E4.30629
G1 X39.133 Y108.404 E4.34432
G1 X39.432 Y109.113 E4.38271
G1 X39.616 Y109.673 E4.41212
G1 X39.759 Y110.257 E4.44211
G1 X39.858 Y110.879 E4.47354
G1 X39.919 Y111.7 E4.51461
G1 X39.885 Y112.476 E4.55336
G1 X39.811 Y113.083 E4.58387
G1 X39.688 Y113.684 E4.61447
G1 X39.53 Y114.235 E4.64307
G1 X39.325 Y114.787 E4.67245
G1 X39.078 Y115.323 E4.70189
G1 X38.765 Y115.873 E4.73346
G1 X38.341 Y116.499 E4.77118
G1 X37.872 Y117.045 E4.80709
G1 X31.575 Y123.341 E5.25135
G1 X30.956 Y123.863 E5.29174
G1 X30.374 Y124.249 E5.32659
G1 X29.821 Y124.557 E5.35817
G1 X29.296 Y124.796 E5.38694
G1 X28.744 Y124.998 E5.41627
G1 X27.999 Y125.203 E5.45482
G1 X27.273 Y125.315 E5.49147
G1 X26.465 Y125.374 E5.53189
G1 X25.509 Y125.329 E5.57963
G1 X24.741 Y125.201 E5.61848
G1 X24.181 Y125.06 E5.64729
G1 X23.42 Y124.802 E5.68738
G1 X22.765 Y124.486 E5.72366
G1 X22.208 Y124.163 E5.75578
G1 X21.576 Y123.721 E5.79426
G1 X21.022 Y123.223 E5.83142
G1 X20.606 Y122.787 E5.86149
G1 X20.215 Y122.306 E5.89242
G1 X19.861 Y121.787 E5.92376
G1 X19.484 Y121.125 E5.96177
G1 X19.197 Y120.445 E5.99859
G1 X18.953 Y119.694 E6.03798
G1 X18.801 Y118.937 E6.0765
G1 X18.715 Y118.188 E6.11412
G1 X18.721 Y111.25 E6.46026
G1 X18.84 Y110.325 E6.50679
G1 X19.014 Y109.636 E6.54224
G1 X19.212 Y109.046 E6.57329
G1 X19.464 Y108.463 E6.60497
G1 X19.833 Y107.777 E6.64384
G1 X20.333 Y107.057 E6.68757
G1 X20.84 Y106.49 E6.72552
G1 X21.426 Y105.934 E6.76582
G1 X22.172 Y105.383 E6.81209
G1 X22.802 Y105.023 E6.84829
G1 X23.343 Y104.769 E6.8781
G1 X23.927 Y104.549 E6.90924
G1 X24.514 Y104.381 E6.9397
G0 F3600 X24.593 Y104.773
G1 F1800 X25.185 Y104.653 E6.96984
G1 X25.888 Y104.57 E7.00515
G1 X32.774 Y104.573 E7.3487
G1 X33.651 Y104.683 E7.39279
G1 X34.341 Y104.857 E7.4283
G1 X35.001 Y105.078 E7.46302
G1 X35.681 Y105.403 E7.50062
G1 X36.183 Y105.695 E7.52959
G1 X36.78 Y106.111 E7.5659
G1 X37.319 Y106.593 E7.60197
G1 X37.703 Y106.996 E7.62974
G1 X38.074 Y107.449 E7.65896
G1 X38.41 Y107.94 E7.68864
G1 X38.765 Y108.56 E7.72428
G1 X39.052 Y109.238 E7.76101
G1 X39.227 Y109.768 E7.78886
G1 X39.37 Y110.352 E7.81886
G1 X39.459 Y110.91 E7.84705
G1 X39.519 Y111.682 E7.88568
G1 X39.485 Y112.458 E7.92443
G1 X39.419 Y113.003 E7.95182
G1 X39.303 Y113.575 E7.98094
G1 X39.155 Y114.096 E8.00796
G1 X38.95 Y114.648 E8.03733
G1 X38.73 Y115.126 E8.06359
G1 X38.433 Y115.65 E8.09364
G1 X38.037 Y116.239 E8.12905
G1 X37.589 Y116.762 E8.1634
G1 X31.292 Y123.058 E8.60765
G1 X30.734 Y123.53 E8.64412
G1 X30.178 Y123.9 E8.67744
G1 X29.655 Y124.193 E8.70734
G1 X29.159 Y124.42 E8.73456
G1 X28.607 Y124.622 E8.76388
G1 X27.938 Y124.808 E8.79853
G1 X27.243 Y124.916 E8.83362
G1 X26.483 Y124.974 E8.87164
G1 X25.574 Y124.934 E8.91704
G1 X24.839 Y124.813 E8.9542
G1 X24.279 Y124.672 E8.98301
G1 X23.594 Y124.442 E9.01906
G1 X22.939 Y124.126 E9.05534
G1 X22.436 Y123.835 E9.08433
G1 X21.843 Y123.423 E9.12036
G1 X21.311 Y122.946 E9.15601
G1 X20.916 Y122.534 E9.18448
G1 X20.545 Y122.08 E9.21373
G1 X20.208 Y121.588 E9.24349
G1 X19.853 Y120.969 E9.27909
G1 X19.566 Y120.289 E9.31591
G1 X19.345 Y119.615 E9.3513
G1 X19.198 Y118.89 E9.3882
G1 X19.115 Y118.188 E9.42347
G1 X19.118 Y111.3 E9.76711
G1 X19.228 Y110.423 E9.81121
G1 X19.402 Y109.734 E9.84666
G1 X19.579 Y109.204 E9.87454
G1 X19.817 Y108.651 E9.90458
G1 X20.162 Y108.004 E9.94116
G1 X20.631 Y107.324 E9.98237
G1 X21.138 Y106.757 E10.02032
G1 X21.664 Y106.255 E10.05659
G1 X22.371 Y105.73 E10.10053
G1 X22.972 Y105.385 E10.1351
G1 X23.513 Y105.131 E10.16492
G1 X24.038 Y104.933 E10.19291
G1 X24.593 Y104.773 E10.22173
G1 F1500 E3.72173
;MESH:Post-it_clapperboard_Connector_x2.stl(1)
G0 F3600 X26.141 Y109.114
G0 X26.192 Y110.241
G0 X25.776 Y111.016
G0 X24.529 Y112.158
G0 X24.546 Y111.861
;TYPE:WALL-INNER
G1 F1500 E10.22173
G1 F1800 X23.818 Y111.813 E10.25813
G1 X23.169 Y111.54 E10.29325
G1 X22.721 Y111.138 E10.32328
G1 X22.507 Y110.839 E10.34163
G1 X22.313 Y110.417 E10.3648
G1 X22.221 Y110.025 E10.38489
G1 X22.245 Y109.331 E10.41953
G1 X22.425 Y108.839 E10.44567
G1 X22.663 Y108.463 E10.46787
G1 X23.158 Y108 E10.50168
G1 X23.795 Y107.719 E10.53642
G1 X24.554 Y107.673 E10.57436
G1 X25.222 Y107.863 E10.609
G1 X25.73 Y108.223 E10.64007
G1 X26.092 Y108.659 E10.66834
G1 X26.303 Y109.114 E10.69336
G1 X26.416 Y109.732 E10.7247
G1 X26.355 Y110.238 E10.75013
G1 X26.214 Y110.661 E10.77238
G1 X25.83 Y111.228 E10.80654
G1 X25.238 Y111.659 E10.84307
G1 X24.546 Y111.861 E10.87904
G0 F3600 X24.529 Y112.158
G0 X34.524 Y112.158
G0 X34.541 Y111.858
G1 F1800 X33.832 Y111.818 E10.91447
G1 X33.184 Y111.547 E10.94951
G1 X32.751 Y111.174 E10.97802
G1 X32.532 Y110.884 E10.99615
G1 X32.309 Y110.407 E11.02242
G1 X32.224 Y110.001 E11.04312
G1 X32.247 Y109.338 E11.07621
G1 X32.406 Y108.885 E11.10017
G1 X32.636 Y108.484 E11.12323
G1 X33.141 Y108.01 E11.15778
G1 X33.803 Y107.716 E11.19392
G1 X34.537 Y107.668 E11.23062
G1 X35.224 Y107.864 E11.26626
G1 X35.798 Y108.271 E11.30137
G1 X36.135 Y108.724 E11.32953
G1 X36.293 Y109.053 E11.34774
G1 X36.418 Y109.74 E11.38258
G1 X36.333 Y110.329 E11.41227
G1 X36.214 Y110.651 E11.4294
G1 X35.823 Y111.232 E11.46434
G1 X35.248 Y111.654 E11.49992
G1 X34.541 Y111.858 E11.53663
G0 F3600 X34.524 Y112.158
G0 X25.999 Y121.399
G0 X24.522 Y122.158
G0 X24.539 Y121.86
G1 F1800 X23.821 Y121.813 E11.57253
G1 X23.243 Y121.571 E11.60379
G1 X22.767 Y121.19 E11.63421
G1 X22.5 Y120.825 E11.65677
G1 X22.322 Y120.441 E11.67789
G1 X22.22 Y120.028 E11.69911
G1 X22.252 Y119.333 E11.73382
G1 X22.406 Y118.885 E11.75746
G1 X22.638 Y118.483 E11.78061
G1 X23.069 Y118.077 E11.81015
G1 X23.238 Y117.966 E11.82024
G1 X23.821 Y117.716 E11.85189
G1 X24.534 Y117.667 E11.88754
G1 X25.203 Y117.858 E11.92225
G1 X25.804 Y118.275 E11.95875
G1 X26.102 Y118.672 E11.98351
G1 X26.293 Y119.053 E12.00478
G1 X26.42 Y119.75 E12.04012
G1 X26.329 Y120.338 E12.06981
G1 X26.21 Y120.669 E12.08736
G1 X25.837 Y121.217 E12.12043
G1 X25.24 Y121.66 E12.15752
G1 X24.539 Y121.86 E12.19388
G0 F3600 X24.522 Y122.158
G0 X26.473 Y123.874
G0 X26.481 Y124.172
G1 F1800 X27.146 Y124.12 E12.22716
G1 X27.777 Y124.023 E12.25901
G1 X28.368 Y123.857 E12.28964
G1 X29.083 Y123.594 E12.32765
G1 X29.758 Y123.219 E12.36617
G1 X30.263 Y122.882 E12.39646
G1 X30.751 Y122.465 E12.42849
G1 X36.997 Y116.22 E12.86914
G1 X37.411 Y115.74 E12.90076
G1 X37.757 Y115.223 E12.9318
G1 X38.131 Y114.557 E12.96991
G1 X38.397 Y113.837 E13.0082
G1 X38.625 Y112.889 E13.05685
G1 X38.687 Y112.381 E13.08238
G1 X38.717 Y111.679 E13.11743
G1 X38.668 Y111.061 E13.14836
G1 X38.578 Y110.471 E13.17814
G1 X38.395 Y109.739 E13.21578
G1 X38.041 Y108.903 E13.26107
G1 X37.726 Y108.358 E13.29248
G1 X37.435 Y107.933 E13.31818
G1 X37.1 Y107.523 E13.34459
G1 X36.753 Y107.161 E13.36961
G1 X36.272 Y106.731 E13.4018
G1 X35.741 Y106.365 E13.43397
G1 X35.296 Y106.106 E13.45966
G1 X34.712 Y105.827 E13.49195
G1 X34.111 Y105.626 E13.52357
G1 X33.49 Y105.469 E13.55552
G1 X32.706 Y105.372 E13.59494
G1 X25.928 Y105.371 E13.93309
G1 X25.301 Y105.446 E13.9646
G1 X24.779 Y105.553 E13.99118
G1 X24.055 Y105.761 E14.02876
G1 X23.332 Y106.101 E14.06862
G1 X22.805 Y106.404 E14.09895
G1 X22.169 Y106.877 E14.13849
G1 X21.712 Y107.315 E14.17007
G1 X21.267 Y107.813 E14.20339
G1 X20.837 Y108.436 E14.24116
G1 X20.536 Y109.008 E14.27341
G1 X20.328 Y109.492 E14.29969
G1 X20.169 Y109.969 E14.32477
G1 X20.013 Y110.59 E14.35672
G1 X19.916 Y111.367 E14.39578
G1 X19.916 Y118.146 E14.73399
G1 X19.992 Y118.775 E14.7656
G1 X20.12 Y119.414 E14.79811
G1 X20.322 Y120.019 E14.82993
G1 X20.574 Y120.619 E14.8624
G1 X20.891 Y121.167 E14.89398
G1 X21.181 Y121.591 E14.91961
G1 X21.668 Y122.19 E14.95813
G1 X22.351 Y122.801 E15.00385
G1 X22.872 Y123.16 E15.03541
G1 X23.323 Y123.424 E15.06149
G1 X23.906 Y123.703 E15.09373
G1 X24.746 Y123.982 E15.13789
G1 X25.642 Y124.135 E15.18324
G1 X26.481 Y124.172 E15.22514
G0 F3600 X26.488 Y124.573
;TYPE:WALL-OUTER
G1 F1800 X27.192 Y124.518 E15.26037
G1 X27.862 Y124.415 E15.29419
G1 X28.492 Y124.238 E15.32683
G1 X29.008 Y124.048 E15.35427
G1 X29.482 Y123.83 E15.3803
G1 X29.966 Y123.561 E15.40792
G1 X30.505 Y123.202 E15.44023
G1 X31.023 Y122.759 E15.47424
G1 X37.291 Y116.492 E15.91644
G1 X37.73 Y115.983 E15.94998
G1 X38.099 Y115.432 E15.98306
G1 X38.366 Y114.954 E16.01038
G1 X38.585 Y114.483 E16.03629
G1 X38.778 Y113.961 E16.06406
G1 X38.918 Y113.469 E16.08958
G1 X39.021 Y112.952 E16.11588
G1 X39.086 Y112.414 E16.14291
G1 X39.118 Y111.672 E16.17997
G1 X39.066 Y111.015 E16.21285
G1 X38.971 Y110.391 E16.24434
G1 X38.84 Y109.871 E16.27109
G1 X38.672 Y109.369 E16.2975
G1 X38.4 Y108.725 E16.33238
G1 X38.065 Y108.144 E16.36584
G1 X37.755 Y107.693 E16.39314
G1 X37.4 Y107.258 E16.42115
G1 X37.031 Y106.873 E16.44776
G1 X36.52 Y106.416 E16.48196
G1 X35.956 Y106.027 E16.51614
G1 X35.483 Y105.752 E16.54344
G1 X34.862 Y105.455 E16.57778
G1 X34.223 Y105.242 E16.61138
G1 X33.564 Y105.075 E16.6453
G1 X32.731 Y104.972 E16.68718
G1 X25.904 Y104.971 E17.02778
G1 X25.237 Y105.051 E17.06129
G1 X24.683 Y105.164 E17.0895
G1 X24.155 Y105.316 E17.11691
G1 X23.667 Y105.501 E17.14295
G1 X23.146 Y105.746 E17.17167
G1 X22.585 Y106.069 E17.20397
G1 X21.91 Y106.571 E17.24594
G1 X21.424 Y107.037 E17.27953
G1 X20.952 Y107.565 E17.31486
G1 X20.495 Y108.228 E17.35503
G1 X20.174 Y108.835 E17.38929
G1 X19.954 Y109.35 E17.41723
G1 X19.785 Y109.857 E17.44389
G1 X19.619 Y110.516 E17.4778
G1 X19.516 Y111.343 E17.51938
G1 X19.516 Y118.17 E17.85998
G1 X19.596 Y118.839 E17.89359
G1 X19.733 Y119.517 E17.9281
G1 X19.947 Y120.16 E17.96191
G1 X20.215 Y120.797 E17.99639
G1 X20.552 Y121.381 E18.03003
G1 X20.86 Y121.831 E18.05723
G1 X21.223 Y122.278 E18.08596
G1 X21.582 Y122.65 E18.11175
G1 X22.103 Y123.116 E18.14663
G1 X22.657 Y123.498 E18.1802
G1 X23.135 Y123.778 E18.20784
G1 X23.756 Y124.075 E18.24218
G1 X24.396 Y124.287 E18.27582
G1 X24.897 Y124.414 E18.3016
G1 X25.599 Y124.534 E18.33713
G1 X26.488 Y124.573 E18.38153
G0 F3600 X26.687 Y124.558
G0 X26.634 Y123.861
G0 X24.718 Y122.122
G0 X24.521 Y121.451
G1 F1800 X23.934 Y121.422 E18.41085
G1 X23.41 Y121.207 E18.43911
G1 X23.039 Y120.895 E18.46329
G1 X22.862 Y120.655 E18.47817
G1 X22.684 Y120.263 E18.49965
G1 X22.628 Y120.01 E18.51257
G1 X22.646 Y119.407 E18.54267
G1 X22.782 Y119.021 E18.56309
G1 X22.973 Y118.717 E18.581
G1 X23.367 Y118.347 E18.60797
G1 X23.894 Y118.115 E18.63669
G1 X24.492 Y118.072 E18.66661
G1 X25.049 Y118.23 E18.69549
G1 X25.513 Y118.561 E18.72393
G1 X25.775 Y118.903 E18.74542
G1 X25.899 Y119.16 E18.75966
G1 X26.014 Y119.755 E18.78989
G1 X25.952 Y120.204 E18.8125
G1 X25.857 Y120.469 E18.82655
G1 X25.527 Y120.953 E18.85577
G1 X25.057 Y121.293 E18.88471
G1 X24.521 Y121.451 E18.91259
G0 F3600 X24.321 Y121.442
G0 X24.28 Y122.144
G0 X25.349 Y121.873
G0 X25.999 Y121.399
G0 X26.583 Y120.334
G0 X26.583 Y119.313
G0 X24.458 Y112.154
G0 X24.499 Y111.454
G1 F1800 X23.933 Y111.422 E18.94088
G1 X23.387 Y111.198 E18.97032
G1 X23.039 Y110.895 E18.99334
G1 X22.862 Y110.655 E19.00822
G1 X22.684 Y110.263 E19.0297
G1 X22.628 Y110.01 E19.04262
G1 X22.643 Y109.405 E19.07282
G1 X22.8 Y108.984 E19.09523
G1 X22.961 Y108.729 E19.11028
G1 X23.361 Y108.354 E19.13763
G1 X23.894 Y108.113 E19.16682
G1 X24.487 Y108.074 E19.19647
G1 X25.046 Y108.229 E19.22541
G1 X25.524 Y108.568 E19.25464
G1 X25.793 Y108.934 E19.2773
G1 X25.913 Y109.201 E19.29191
G1 X26.01 Y109.733 E19.31889
G1 X25.961 Y110.17 E19.34083
G1 X25.844 Y110.496 E19.35811
G1 X25.538 Y110.946 E19.38526
G1 X25.061 Y111.291 E19.41463
G1 X24.499 Y111.454 E19.44382
G0 F3600 X24.299 Y111.443
G0 X24.259 Y112.143
G0 X34.716 Y112.123
G0 X34.518 Y111.451
G1 F1800 X33.921 Y111.419 E19.47365
G1 X33.38 Y111.191 E19.50294
G1 X33.049 Y110.907 E19.52469
G1 X32.873 Y110.675 E19.53922
G1 X32.689 Y110.282 E19.56087
G1 X32.624 Y109.978 E19.57638
G1 X32.643 Y109.425 E19.60399
G1 X32.8 Y108.984 E19.62734
G1 X32.973 Y108.717 E19.64321
G1 X33.367 Y108.347 E19.67018
G1 X33.897 Y108.111 E19.69912
G1 X34.492 Y108.072 E19.72887
G1 X35.048 Y108.23 E19.75771
G1 X35.511 Y108.559 E19.78605
G1 X35.786 Y108.92 E19.80869
G1 X35.907 Y109.179 E19.82295
G1 X36.011 Y109.772 E19.85299
G1 X35.952 Y110.204 E19.87474
G1 X35.853 Y110.479 E19.88932
G1 X35.542 Y110.938 E19.91698
G1 X35.064 Y111.292 E19.94666
G1 X34.518 Y111.451 E19.97503
G0 F3600 X34.318 Y111.441
G0 X34.277 Y112.144
G0 X25.999 Y121.399
G0 X25.349 Y121.873
G0 X22.778 Y122.52
;TYPE:SKIN
G1 F1232.9 X22.645 Y122.432 E19.98664
G1 F1258.7 X21.995 Y121.863 E20.04828
G1 F1269.8 X21.688 Y121.476 E20.08321
G1 F1481.5 X21.364 Y121.214 E20.10847
G1 F1800 X20.912 Y120.443 E20.15306
G1 X20.689 Y119.918 E20.18151
G1 X20.488 Y119.31 E20.21346
G1 X20.368 Y118.718 E20.2436
G1 X20.297 Y118.118 E20.27374
G1 X20.297 Y111.398 E20.609
G1 X20.387 Y110.665 E20.64585
G1 X20.598 Y109.827 E20.68896
G1 X20.879 Y109.175 E20.72438
G1 X21.187 Y108.59 E20.75736
G1 F1457.5 X21.511 Y108.298 E20.78424
G1 F1228.7 X21.637 Y108.11 E20.80078
G1 F1256.5 X21.963 Y107.717 E20.83727
G1 F1274.3 X22.465 Y107.236 E20.88626
G1 F1265.4 X22.66 Y107.093 E20.90343
G1 F1484.5 X22.999 Y106.734 E20.93329
G1 F1800 X23.504 Y106.44 E20.96245
G1 X24.194 Y106.116 E21.00048
G1 X25.131 Y105.85 E21.04907
G1 X25.956 Y105.752 E21.09052
G1 X32.676 Y105.753 E21.42578
G1 X33.42 Y105.845 E21.46318
G1 X34.007 Y105.994 E21.4934
G1 X34.57 Y106.18 E21.52298
G1 X35.333 Y106.546 E21.5652
