;FLAVOR:Marlin
;TIME:4131
;Filament used: 1.02489m
;Layer height: 0.06
;MINX:95.956
;MINY:79.44
;MINZ:0.3
;MAXX:123.73
;MAXY:141.158
;MAXZ:6.3
;Generated with Cura_SteamEngine 5.4.0
M140 S60
M105
M190 S60
M104 S200
M105
M109 S200
M82 ;absolute extrusion mode
G28 ;Home
G1 Z15.0 F6000 ;Move the platform down 15mm
;Prime the extruder
G92 E0
G1 F200 E3
G92 E0
G92 E0
G92 E0
G1 F1500 E-6.5
;LAYER_COUNT:101
;LAYER:0
M107
G0 F3600 X100.267 Y83.517 Z0.3
;TYPE:SKIRT
G1 F1500 E0
G1 F1800 X100.915 Y82.876 E0.04547
G1 X101.432 Y82.415 E0.08003
G1 X102.27 Y81.774 E0.13267
G1 X103.147 Y81.258 E0.18343
G1 X103.708 Y80.978 E0.21471
G1 X103.992 Y80.823 E0.23086
G1 X104.702 Y80.509 E0.26959
G1 X105.305 Y80.285 E0.30168
G1 X105.642 Y80.146 E0.31987
G1 X106.98 Y79.718 E0.38995
G1 X107.912 Y79.629 E0.43666
G1 X108.728 Y79.44 E0.47845
G1 X110.123 Y79.447 E0.54805
G1 X111.519 Y79.44 E0.61769
G1 X112.334 Y79.629 E0.65943
G1 X113.334 Y79.728 E0.70957
G1 X114.785 Y80.212 E0.78588
G1 X114.982 Y80.3 E0.79664
G1 X115.619 Y80.541 E0.83062
G1 X116.419 Y80.907 E0.87451
G1 X116.594 Y81.006 E0.88454
G1 X117.235 Y81.331 E0.9204
G1 X118.072 Y81.838 E0.96922
G1 X118.88 Y82.469 E1.02037
G1 X120.095 Y83.602 E1.10325
G1 X120.776 Y84.574 E1.16246
G1 X121.184 Y85.554 E1.21542
G1 X121.435 Y86.954 E1.28638
G1 X121.182 Y88.785 E1.3786
G1 X121.116 Y89.345 E1.40673
G1 X120.565 Y92.149 E1.5493
G1 X119.964 Y94.822 E1.68598
G1 X119.871 Y95.357 E1.71308
G1 X119.208 Y97.521 E1.82599
G1 X118.731 Y98.573 E1.88362
G1 X119.045 Y99.061 E1.91257
G1 X119.439 Y100.39 E1.98173
G1 X119.402 Y101.177 E2.02103
G1 X119.363 Y101.434 E2.034
G1 X119.368 Y102.072 E2.06583
G1 X119.202 Y103.158 E2.12064
G1 X118.994 Y104.017 E2.16474
G1 X118.706 Y104.607 E2.19749
G1 X119.007 Y105.415 E2.24051
G1 X119.509 Y106.287 E2.29071
G1 X119.907 Y107.657 E2.36188
G1 X120.081 Y108.566 E2.40806
G1 X120.375 Y108.598 E2.42281
G1 X121.199 Y108.89 E2.46643
G1 X122.071 Y109.452 E2.51818
G1 X122.696 Y110 E2.55965
G1 X123.33 Y110.918 E2.61531
G1 X123.638 Y111.981 E2.67053
G1 X123.73 Y113.157 E2.72938
G1 X123.411 Y115.247 E2.83486
G1 X123.126 Y116.166 E2.88286
G1 X122.99 Y117.055 E2.92773
G1 X122.613 Y118.084 E2.9824
G1 X122.553 Y118.837 E3.02009
G1 X122.346 Y119.979 E3.07799
G1 X122.057 Y120.721 E3.11772
G1 X121.792 Y121.481 E3.15787
G1 X120.972 Y123.067 E3.24695
G1 X120.558 Y123.664 E3.28319
G1 X120.093 Y124.414 E3.32722
G1 X119.495 Y125.224 E3.37745
G1 X119.586 Y125.496 E3.39176
G1 X119.8 Y127.421 E3.48839
G1 X119.793 Y129.048 E3.56956
G1 X119.554 Y130.082 E3.62251
G1 X119.066 Y131.028 E3.67562
G1 X118.457 Y131.747 E3.72262
G1 X118.314 Y131.865 E3.73187
G1 X118.495 Y132.217 E3.75162
G1 X118.666 Y133.085 E3.79576
G1 X118.712 Y134.026 E3.84276
G1 X118.463 Y135.044 E3.89505
G1 X118.102 Y136.023 E3.9471
G1 X117.66 Y136.897 E3.99597
G1 X116.964 Y137.919 E4.05766
G1 X116.435 Y138.527 E4.09786
G1 X115.285 Y139.523 E4.17376
G1 X114.393 Y140.094 E4.2266
G1 X113.613 Y140.474 E4.26989
G1 X112.291 Y140.92 E4.3395
G1 X111.517 Y141.072 E4.37885
G1 X110.014 Y141.158 E4.45396
G1 X108.884 Y141.058 E4.51055
G1 X108.058 Y140.884 E4.55267
G1 X106.807 Y140.446 E4.61879
G1 X106.026 Y140.055 E4.66237
G1 X104.811 Y139.226 E4.73575
G1 X104.135 Y138.61 E4.78138
G1 X103.333 Y137.666 E4.84318
G1 X102.773 Y136.802 E4.89454
G1 X102.104 Y135.446 E4.96998
G1 X101.909 Y134.154 E5.03517
G1 X102.109 Y133.054 E5.09095
G1 X102.219 Y132.784 E5.10549
G1 X101.557 Y132.074 E5.15392
G1 X101.031 Y131.158 E5.20662
G1 X100.545 Y129.415 E5.2969
G1 X100.074 Y127.601 E5.3904
G1 X100.08 Y126.504 E5.44513
G1 X100.3 Y125.455 E5.4986
G1 X100.504 Y125.057 E5.52092
G1 X99.962 Y124.324 E5.5664
G1 X99.524 Y123.642 E5.60683
G1 X98.93 Y122.785 E5.65886
G1 X98.468 Y121.923 E5.70765
G1 X97.664 Y119.767 E5.82245
G1 X97.511 Y117.955 E5.91317
G1 X97.561 Y116.904 E5.96566
G1 X97.506 Y116.438 E5.98907
G1 X97.483 Y115.64 E6.0289
G1 X97.221 Y114.976 E6.06452
G1 X97.138 Y114.524 E6.08744
G1 X96.944 Y114.204 E6.10611
G1 X96.229 Y112.689 E6.18969
G1 X95.982 Y111.845 E6.23357
G1 X95.956 Y110.609 E6.29524
G1 X96.182 Y109.333 E6.35989
G1 X96.594 Y108.322 E6.41436
G1 X96.906 Y107.885 E6.44115
G1 X97.741 Y107.049 E6.5001
G1 X98.911 Y106.553 E6.5635
G1 X100.12 Y106.38 E6.62443
G1 X100.703 Y106.447 E6.65371
G1 X100.812 Y106.145 E6.66973
G1 X101.248 Y105.4 E6.71279
G1 X101.544 Y104.602 E6.75525
G1 X101.219 Y103.927 E6.79263
G1 X101.009 Y102.98 E6.84102
G1 X100.838 Y101.771 E6.90194
G1 X100.875 Y101.283 E6.92636
G1 X100.829 Y100.715 E6.95479
G1 X100.912 Y99.933 E6.99402
G1 X101.13 Y99.241 E7.03022
G1 X101.519 Y98.595 E7.06784
G1 X101.052 Y97.554 E7.12476
G1 X100.315 Y95.074 E7.25384
G1 X100.27 Y94.772 E7.26907
G1 X99.665 Y92.076 E7.40692
G1 X99.086 Y89.041 E7.56107
G1 X99.052 Y88.724 E7.57697
G1 X98.809 Y86.944 E7.6666
G1 X99.087 Y85.493 E7.74031
G1 X99.495 Y84.525 E7.79272
G1 X100.267 Y83.517 E7.85606
G0 F3600 X100.548 Y83.801
G1 F1800 X101.181 Y83.174 E7.90051
G1 X101.676 Y82.732 E7.93362
G1 X102.473 Y82.119 E7.98378
G1 X103.326 Y81.616 E8.03319
G1 X103.887 Y81.336 E8.06447
G1 X104.154 Y81.189 E8.07967
G1 X104.864 Y80.875 E8.1184
G1 X105.449 Y80.658 E8.14953
G1 X105.764 Y80.527 E8.16655
G1 X107.062 Y80.112 E8.23454
G1 X107.98 Y80.024 E8.28055
G1 X108.774 Y79.84 E8.32121
G1 X110.123 Y79.847 E8.38852
G1 X111.472 Y79.84 E8.45582
G1 X112.264 Y80.024 E8.49638
G1 X113.248 Y80.121 E8.54571
G1 X114.623 Y80.578 E8.618
G1 X114.821 Y80.666 E8.62881
G1 X115.453 Y80.905 E8.66252
G1 X116.222 Y81.255 E8.70467
G1 X116.413 Y81.363 E8.71562
G1 X117.054 Y81.688 E8.75148
G1 X117.826 Y82.154 E8.79646
G1 X118.607 Y82.762 E8.84584
G1 X119.791 Y83.866 E8.92661
G1 X120.425 Y84.771 E8.98174
G1 X120.797 Y85.665 E9.03005
G1 X121.03 Y86.964 E9.09589
G1 X120.786 Y88.73 E9.18483
G1 X120.723 Y89.268 E9.21185
G1 X120.175 Y92.061 E9.35385
G1 X119.57 Y94.753 E9.49151
G1 X119.477 Y95.288 E9.5186
G1 X118.844 Y97.356 E9.6265
G1 X118.277 Y98.607 E9.69502
G1 X118.677 Y99.228 E9.73188
G1 X119.036 Y100.439 E9.79489
G1 X119.002 Y101.158 E9.8308
G1 X118.962 Y101.405 E9.84329
G1 X118.972 Y102.012 E9.87357
G1 X118.813 Y103.064 E9.92665
G1 X118.615 Y103.882 E9.96864
G1 X118.271 Y104.586 E10.00773
G1 X118.643 Y105.584 E10.06087
G1 X119.138 Y106.445 E10.11042
G1 X119.514 Y107.732 E10.17731
G1 X119.65 Y108.44 E10.21328
G1 X119.78 Y108.953 E10.23968
G1 X120.242 Y108.975 E10.26276
G1 X121.022 Y109.251 E10.30404
G1 X121.807 Y109.753 E10.35052
G1 X122.395 Y110.269 E10.38955
G1 X122.965 Y111.093 E10.43954
G1 X123.242 Y112.051 E10.48929
G1 X123.327 Y113.141 E10.54384
G1 X123.029 Y115.128 E10.64408
G1 X122.736 Y116.072 E10.69339
G1 X122.602 Y116.95 E10.7377
G1 X122.267 Y117.864 E10.78627
G1 X122.2 Y118.233 E10.80498
G1 X122.159 Y118.766 E10.83165
G1 X121.959 Y119.87 E10.88762
G1 X121.684 Y120.576 E10.92542
G1 X121.414 Y121.349 E10.96627
G1 X120.643 Y122.839 E11.04997
G1 X120.229 Y123.436 E11.08622
G1 X119.753 Y124.203 E11.13125
G1 X119.043 Y125.162 E11.19078
G1 X119.188 Y125.54 E11.21098
G1 X119.402 Y127.465 E11.30761
G1 X119.393 Y129 E11.3842
G1 X119.175 Y129.943 E11.43248
G1 X118.731 Y130.805 E11.48086
G1 X118.152 Y131.488 E11.52553
G1 X117.786 Y131.757 E11.54819
G1 X118.103 Y132.296 E11.57939
G1 X118.266 Y133.104 E11.62051
G1 X118.309 Y133.987 E11.66462
G1 X118.074 Y134.949 E11.71402
G1 X117.745 Y135.842 E11.7615
G1 X117.303 Y136.716 E11.81036
G1 X116.662 Y137.656 E11.86713
G1 X116.133 Y138.264 E11.90733
G1 X115.024 Y139.22 E11.98038
G1 X114.218 Y139.734 E12.02807
G1 X113.438 Y140.114 E12.07136
G1 X112.214 Y140.527 E12.13581
G1 X111.44 Y140.679 E12.17516
G1 X110.048 Y140.759 E12.24472
G1 X108.965 Y140.666 E12.29895
G1 X108.19 Y140.506 E12.33843
G1 X106.939 Y140.068 E12.40456
G1 X106.206 Y139.698 E12.44553
G1 X105.079 Y138.929 E12.51359
G1 X104.439 Y138.35 E12.55665
G1 X103.669 Y137.448 E12.61582
G1 X103.109 Y136.584 E12.66719
G1 X102.491 Y135.327 E12.73707
G1 X102.315 Y134.16 E12.79595
G1 X102.503 Y133.126 E12.84838
G1 X102.711 Y132.668 E12.87348
G1 X102.528 Y132.528 E12.88497
G1 X101.88 Y131.833 E12.93238
G1 X101.403 Y131.002 E12.98018
G1 X100.932 Y129.314 E13.06761
G1 X100.474 Y127.551 E13.15849
G1 X100.48 Y126.549 E13.20848
G1 X100.692 Y125.537 E13.26006
G1 X100.981 Y125.029 E13.28922
G1 X100.299 Y124.108 E13.3464
G1 X99.861 Y123.426 E13.38684
G1 X99.283 Y122.596 E13.4373
G1 X98.821 Y121.734 E13.48609
G1 X98.059 Y119.681 E13.59534
G1 X97.911 Y117.974 E13.68082
G1 X97.962 Y116.893 E13.73481
G1 X97.906 Y116.426 E13.75828
G1 X97.881 Y115.559 E13.80155
G1 X97.607 Y114.864 E13.83882
G1 X97.517 Y114.376 E13.86358
G1 X97.306 Y114.033 E13.88367
G1 X96.591 Y112.518 E13.96725
G1 X96.381 Y111.782 E14.00544
G1 X96.357 Y110.64 E14.06242
G1 X96.569 Y109.442 E14.12312
G1 X96.964 Y108.473 E14.17533
G1 X97.189 Y108.168 E14.19423
G1 X97.97 Y107.386 E14.24937
G1 X99.018 Y106.942 E14.30616
G1 X100.127 Y106.783 E14.36205
G1 X100.981 Y106.882 E14.40494
G1 X101.157 Y106.347 E14.43304
G1 X101.611 Y105.571 E14.4779
G1 X101.978 Y104.582 E14.53052
G1 X101.6 Y103.797 E14.57399
G1 X101.4 Y102.894 E14.62013
G1 X101.24 Y101.759 E14.67732
G1 X101.277 Y101.281 E14.70124
G1 X101.231 Y100.719 E14.72937
G1 X101.306 Y100.016 E14.76464
G1 X101.498 Y99.404 E14.79664
G1 X101.97 Y98.622 E14.84221
G1 X101.417 Y97.39 E14.90959
G1 X100.711 Y95.015 E15.0332
G1 X100.665 Y94.706 E15.04878
G1 X100.058 Y92.001 E15.18709
G1 X99.484 Y88.998 E15.33963
G1 X99.45 Y88.681 E15.35553
G1 X99.214 Y86.956 E15.44239
G1 X99.472 Y85.608 E15.51087
G1 X99.844 Y84.727 E15.55858
G1 X100.548 Y83.801 E15.61661
G0 F3600 X100.83 Y84.085
G1 F1800 X101.448 Y83.472 E15.66004
G1 X101.92 Y83.049 E15.69166
G1 X102.717 Y82.436 E15.74182
G1 X103.505 Y81.974 E15.7874
G1 X104.066 Y81.694 E15.81868
G1 X104.347 Y81.539 E15.83469
G1 X105.003 Y81.25 E15.87045
G1 X105.603 Y81.027 E15.90238
G1 X105.886 Y80.908 E15.9177
G1 X107.144 Y80.506 E15.98359
G1 X108.048 Y80.419 E16.0289
G1 X108.82 Y80.24 E16.06844
G1 X110.123 Y80.247 E16.13344
G1 X111.426 Y80.24 E16.19845
G1 X112.197 Y80.419 E16.23794
G1 X113.163 Y80.515 E16.28637
G1 X114.461 Y80.944 E16.35457
G1 X114.666 Y81.035 E16.36576
G1 X115.311 Y81.279 E16.40017
G1 X116.024 Y81.603 E16.43924
G1 X116.221 Y81.715 E16.45055
G1 X116.873 Y82.045 E16.487
G1 X117.58 Y82.47 E16.52816
G1 X118.361 Y83.078 E16.57754
G1 X119.487 Y84.129 E16.65438
G1 X120.073 Y84.966 E16.70536
G1 X120.41 Y85.776 E16.74913
G1 X120.625 Y86.974 E16.80985
G1 X120.39 Y88.675 E16.89552
G1 X120.33 Y89.191 E16.92144
G1 X119.785 Y91.973 E17.06287
G1 X119.176 Y94.684 E17.20149
G1 X119.083 Y95.219 E17.22858
G1 X118.479 Y97.191 E17.33148
G1 X117.916 Y98.438 E17.39974
G1 X117.777 Y98.676 E17.41349
G1 X118.023 Y98.95 E17.43186
G1 X118.31 Y99.396 E17.45832
G1 X118.633 Y100.485 E17.51499
G1 X118.602 Y101.139 E17.54765
G1 X118.561 Y101.379 E17.5598
G1 X118.576 Y101.953 E17.58845
G1 X118.424 Y102.97 E17.63975
G1 X118.236 Y103.747 E17.67963
G1 X117.836 Y104.565 E17.72506
G1 X118.279 Y105.753 E17.78832
G1 X118.767 Y106.602 E17.83717
G1 X119.121 Y107.808 E17.89988
G1 X119.26 Y108.53 E17.93656
G1 X119.468 Y109.353 E17.97891
G1 X120.109 Y109.352 E18.01089
G1 X120.844 Y109.612 E18.04979
G1 X121.543 Y110.054 E18.09105
G1 X122.096 Y110.539 E18.12775
G1 X122.599 Y111.267 E18.17189
G1 X122.846 Y112.12 E18.2162
G1 X122.924 Y113.127 E18.26659
G1 X122.647 Y115.01 E18.36154
G1 X122.346 Y115.981 E18.41226
G1 X122.213 Y116.848 E18.45602
G1 X121.879 Y117.761 E18.50452
G1 X121.803 Y118.179 E18.52572
G1 X121.76 Y118.735 E18.55354
G1 X121.573 Y119.758 E18.60542
G1 X121.311 Y120.431 E18.64145
G1 X121.036 Y121.217 E18.683
G1 X120.314 Y122.611 E18.76132
G1 X119.9 Y123.208 E18.79756
G1 X119.431 Y123.966 E18.84203
G1 X118.849 Y124.758 E18.89107
G1 X118.56 Y125.049 E18.91153
G1 X118.79 Y125.584 E18.94058
G1 X119.004 Y127.509 E19.03721
G1 X118.993 Y128.952 E19.10921
G1 X118.796 Y129.804 E19.15283
G1 X118.396 Y130.582 E19.19648
G1 X117.847 Y131.229 E19.23881
G1 X117.252 Y131.638 E19.27483
G1 X117.724 Y132.441 E19.3213
G1 X117.866 Y133.123 E19.35606
G1 X117.906 Y133.949 E19.39732
G1 X117.698 Y134.812 E19.4416
G1 X117.388 Y135.661 E19.4867
G1 X116.946 Y136.535 E19.53556
G1 X116.36 Y137.393 E19.5874
G1 X115.831 Y138.001 E19.6276
G1 X114.808 Y138.883 E19.69499
G1 X114.043 Y139.374 E19.74034
G1 X113.263 Y139.754 E19.78363
G1 X112.137 Y140.134 E19.84292
G1 X111.363 Y140.286 E19.88227
G1 X110.026 Y140.36 E19.94908
G1 X109.046 Y140.274 E19.99816
G1 X108.271 Y140.114 E20.03764
G1 X107.118 Y139.71 E20.09859
G1 X106.431 Y139.367 E20.1369
G1 X105.346 Y138.631 E20.20231
G1 X104.743 Y138.09 E20.24273
G1 X104.005 Y137.23 E20.29926
G1 X103.445 Y136.366 E20.35063
G1 X102.878 Y135.208 E20.41496
G1 X102.721 Y134.166 E20.46753
G1 X102.897 Y133.197 E20.51666
G1 X103.219 Y132.539 E20.55321
G1 X102.821 Y132.255 E20.5776
G1 X102.203 Y131.592 E20.62282
G1 X101.775 Y130.846 E20.66573
G1 X101.319 Y129.213 E20.75032
G1 X100.874 Y127.501 E20.83857
G1 X100.88 Y126.594 E20.88382
G1 X101.071 Y125.68 E20.93041
G1 X101.485 Y124.951 E20.97223
G1 X101.207 Y124.663 E20.9922
G1 X100.636 Y123.892 E21.04007
G1 X100.189 Y123.196 E21.08134
G1 X99.636 Y122.407 E21.1294
G1 X99.174 Y121.545 E21.1782
G1 X98.452 Y119.591 E21.28212
G1 X98.311 Y117.993 E21.36216
G1 X98.363 Y116.881 E21.4177
G1 X98.306 Y116.414 E21.44117
G1 X98.279 Y115.478 E21.48789
G1 X97.993 Y114.752 E21.52682
G1 X97.896 Y114.229 E21.55335
G1 X97.647 Y113.824 E21.57707
G1 X96.976 Y112.408 E21.65525
G1 X96.78 Y111.721 E21.69089
G1 X96.758 Y110.671 E21.74328
G1 X96.956 Y109.551 E21.80003
G1 X97.315 Y108.672 E21.8474
G1 X97.472 Y108.451 E21.86092
G1 X98.199 Y107.723 E21.91225
G1 X99.125 Y107.331 E21.96242
G1 X100.134 Y107.186 E22.01328
G1 X101.034 Y107.29 E22.05848
G1 X101.257 Y107.35 E22.07
G1 X101.502 Y106.549 E22.11179
G1 X101.974 Y105.742 E22.15843
G1 X102.348 Y104.732 E22.21216
G1 X102.427 Y104.593 E22.22014
G1 X101.981 Y103.667 E22.27142
G1 X101.791 Y102.808 E22.31531
G1 X101.642 Y101.748 E22.36871
G1 X101.678 Y101.28 E22.39213
G1 X101.633 Y100.724 E22.41996
G1 X101.7 Y100.098 E22.45137
G1 X101.866 Y99.569 E22.47903
G1 X102.309 Y98.832 E22.52193
G1 X102.465 Y98.666 E22.53329
G1 X102.289 Y98.356 E22.55108
G1 X101.782 Y97.226 E22.61287
G1 X101.107 Y94.956 E22.73102
G1 X101.06 Y94.64 E22.74696
G1 X100.451 Y91.926 E22.88573
G1 X99.882 Y88.955 E23.03665
G1 X99.848 Y88.638 E23.05255
G1 X99.619 Y86.968 E23.13665
G1 X99.857 Y85.727 E23.19969
G1 X100.195 Y84.926 E23.24306
G1 X100.83 Y84.085 E23.29564
G0 F3600 X101.149 Y84.326
G1 F1800 X101.715 Y83.77 E23.33522
G1 X102.187 Y83.347 E23.36684
G1 X102.92 Y82.781 E23.41305
G1 X103.684 Y82.332 E23.45726
G1 X104.245 Y82.052 E23.48854
G1 X104.509 Y81.905 E23.50361
G1 X105.143 Y81.625 E23.53819
G1 X105.747 Y81.4 E23.57035
G1 X106.008 Y81.289 E23.5845
G1 X107.226 Y80.9 E23.64829
G1 X108.118 Y80.814 E23.693
G1 X108.867 Y80.64 E23.73136
G1 X110.123 Y80.647 E23.79402
G1 X111.379 Y80.64 E23.85668
G1 X112.128 Y80.814 E23.89505
G1 X113.079 Y80.909 E23.94273
G1 X114.299 Y81.31 E24.0068
G1 X114.505 Y81.401 E24.01803
G1 X115.146 Y81.643 E24.05222
G1 X115.826 Y81.951 E24.08946
G1 X116.023 Y82.063 E24.10077
G1 X116.668 Y82.389 E24.13682
G1 X117.334 Y82.786 E24.1755
G1 X118.115 Y83.394 E24.22488
G1 X119.183 Y84.392 E24.29781
G1 X119.721 Y85.161 E24.34463
G1 X120.024 Y85.888 E24.38393
G1 X120.22 Y86.983 E24.43942
G1 X119.994 Y88.62 E24.52187
G1 X119.937 Y89.114 E24.54668
G1 X119.395 Y91.885 E24.68754
G1 X118.782 Y94.615 E24.82714
G1 X118.689 Y95.15 E24.85423
G1 X118.097 Y97.073 E24.95461
G1 X117.57 Y98.237 E25.01836
G1 X117.285 Y98.726 E25.04659
G1 X117.725 Y99.217 E25.07949
G1 X117.943 Y99.565 E25.09997
G1 X118.23 Y100.531 E25.15025
