; generated by PrusaSlicer 2.6.0+win64 on 2023-07-24 at 03:33:54 UTC

; 

; external perimeters extrusion width = 0.42mm
; perimeters extrusion width = 0.45mm
; infill extrusion width = 0.45mm
; solid infill extrusion width = 0.50mm
; top infill extrusion width = 0.42mm
; first layer extrusion width = 0.56mm

M201 X2500 Y2500 Z800 E2500 ; sets maximum accelerations, mm/sec^2
M203 X250 Y250 Z8 E80 ; sets maximum feedrates, mm / sec
M204 S2500 T2500 ; sets acceleration (S) and retract acceleration (R), mm/sec^2
M205 X10.00 Y10.00 Z2.00 E10.00 ; sets the jerk limits, mm/sec
M205 S0 T0 ; sets the minimum extruding and travel feed rate, mm/sec
;TYPE:Custom
G90 ; use absolute coordinates
M83 ; extruder relative mode
M104 S215 ; set extruder temp
M140 S60 ; set bed temp
M190 S60 ; wait for bed temp
M109 S215 ; wait for extruder temp
G28                                        ; move X/Y/Z to min endstops
G1 Z0.28                                   ; lift nozzle a bit 
G92 E0 
G1 Y3 F1800                                    ; zero the extruded length 
G1 X60  E25 F500                       ; Extrude 25mm of filament in a 5cm line. 
G92 E0                                     ; zero the extruded length again 
G1 E-2 F500                                ; Retract a little 
G1 X70 F4000                              ; Quickly wipe away from the filament line
M117
G21 ; set units to millimeters
G90 ; use absolute coordinates
M82 ; use absolute distances for extrusion
G92 E0
M107
;LAYER_CHANGE
;Z:0.28
;HEIGHT:0.28
; BEFORE_LAYER_CHANGE 0 @ 0.28mm
G1 E-2 F4800
G92 E0
G1 Z.28 F7200
; AFTER_LAYER_CHANGE 0 @ 0.28mm
G1 X116.974 Y113.433
G1 E2 F4800
;TYPE:External perimeter
;WIDTH:0.56
G1 F3000
G1 X118.481 Y116.194 E2.18305
G1 X119.538 Y118.074 E2.30856
G1 X120.517 Y119.749 E2.42147
G1 X121.352 Y121.116 E2.51469
G1 X121.675 Y121.706 E2.55383
G1 X121.868 Y122.229 E2.58627
G1 X121.987 Y122.779 E2.61902
G1 X122.026 Y123.343 E2.65192
G1 X122.016 Y123.613 E2.66764
G1 X121.934 Y124.176 E2.70075
G1 X121.782 Y124.697 E2.73233
G1 X120.882 Y126.681 E2.85911
G1 X115.134 Y139.136 E3.65739
G1 X112.919 Y138.113 E3.79938
G1 X119.481 Y123.888 E4.71104
G1 X119.552 Y123.654 E4.72527
G1 X119.584 Y123.426 E4.73867
G1 X119.573 Y123.126 E4.75614
G1 X119.527 Y122.911 E4.76894
G1 X119.445 Y122.696 E4.78233
G1 X118.42 Y120.998 E4.89775
G1 X117.326 Y119.125 E5.02398
G1 X116.862 Y119.221 E5.05155
G1 X116.795 Y119.786 E5.08466
G1 X116.651 Y120.321 E5.1169
G1 X116.432 Y120.804 E5.14776
G1 X116.138 Y121.235 E5.17812
G1 X115.77 Y121.614 E5.20886
G1 X115.313 Y121.958 E5.24215
G1 X115.683 Y124.002 E5.36303
G1 X115.678 Y124.331 E5.38218
G1 X115.616 Y124.623 E5.39955
G1 X115.567 Y124.756 E5.4078
G1 X115.415 Y125.034 E5.42624
G1 X115.212 Y125.277 E5.44467
G1 X114.982 Y125.463 E5.46188
G1 X114.701 Y125.609 E5.48031
G1 X114.404 Y125.697 E5.49834
G1 X114.088 Y125.725 E5.5168
G1 X113.777 Y125.689 E5.53502
G1 X113.492 Y125.599 E5.55241
G1 X113.214 Y125.447 E5.57085
G1 X113.101 Y125.361 E5.57911
G1 X112.879 Y125.135 E5.59755
G1 X112.71 Y124.876 E5.61555
G1 X112.593 Y124.588 E5.63364
G1 X112.258 Y122.906 E5.73345
G1 X111.51 Y122.982 E5.7772
G1 X110.759 Y123.026 E5.82098
G1 X110 Y123.041 E5.86516
G1 X109.241 Y123.026 E5.90934
G1 X108.49 Y122.982 E5.95312
G1 X107.742 Y122.906 E5.99687
G1 X107.406 Y124.595 E6.09709
G1 X107.359 Y124.729 E6.10535
G1 X107.212 Y125.01 E6.12381
G1 X107.013 Y125.257 E6.14227
G1 X106.909 Y125.353 E6.15051
G1 X106.642 Y125.535 E6.16931
G1 X106.515 Y125.596 E6.17751
G1 X106.223 Y125.689 E6.19534
G1 X106.058 Y125.716 E6.20507
G1 X105.912 Y125.725 E6.21358
G1 X105.596 Y125.697 E6.23204
G1 X105.292 Y125.608 E6.25047
G1 X105.164 Y125.548 E6.2587
G1 X104.899 Y125.375 E6.27712
G1 X104.673 Y125.153 E6.29556
G1 X104.588 Y125.04 E6.30379
G1 X104.444 Y124.778 E6.32119
G1 X104.343 Y124.466 E6.34027
G1 X104.31 Y124.152 E6.35864
G1 X104.315 Y124.009 E6.36697
G1 X104.687 Y121.958 E6.48828
G1 X104.229 Y121.614 E6.52161
G1 X103.862 Y121.235 E6.55231
G1 X103.568 Y120.804 E6.58267
G1 X103.349 Y120.321 E6.61353
G1 X103.205 Y119.786 E6.64577
G1 X103.138 Y119.221 E6.67888
G1 X102.674 Y119.125 E6.70645
G1 X101.58 Y120.998 E6.83268
G1 X100.552 Y122.701 E6.94844
G1 X100.446 Y123.015 E6.96773
G1 X100.412 Y123.335 E6.98646
G1 X100.446 Y123.65 E7.0049
G1 X100.519 Y123.888 E7.01939
G1 X107.081 Y138.113 E7.93105
G1 X104.866 Y139.136 E8.07304
G1 X99.118 Y126.681 E8.87132
G1 X98.218 Y124.697 E8.9981
G1 X98.066 Y124.176 E9.02968
G1 X97.985 Y123.618 E9.06249
G1 X97.983 Y123.082 E9.09368
G1 X98.013 Y122.783 E9.11117
G1 X98.132 Y122.229 E9.14415
G1 X98.325 Y121.706 E9.17659
G1 X98.648 Y121.116 E9.21573
G1 X99.483 Y119.749 E9.30895
G1 X100.462 Y118.075 E9.4218
G1 X101.519 Y116.193 E9.54741
G1 X103.026 Y113.433 E9.73041
G1 X102.274 Y112.892 E9.78432
G1 X98.865 Y118.663 E10.17438
G1 X97.857 Y120.334 E10.28795
G1 X97.523 Y120.747 E10.31886
G1 X97.142 Y121.126 E10.35013
G1 X96.724 Y121.461 E10.3813
G1 X96.272 Y121.75 E10.41252
G1 X95.791 Y121.989 E10.44378
G1 X95.303 Y122.17 E10.47407
G1 X81.452 Y125.656 E11.30526
G1 X80.859 Y123.29 E11.44721
G1 X94.548 Y119.851 E12.26859
G1 X94.945 Y119.694 E12.29343
G1 X95.189 Y119.556 E12.30974
G1 X95.415 Y119.394 E12.32592
G1 X95.71 Y119.116 E12.34951
G1 X95.893 Y118.888 E12.36652
G1 X100.444 Y111.193 E12.88679
G1 X100.028 Y110.704 E12.92415
G1 X99.46 Y109.968 E12.97825
G1 X95.076 Y113.11 E13.29213
G1 X93.77 Y114.021 E13.3848
G1 X93.53 Y114.144 E13.40049
G1 X93.263 Y114.251 E13.41723
G1 X92.982 Y114.336 E13.43431
G1 X92.697 Y114.396 E13.45126
G1 X92.409 Y114.43 E13.46814
G1 X92.12 Y114.439 E13.48497
G1 X91.831 Y114.422 E13.50182
G1 X91.544 Y114.381 E13.51869
G1 X91.261 Y114.313 E13.53563
G1 X90.982 Y114.221 E13.55273
G1 X90.719 Y114.107 E13.56941
G1 X90.485 Y113.98 E13.5849
G1 X88.962 Y112.881 E13.6942
G1 X79.663 Y106.027 E14.36647
G1 X81.111 Y104.064 E14.50842
G1 X91.685 Y111.856 E15.2728
G1 X91.858 Y111.946 E15.28415
G1 X92.083 Y111.999 E15.2976
G1 X92.375 Y111.977 E15.31464
G1 X92.615 Y111.874 E15.32984
G1 X98.243 Y107.838 E15.73287
G1 X97.851 Y106.87 E15.79365
G1 X97.688 Y106.384 E15.82348
G1 X94.483 Y106.738 E16.01113
G1 X93.12 Y106.864 E16.09079
G1 X92.847 Y106.848 E16.1067
G1 X92.276 Y106.743 E16.14049
G1 X91.999 Y106.655 E16.1574
G1 X91.732 Y106.544 E16.17423
G1 X91.474 Y106.412 E16.1911
G1 X91.229 Y106.259 E16.20791
G1 X90.997 Y106.085 E16.22479
G1 X90.78 Y105.891 E16.24173
G1 X90.578 Y105.678 E16.25881
G1 X90.399 Y105.453 E16.27554
G1 X90.251 Y105.23 E16.29112
G1 X89.734 Y104.209 E16.35772
G1 X86.707 Y97.957 E16.76196
G1 X86.532 Y97.461 E16.79257
G1 X86.465 Y97.207 E16.80786
G1 X86.371 Y96.672 E16.83947
G1 X86.337 Y96.135 E16.87078
G1 X86.361 Y95.593 E16.90235
G1 X86.395 Y95.332 E16.91767
G1 X86.505 Y94.817 E16.94832
G1 X91.17 Y80.847 E17.80543
G1 X93.483 Y81.622 E17.94739
G1 X88.868 Y95.422 E18.7942
G1 X88.804 Y95.712 E18.81148
G1 X88.775 Y96.108 E18.83459
G1 X88.793 Y96.381 E18.85051
G1 X88.841 Y96.652 E18.86653
G1 X88.972 Y97.051 E18.89097
G1 X92.306 Y103.915 E19.33505
G1 X92.424 Y104.085 E19.34709
G1 X92.612 Y104.253 E19.36176
G1 X92.911 Y104.39 E19.3809
G1 X93.195 Y104.427 E19.39757
G1 X97.171 Y103.987 E19.63037
G1 X97.114 Y103.214 E19.67548
G1 X97.098 Y102.579 E19.71245
G1 X97.114 Y101.936 E19.74988
G1 X97.16 Y101.284 E19.78792
G1 X97.238 Y100.622 E19.82671
G1 X97.347 Y99.95 E19.86633
G1 X97.486 Y99.266 E19.90695
G1 X97.656 Y98.571 E19.94859
G1 X97.857 Y97.863 E19.99142
G1 X98.087 Y97.144 E20.03535
G1 X98.346 Y96.412 E20.08054
G1 X98.633 Y95.672 E20.12673
G1 X99.293 Y94.159 E20.22279
G1 X100.058 Y92.623 E20.32265
G1 X100.476 Y91.857 E20.37343
G1 X101.385 Y90.334 E20.47665
G1 X101.87 Y89.593 E20.52819
G1 X102.375 Y88.868 E20.57961
G1 X102.898 Y88.167 E20.63051
G1 X103.438 Y87.496 E20.68063
G1 X103.993 Y86.86 E20.72975
G1 X104.562 Y86.264 E20.7777
G1 X105.142 Y85.715 E20.82418
G1 X105.732 Y85.218 E20.86907
G1 X106.331 Y84.778 E20.91232
G1 X106.936 Y84.398 E20.9539
G1 X107.545 Y84.084 E20.99377
G1 X108.157 Y83.837 E21.03218
G1 X108.771 Y83.66 E21.06937
G1 X109.386 Y83.552 E21.10571
G1 X110 Y83.516 E21.1415
G1 X110.614 Y83.552 E21.17729
G1 X111.229 Y83.66 E21.21363
G1 X111.843 Y83.837 E21.25082
G1 X112.455 Y84.084 E21.28923
G1 X113.064 Y84.398 E21.3291
G1 X113.669 Y84.778 E21.37068
G1 X114.268 Y85.218 E21.41393
G1 X114.858 Y85.715 E21.45882
G1 X115.439 Y86.264 E21.50534
G1 X116.007 Y86.86 E21.55325
G1 X116.562 Y87.496 E21.60237
G1 X117.102 Y88.167 E21.65249
G1 X117.625 Y88.868 E21.70339
G1 X118.131 Y89.593 E21.75484
G1 X118.615 Y90.334 E21.80635
G1 X119.524 Y91.858 E21.90962
G1 X119.942 Y92.623 E21.96035
G1 X120.707 Y94.159 E22.06021
G1 X121.367 Y95.672 E22.15627
G1 X121.654 Y96.412 E22.20246
G1 X122.143 Y97.863 E22.29157
G1 X122.344 Y98.571 E22.3344
G1 X122.514 Y99.266 E22.37604
G1 X122.653 Y99.95 E22.41666
G1 X122.762 Y100.622 E22.45628
G1 X122.84 Y101.284 E22.49507
G1 X122.886 Y101.936 E22.53311
G1 X122.902 Y102.579 E22.57054
G1 X122.886 Y103.214 E22.60751
G1 X122.829 Y103.987 E22.65262
G1 X126.805 Y104.427 E22.88542
G1 X127.083 Y104.391 E22.90173
G1 X127.321 Y104.293 E22.91671
G1 X127.524 Y104.141 E22.93147
G1 X127.692 Y103.92 E22.94763
G1 X131.026 Y97.054 E23.39181
G1 X131.127 Y96.775 E23.40908
G1 X131.207 Y96.385 E23.43225
G1 X131.224 Y96.112 E23.44817
G1 X131.212 Y95.838 E23.46413
G1 X131.133 Y95.426 E23.48854
G1 X126.517 Y81.622 E24.33559
G1 X128.83 Y80.847 E24.47755
G1 X133.495 Y94.817 E25.33466
G1 X133.605 Y95.332 E25.36531
G1 X133.639 Y95.593 E25.38063
G1 X133.664 Y96.135 E25.41221
G1 X133.629 Y96.672 E25.44353
G1 X133.535 Y97.207 E25.47514
G1 X133.468 Y97.461 E25.49043
G1 X133.293 Y97.957 E25.52104
G1 X130.266 Y104.209 E25.92528
G1 X129.75 Y105.23 E25.99185
G1 X129.601 Y105.453 E26.00746
G1 X129.422 Y105.678 E26.02419
G1 X129.22 Y105.891 E26.04127
G1 X129.003 Y106.085 E26.05821
G1 X128.771 Y106.259 E26.07509
G1 X128.526 Y106.412 E26.0919
G1 X128.268 Y106.544 E26.10877
G1 X128.001 Y106.655 E26.1256
G1 X127.724 Y106.743 E26.14251
G1 X127.44 Y106.807 E26.15945
G1 X127.153 Y106.848 E26.17632
G1 X126.88 Y106.864 E26.19223
G1 X125.518 Y106.738 E26.27183
G1 X122.312 Y106.384 E26.45954
G1 X122.149 Y106.87 E26.48937
G1 X121.758 Y107.838 E26.55012
G1 X127.385 Y111.874 E26.95311
G1 X127.625 Y111.977 E26.96831
G1 X127.917 Y111.999 E26.98535
G1 X128.142 Y111.946 E26.9988
G1 X128.315 Y111.856 E27.01015
G1 X138.889 Y104.064 E27.77453
G1 X140.337 Y106.027 E27.91648
G1 X131.038 Y112.881 E28.58875
G1 X129.516 Y113.98 E28.698
G1 X129.281 Y114.107 E28.71355
G1 X129.018 Y114.221 E28.73023
G1 X128.739 Y114.313 E28.74733
G1 X128.456 Y114.381 E28.76427
G1 X128.169 Y114.422 E28.78114
G1 X127.88 Y114.439 E28.79799
G1 X127.591 Y114.43 E28.81482
G1 X127.303 Y114.396 E28.8317
G1 X127.018 Y114.336 E28.84865
G1 X126.737 Y114.251 E28.86573
G1 X126.47 Y114.143 E28.88249
G1 X126.23 Y114.021 E28.89816
G1 X124.924 Y113.11 E28.99083
G1 X120.54 Y109.968 E29.30471
G1 X119.972 Y110.704 E29.35881
G1 X119.556 Y111.193 E29.39617
G1 X124.107 Y118.888 E29.91644
G1 X124.29 Y119.116 E29.93345
G1 X124.585 Y119.394 E29.95704
G1 X124.811 Y119.556 E29.97322
G1 X125.055 Y119.694 E29.98953
G1 X125.452 Y119.851 E30.01437
G1 X139.141 Y123.29 E30.83575
G1 X138.548 Y125.656 E30.9777
G1 X124.697 Y122.17 E31.80889
G1 X124.209 Y121.989 E31.83918
G1 X123.728 Y121.75 E31.87044
G1 X123.276 Y121.461 E31.90166
G1 X122.858 Y121.126 E31.93283
G1 X122.477 Y120.747 E31.9641
G1 X122.143 Y120.334 E31.99501
G1 X121.135 Y118.663 E32.10858
G1 X117.726 Y112.892 E32.49864
G1 X117.023 Y113.398 E32.54905
G1 X116.574 Y113.446 F7200
G1 X116.346 Y113.269
;TYPE:Perimeter
G1 F3000
G1 X116.324 Y113.285 E32.55063
G1 X118.043 Y116.436 E32.75951
G1 X119.104 Y118.323 E32.88549
G1 X120.088 Y120.006 E32.99894
G1 X120.919 Y121.367 E33.09174
G1 X121.219 Y121.914 E33.12805
G1 X121.387 Y122.369 E33.15628
G1 X121.49 Y122.849 E33.18485
G1 X121.526 Y123.351 E33.21414
G1 X121.518 Y123.568 E33.22678
G1 X121.445 Y124.07 E33.2563
G1 X121.312 Y124.523 E33.28378
G1 X120.427 Y126.473 E33.4084
G1 X114.89 Y138.473 E34.17749
G1 X113.583 Y137.869 E34.26128
G1 X119.949 Y124.066 E35.14586
G1 X120.042 Y123.763 E35.1643
G1 X120.086 Y123.452 E35.18258
G1 X120.071 Y123.064 E35.20518
G1 X120.008 Y122.769 E35.22273
G1 X119.897 Y122.477 E35.24091
G1 X118.85 Y120.742 E35.35884
G1 X117.576 Y118.563 E35.50573
G1 X116.408 Y118.804 E35.57513
G1 X116.303 Y119.691 E35.62711
G1 X116.179 Y120.152 E35.65489
G1 X115.994 Y120.558 E35.68085
G1 X115.749 Y120.918 E35.70619
G1 X115.439 Y121.238 E35.73212
G1 X114.766 Y121.743 E35.78109
G1 X115.183 Y124.043 E35.91712
G1 X115.179 Y124.275 E35.93062
G1 X115.111 Y124.549 E35.94705
G1 X115 Y124.751 E35.96046
G1 X114.852 Y124.928 E35.97389
G1 X114.717 Y125.037 E35.98399
G1 X114.513 Y125.144 E35.9974
G1 X114.31 Y125.203 E36.0097
G1 X113.998 Y125.219 E36.02788
G1 X113.689 Y125.137 E36.04648
G1 X113.486 Y125.026 E36.05994
G1 X113.27 Y124.82 E36.07731
G1 X113.155 Y124.644 E36.08954
G1 X113.074 Y124.444 E36.1021
G1 X112.659 Y122.362 E36.22565
G1 X111.47 Y122.484 E36.29521
G1 X110.74 Y122.527 E36.33777
G1 X110 Y122.541 E36.38084
G1 X109.26 Y122.527 E36.42391
G1 X108.53 Y122.484 E36.46647
G1 X107.341 Y122.362 E36.53603
G1 X106.922 Y124.463 E36.66071
G1 X106.792 Y124.735 E36.67825
G1 X106.598 Y124.96 E36.69554
G1 X106.329 Y125.131 E36.71409
G1 X106.002 Y125.219 E36.7338
G1 X105.69 Y125.203 E36.75198
G1 X105.407 Y125.11 E36.76932
G1 X105.214 Y124.983 E36.78277
G1 X105.05 Y124.822 E36.79614
G1 X104.905 Y124.579 E36.81261
G1 X104.835 Y124.361 E36.82593
G1 X104.813 Y124.064 E36.84326
G1 X105.234 Y121.743 E36.98053
G1 X104.561 Y121.238 E37.0295
G1 X104.251 Y120.918 E37.05543
G1 X104.006 Y120.558 E37.08077
G1 X103.821 Y120.152 E37.10673
G1 X103.697 Y119.691 E37.13451
G1 X103.592 Y118.804 E37.18649
G1 X102.424 Y118.563 E37.25589
G1 X101.15 Y120.742 E37.40278
G1 X100.096 Y122.489 E37.52152
G1 X99.955 Y122.908 E37.54725
G1 X99.909 Y123.335 E37.57224
G1 X99.954 Y123.752 E37.59665
G1 X100.051 Y124.067 E37.61583
G1 X106.418 Y137.869 E38.50038
G1 X105.11 Y138.473 E38.58422
G1 X99.573 Y126.473 E39.35331
G1 X98.688 Y124.523 E39.47793
G1 X98.555 Y124.07 E39.50541
G1 X98.484 Y123.581 E39.53417
G1 X98.483 Y123.106 E39.56181
G1 X98.507 Y122.86 E39.57619
G1 X98.613 Y122.369 E39.60542
G1 X98.781 Y121.914 E39.63365
G1 X99.081 Y121.367 E39.66996
G1 X99.912 Y120.006 E39.76276
G1 X100.896 Y118.323 E39.87621
G1 X101.957 Y116.436 E40.00219
G1 X103.677 Y113.285 E40.2111
G1 X102.122 Y112.167 E40.32255
G1 X98.436 Y118.407 E40.74431
G1 X97.447 Y120.047 E40.85576
G1 X97.151 Y120.411 E40.88306
G1 X96.808 Y120.753 E40.91125
G1 X96.432 Y121.054 E40.93928
G1 X96.026 Y121.314 E40.96734
G1 X95.592 Y121.53 E40.99555
G1 X95.155 Y121.692 E41.02267
G1 X81.815 Y125.049 E41.82319
G1 X81.465 Y123.653 E41.90694
G1 X94.701 Y120.328 E42.70114
G1 X95.161 Y120.146 E42.72993
G1 X95.458 Y119.978 E42.74979
G1 X95.734 Y119.78 E42.76956
G1 X96.078 Y119.456 E42.79706
G1 X96.305 Y119.174 E42.81813
G1 X101.055 Y111.14 E43.36127
G1 X100.416 Y110.389 E43.41865
G1 X99.561 Y109.281 E43.5001
G1 X94.788 Y112.702 E43.84184
G1 X93.513 Y113.592 E43.93233
G1 X93.097 Y113.779 E43.95887
G1 X92.858 Y113.851 E43.9734
G1 X92.372 Y113.931 E44.00206
G1 X91.881 Y113.925 E44.03064
G1 X91.398 Y113.832 E44.05926
G1 X91.161 Y113.753 E44.0738
G1 X90.751 Y113.556 E44.10027
G1 X89.256 Y112.477 E44.20756
G1 X80.362 Y105.921 E44.85057
G1 X81.217 Y104.762 E44.93438
G1 X91.42 Y112.282 E45.67199
G1 X91.683 Y112.418 E45.68922
G1 X92.043 Y112.503 E45.71075
G1 X92.496 Y112.469 E45.73719
G1 X92.862 Y112.312 E45.76037
G1 X98.853 Y108.015 E46.18942
G1 X98.32 Y106.696 E46.27221
G1 X98.034 Y105.842 E46.32462
G1 X94.432 Y106.24 E46.53551
G1 X93.111 Y106.362 E46.61271
G1 X92.651 Y106.315 E46.63962
G1 X92.407 Y106.26 E46.65418
G1 X91.942 Y106.09 E46.68299
G1 X91.512 Y105.846 E46.71176
G1 X91.128 Y105.532 E46.74063
G1 X90.956 Y105.35 E46.7552
G1 X90.683 Y104.978 E46.78205
G1 X90.182 Y103.987 E46.84667
G1 X87.169 Y97.764 E47.24903
G1 X87.011 Y97.314 E47.27679
G1 X86.954 Y97.099 E47.28973
G1 X86.868 Y96.612 E47.31851
G1 X86.837 Y96.13 E47.34662
G1 X86.86 Y95.636 E47.3754
G1 X86.888 Y95.416 E47.38831
