;FLAVOR:Marlin
;TIME:6982
;Filament used: 12.8975m
;Layer height: 0.3
;MINX:65
;MINY:26.1
;MINZ:0.3
;MAXX:167
;MAXY:195.9
;MAXZ:11.99
;TARGET_MACHINE.NAME:Unknown
;Generated with Cura_SteamEngine 5.6.0
M140 S60
M105
M190 S60
M104 S200
M105
M109 S200
M82 ;absolute extrusion mode
G28 ;Home
G1 Z15.0 F6000 ;Move the platform down 15mm
;Prime the extruder
G92 E0
G1 F200 E3
G92 E0
G92 E0
G92 E0
G1 F1500 E-6.5
;LAYER_COUNT:23
;LAYER:0
M107
G0 F3600 X67.446 Y154.209 Z0.3
;TYPE:SKIRT
G1 F1500 E0
G1 F2400 X68.238 Y153.971 E0.04126
G1 X69.001 Y153.9 E0.07949
G1 X116.166 Y153.9 E2.43256
G1 X116.504 Y153.97 E2.44978
G1 X116.767 Y154.107 E2.46458
G1 X116.906 Y154.245 E2.47435
G1 X117.112 Y154.627 E2.496
G1 X117.166 Y154.9 E2.50988
G1 X117.166 Y159.3 E2.7294
G1 X119.1 Y159.3 E2.82589
G1 X119.1 Y154.9 E3.04541
G1 X119.17 Y154.562 E3.06263
G1 X119.307 Y154.299 E3.07742
G1 X119.445 Y154.16 E3.08719
G1 X119.827 Y153.954 E3.10885
G1 X120.1 Y153.9 E3.12273
G1 X163.103 Y153.905 E5.26816
G1 X163.802 Y153.979 E5.30323
G1 X164.553 Y154.21 E5.34243
G1 X165.212 Y154.564 E5.37975
G1 X165.844 Y155.084 E5.42058
G1 X166.33 Y155.69 E5.45933
G1 X166.691 Y156.347 E5.49673
G1 X166.929 Y157.135 E5.5378
G1 X167 Y157.899 E5.57608
G1 X166.995 Y192.003 E7.27754
G1 X166.921 Y192.702 E7.31261
G1 X166.691 Y193.451 E7.3517
G1 X166.312 Y194.147 E7.39123
G1 X165.81 Y194.749 E7.43034
G1 X165.21 Y195.23 E7.4687
G1 X164.554 Y195.591 E7.50606
G1 X163.762 Y195.829 E7.54732
G1 X162.999 Y195.9 E7.58555
G1 X120.1 Y195.9 E9.72579
G1 X119.762 Y195.83 E9.74301
G1 X119.499 Y195.693 E9.75781
G1 X119.36 Y195.555 E9.76758
G1 X119.154 Y195.173 E9.78923
G1 X119.1 Y194.9 E9.80311
G1 X119.1 Y190.5 E10.02263
G1 X117.166 Y190.5 E10.11912
G1 X117.167 Y194.9 E10.33864
G1 X117.097 Y195.238 E10.35586
G1 X116.96 Y195.501 E10.37065
G1 X116.822 Y195.64 E10.38042
G1 X116.44 Y195.846 E10.40208
G1 X116.167 Y195.9 E10.41596
G1 X68.897 Y195.895 E12.77427
G1 X68.198 Y195.821 E12.80934
G1 X67.447 Y195.59 E12.84854
G1 X66.788 Y195.236 E12.88586
G1 X66.158 Y194.717 E12.92658
G1 X65.654 Y194.098 E12.9664
G1 X65.29 Y193.409 E13.00528
G1 X65.071 Y192.662 E13.04412
G1 X65 Y191.901 E13.08225
G1 X65.005 Y157.797 E14.7837
G1 X65.079 Y157.097 E14.81882
G1 X65.31 Y156.347 E14.85797
G1 X65.664 Y155.688 E14.8953
G1 X66.184 Y155.056 E14.93613
G1 X66.79 Y154.57 E14.97488
G1 X67.446 Y154.209 E15.01224
G0 F3600 X67.605 Y154.579
G1 F2400 X68.315 Y154.365 E15.04923
G1 X69.001 Y154.3 E15.08361
G1 X116.166 Y154.3 E17.43668
G1 X116.41 Y154.359 E17.44921
G1 X116.562 Y154.45 E17.45805
G1 X116.723 Y154.72 E17.47373
G1 X116.766 Y154.9 E17.48296
G1 X116.766 Y159.7 E17.72244
G1 X119.5 Y159.7 E17.85884
G1 X119.5 Y154.9 E18.09831
G1 X119.559 Y154.656 E18.11083
G1 X119.65 Y154.504 E18.11967
G1 X119.92 Y154.343 E18.13535
G1 X120.1 Y154.3 E18.14459
G1 X163.061 Y154.303 E20.28792
G1 X163.723 Y154.373 E20.32113
G1 X164.395 Y154.58 E20.35621
G1 X164.99 Y154.899 E20.38989
G1 X165.56 Y155.368 E20.42672
G1 X165.979 Y155.883 E20.45984
G1 X166.321 Y156.505 E20.49526
G1 X166.535 Y157.214 E20.53221
G1 X166.6 Y157.899 E20.56653
G1 X166.597 Y191.961 E22.26589
G1 X166.527 Y192.623 E22.29911
G1 X166.32 Y193.296 E22.33423
G1 X165.98 Y193.921 E22.36973
G1 X165.53 Y194.461 E22.4048
G1 X165.017 Y194.879 E22.43781
G1 X164.395 Y195.221 E22.47323
G1 X163.685 Y195.435 E22.51022
G1 X162.999 Y195.5 E22.5446
G1 X120.1 Y195.5 E24.68484
G1 X119.856 Y195.441 E24.69736
G1 X119.704 Y195.35 E24.7062
G1 X119.543 Y195.08 E24.72189
G1 X119.5 Y194.9 E24.73112
G1 X119.5 Y190.1 E24.97059
G1 X116.766 Y190.1 E25.10699
G1 X116.767 Y194.9 E25.34646
G1 X116.708 Y195.144 E25.35899
G1 X116.617 Y195.296 E25.36783
G1 X116.347 Y195.457 E25.38351
G1 X116.167 Y195.5 E25.39274
G1 X68.939 Y195.497 E27.74896
G1 X68.277 Y195.427 E27.78217
G1 X67.605 Y195.22 E27.81725
G1 X67.01 Y194.901 E27.85093
G1 X66.441 Y194.432 E27.88772
G1 X65.992 Y193.88 E27.92322
G1 X65.663 Y193.257 E27.95837
G1 X65.465 Y192.584 E27.99337
G1 X65.4 Y191.901 E28.0276
G1 X65.403 Y157.839 E29.72696
G1 X65.473 Y157.176 E29.76022
G1 X65.68 Y156.505 E29.79525
G1 X65.999 Y155.91 E29.82893
G1 X66.468 Y155.34 E29.86576
G1 X66.983 Y154.921 E29.89888
G1 X67.605 Y154.579 E29.9343
G0 F3600 X67.758 Y154.951
G1 F2400 X68.394 Y154.759 E29.96744
G1 X69.001 Y154.7 E29.99787
G1 X116.166 Y154.7 E32.35094
G1 X116.285 Y154.739 E32.35718
G1 X116.366 Y154.9 E32.36618
G1 X116.366 Y159.9 E32.61563
G1 X116.327 Y160.019 E32.62188
G1 X116.166 Y160.1 E32.63087
G1 X112.1 Y160.1 E32.83372
G1 X112.1 Y169.7 E33.31267
G1 X115.834 Y169.7 E33.49896
G1 X115.715 Y169.661 E33.5052
G1 X115.634 Y169.5 E33.5142
G1 X115.634 Y160.3 E33.97319
G1 X115.673 Y160.181 E33.97943
G1 X115.834 Y160.1 E33.98842
G1 X119.9 Y160.1 E34.19128
G1 X119.9 Y154.9 E34.45071
G1 X119.939 Y154.781 E34.45695
G1 X120.1 Y154.7 E34.46595
G1 X163.019 Y154.701 E36.60718
G1 X163.644 Y154.767 E36.63854
G1 X164.242 Y154.951 E36.66975
G1 X164.764 Y155.231 E36.69931
G1 X165.274 Y155.651 E36.73227
G1 X165.669 Y156.136 E36.76347
G1 X165.949 Y156.658 E36.79303
G1 X166.141 Y157.293 E36.82612
G1 X166.2 Y157.899 E36.8565
G1 X166.199 Y191.919 E38.55376
G1 X166.133 Y192.544 E38.58512
G1 X165.949 Y193.141 E38.61629
G1 X165.648 Y193.695 E38.64774
G1 X165.249 Y194.174 E38.67884
G1 X164.764 Y194.569 E38.71005
G1 X164.242 Y194.849 E38.7396
G1 X163.606 Y195.041 E38.77275
G1 X162.999 Y195.1 E38.80317
G1 X120.1 Y195.1 E40.94341
G1 X119.981 Y195.061 E40.94966
G1 X119.9 Y194.9 E40.95865
G1 X119.9 Y189.7 E41.21808
G1 X116.166 Y189.7 E41.40437
G1 X116.285 Y189.739 E41.41062
G1 X116.366 Y189.9 E41.41961
G1 X116.367 Y194.9 E41.66906
G1 X116.328 Y195.019 E41.67531
G1 X116.167 Y195.1 E41.6843
G1 X68.981 Y195.099 E44.03842
G1 X68.356 Y195.033 E44.06977
G1 X67.758 Y194.849 E44.10099
G1 X67.236 Y194.569 E44.13054
G1 X66.724 Y194.147 E44.16364
G1 X66.33 Y193.662 E44.19482
G1 X66.036 Y193.105 E44.22624
G1 X65.859 Y192.506 E44.2574
G1 X65.8 Y191.901 E44.28773
G1 X65.801 Y157.881 E45.98499
G1 X65.867 Y157.255 E46.0164
G1 X66.051 Y156.658 E46.04757
G1 X66.331 Y156.136 E46.07712
G1 X66.751 Y155.626 E46.11008
G1 X67.236 Y155.231 E46.14129
G1 X67.758 Y154.951 E46.17084
G1 F1500 E39.67084
G0 F3600 X116.166 Y169.7
G1 F1500 E46.17084
G1 F2400 X116.285 Y169.739 E46.17709
G1 X116.366 Y169.9 E46.18608
G1 X116.367 Y179.9 E46.68498
G1 X116.328 Y180.019 E46.69123
G1 X116.167 Y180.1 E46.70022
G1 X112.1 Y180.1 E46.90312
G1 X112.1 Y189.7 E47.38207
G1 X115.834 Y189.7 E47.56836
G1 X115.715 Y189.661 E47.57461
G1 X115.634 Y189.5 E47.5836
G1 X115.634 Y180.3 E48.04259
G1 X115.673 Y180.181 E48.04884
G1 X115.834 Y180.1 E48.05783
G1 X119.9 Y180.1 E48.26068
G1 X119.9 Y169.7 E48.77954
G1 X116.166 Y169.7 E48.96583
G1 F1500 E42.46583
G0 F3600 X117.166 Y170.5
G1 F1500 E48.96583
G1 F2400 X117.167 Y179.3 E49.40486
G1 X119.1 Y179.3 E49.5013
G1 X119.1 Y170.5 E49.94033
G1 X117.166 Y170.5 E50.03682
G0 F3600 X116.766 Y170.1
G1 F2400 X116.767 Y179.7 E50.51577
G1 X119.5 Y179.7 E50.65212
G1 X119.5 Y170.1 E51.13106
G1 X116.766 Y170.1 E51.26746
G1 F1500 E44.76746
G0 F3600 X114.834 Y168.9
G1 F1500 E51.26746
G1 F2400 X114.834 Y160.9 E51.66659
G1 X112.9 Y160.9 E51.76307
G1 X112.9 Y168.9 E52.16219
G1 X114.834 Y168.9 E52.25868
G1 F1500 E45.75868
G0 F3600 X112.553 Y160.553
G0 X112.5 Y160.5
G1 F1500 E52.25868
G1 F2400 X112.5 Y169.3 E52.69772
G1 X115.234 Y169.3 E52.83412
G1 X115.234 Y160.5 E53.27315
G1 X112.5 Y160.5 E53.40955
G1 F1500 E46.90955
G0 F3600 X112.9 Y180.9
G1 F1500 E53.40955
G1 F2400 X112.9 Y188.9 E53.80867
G1 X114.834 Y188.9 E53.90516
G1 X114.834 Y180.9 E54.30428
G1 X112.9 Y180.9 E54.40077
G0 F3600 X112.5 Y180.5
G1 F2400 X112.5 Y189.3 E54.8398
G1 X115.234 Y189.3 E54.9762
G1 X115.234 Y180.5 E55.41524
G1 X112.5 Y180.5 E55.55164
G1 F1500 E49.05164
;MESH:Hinge_100x40_a270_printinplace.stl(2)
G0 F3600 X112.5 Y179.48
G0 X102.44 Y163.763
G0 X102.275 Y163.083
;TYPE:WALL-OUTER
G1 F1500 E55.55164
G1 F2400 X102.777 Y162.958 E55.57744
G1 X103.251 Y162.71 E55.60413
G1 X103.63 Y162.376 E55.62934
G1 X103.936 Y161.943 E55.65579
G1 X104.14 Y161.414 E55.68408
G1 X104.2 Y160.9 E55.70989
G1 X104.131 Y160.354 E55.73735
G1 X103.959 Y159.899 E55.76162
G1 X103.662 Y159.46 E55.78806
G1 X103.231 Y159.078 E55.81679
G1 X102.755 Y158.835 E55.84346
G1 X102.29 Y158.72 E55.86735
G1 X101.724 Y158.717 E55.89559
G1 X101.245 Y158.835 E55.92021
G1 X100.769 Y159.078 E55.94687
G1 X100.37 Y159.424 E55.97322
G1 X100.041 Y159.899 E56.00204
G1 X99.859 Y160.396 E56.02845
G1 X99.801 Y160.925 E56.055
G1 X99.862 Y161.424 E56.08008
G1 X100.057 Y161.932 E56.10723
G1 X100.359 Y162.366 E56.13361
G1 X100.743 Y162.706 E56.15919
G1 X101.201 Y162.948 E56.18504
G1 X101.735 Y163.084 E56.21253
G1 X102.275 Y163.083 E56.23947
G0 F3600 X102.075 Y163.083
G0 X102.075 Y163.785
G0 X72.267 Y163.785
G0 X72.267 Y163.084
G1 F2400 X72.755 Y162.965 E56.26453
G1 X73.257 Y162.706 E56.29271
G1 X73.65 Y162.356 E56.31897
G1 X73.94 Y161.938 E56.34435
G1 X74.138 Y161.424 E56.37183
G1 X74.199 Y160.925 E56.39691
G1 X74.141 Y160.396 E56.42346
G1 X73.959 Y159.899 E56.44987
G1 X73.662 Y159.46 E56.47631
G1 X73.231 Y159.078 E56.50504
G1 X72.755 Y158.835 E56.5317
G1 X72.29 Y158.72 E56.5556
G1 X71.724 Y158.717 E56.58384
G1 X71.245 Y158.835 E56.60845
G1 X70.769 Y159.078 E56.63512
G1 X70.363 Y159.43 E56.66192
G1 X70.041 Y159.899 E56.69031
G1 X69.87 Y160.349 E56.71432
G1 X69.801 Y160.925 E56.74327
G1 X69.86 Y161.414 E56.76784
G1 X70.041 Y161.901 E56.79376
G1 X70.338 Y162.34 E56.8202
G1 X70.769 Y162.722 E56.84894
G1 X71.245 Y162.965 E56.8756
G1 X71.736 Y163.084 E56.9008
G1 X72.267 Y163.084 E56.9273
G0 F3600 X72.067 Y163.084
G0 X72.067 Y163.785
G0 X74.846 Y188.9
G0 X74.519 Y190.222
G0 X73.616 Y191.241
G0 X72.441 Y191.763
G0 X72.276 Y191.083
G1 F2400 X72.755 Y190.965 E56.95191
G1 X73.231 Y190.722 E56.97857
G1 X73.63 Y190.376 E57.00492
G1 X73.959 Y189.901 E57.03375
G1 X74.141 Y189.404 E57.06015
G1 X74.2 Y188.898 E57.08557
G1 X74.138 Y188.376 E57.11179
G1 X73.94 Y187.862 E57.13927
G1 X73.656 Y187.451 E57.1642
G1 X73.257 Y187.094 E57.19091
G1 X72.768 Y186.839 E57.21842
G1 X72.267 Y186.716 E57.24416
G1 X71.736 Y186.716 E57.27065
G1 X71.245 Y186.835 E57.29586
G1 X70.769 Y187.078 E57.32252
G1 X70.37 Y187.424 E57.34887
G1 X70.041 Y187.899 E57.3777
G1 X69.87 Y188.349 E57.40171
G1 X69.801 Y188.925 E57.43065
G1 X69.86 Y189.414 E57.45523
G1 X70.041 Y189.901 E57.48115
G1 X70.356 Y190.362 E57.509
G1 X70.769 Y190.722 E57.53634
G1 X71.245 Y190.965 E57.563
G1 X71.71 Y191.08 E57.5869
G1 X72.276 Y191.083 E57.61514
G0 F3600 X72.076 Y191.082
G0 X72.076 Y191.785
G0 X73.008 Y191.561
G0 X73.762 Y191.112
G0 X86.906 Y177.795
G0 X86.87 Y177.094
G1 F2400 X87.378 Y177.069 E57.64051
G1 X87.861 Y176.928 E57.66561
G1 X88.3 Y176.675 E57.69089
G1 X88.688 Y176.312 E57.7174
G1 X88.96 Y175.898 E57.74211
G1 X89.14 Y175.413 E57.76792
G1 X89.201 Y174.9 E57.7937
G1 X89.141 Y174.39 E57.81932
G1 X88.961 Y173.903 E57.84522
G1 X88.7 Y173.504 E57.86901
G1 X88.301 Y173.126 E57.89643
G1 X87.867 Y172.875 E57.92144
G1 X87.379 Y172.732 E57.94681
G1 X86.842 Y172.707 E57.97363
G1 X86.343 Y172.802 E57.99897
G1 X85.91 Y172.99 E58.02252
G1 X85.486 Y173.303 E58.04882
G1 X85.154 Y173.702 E58.07471
G1 X84.928 Y174.159 E58.10015
G1 X84.813 Y174.656 E58.1256
G1 X84.813 Y175.145 E58.15
G1 X84.933 Y175.657 E58.17623
G1 X85.153 Y176.097 E58.20077
G1 X85.485 Y176.496 E58.22667
G1 X85.904 Y176.807 E58.2527
G1 X86.361 Y177.004 E58.27753
G1 X86.87 Y177.094 E58.30332
G0 F3600 X86.673 Y177.06
G0 X86.548 Y177.75
G0 X100.384 Y191.241
G0 X101.531 Y191.693
G0 X102.441 Y191.763
G0 X102.276 Y191.083
G1 F2400 X102.755 Y190.965 E58.32793
G1 X103.231 Y190.722 E58.35459
G1 X103.63 Y190.376 E58.38094
G1 X103.959 Y189.901 E58.40977
G1 X104.14 Y189.41 E58.43588
G1 X104.2 Y188.9 E58.4615
G1 X104.141 Y188.396 E58.48681
G1 X103.958 Y187.899 E58.51324
G1 X103.662 Y187.46 E58.53965
G1 X103.251 Y187.09 E58.56724
G1 X102.777 Y186.842 E58.59393
G1 X102.275 Y186.717 E58.61974
G1 X101.735 Y186.716 E58.64668
G1 X101.214 Y186.846 E58.67347
G1 X100.743 Y187.094 E58.70003
G1 X100.35 Y187.444 E58.72628
G1 X100.046 Y187.888 E58.75313
G1 X99.862 Y188.376 E58.77915
G1 X99.801 Y188.925 E58.80671
G1 X99.859 Y189.404 E58.83078
G1 X100.041 Y189.901 E58.85718
G1 X100.338 Y190.34 E58.88363
G1 X100.769 Y190.722 E58.91236
G1 X101.245 Y190.965 E58.93902
G1 X101.71 Y191.08 E58.96292
G1 X102.276 Y191.083 E58.99116
G0 F3600 X102.076 Y191.082
G0 X102.076 Y191.785
G0 X111.85 Y190.8
G0 X111.85 Y190.1
G1 F2400 X115.966 Y190.1 E59.19651
G1 X115.967 Y194.7 E59.426
G1 X69.014 Y194.699 E61.7685
G1 X68.451 Y194.643 E61.79672
G1 X67.93 Y194.488 E61.82384
G1 X67.449 Y194.228 E61.85112
G1 X67.022 Y193.878 E61.87867
G1 X66.672 Y193.451 E61.90621
G1 X66.412 Y192.97 E61.93349
G1 X66.257 Y192.448 E61.96066
G1 X66.201 Y191.894 E61.98844
G1 X66.201 Y157.914 E63.68371
G1 X66.257 Y157.351 E63.71193
G1 X66.412 Y156.831 E63.739
G1 X66.672 Y156.349 E63.76633
G1 X67.022 Y155.922 E63.79387
G1 X67.449 Y155.572 E63.82142
G1 X67.93 Y155.312 E63.84869
G1 X68.451 Y155.157 E63.87581
G1 X69.014 Y155.101 E63.90404
G1 X115.966 Y155.1 E66.24648
G1 X115.966 Y159.7 E66.47598
G1 X111.865 Y159.702 E66.68058
G1 X111.782 Y159.737 E66.68507
G1 X111.704 Y159.858 E66.69226
G1 X111.706 Y169.953 E67.1959
G1 X111.74 Y170.022 E67.19974
G1 X111.868 Y170.098 E67.20716
G1 X115.966 Y170.1 E67.41161
G1 X115.967 Y179.7 E67.89056
G1 X111.868 Y179.702 E68.09506
G1 X111.74 Y179.778 E68.10248
G1 X111.706 Y179.847 E68.10632
G1 X111.704 Y189.942 E68.60996
G1 X111.742 Y190.024 E68.61447
G1 X111.85 Y190.1 E68.62106
G0 F3600 X111.742 Y190.024
G0 X111.714 Y189.963
G0 X111 Y189.963
G0 X101.704 Y163.785
G0 X101.704 Y163.466
;TYPE:SKIN
G1 F2400 X102.333 Y163.459 E68.65244
G1 X102.908 Y163.315 E68.68202
G1 X103.425 Y163.049 E68.71102
G1 X103.877 Y162.667 E68.74055
G1 X104.289 Y162.104 E68.77535
G1 X104.516 Y161.478 E68.80858
G1 X104.585 Y160.897 E68.83777
G1 X104.496 Y160.247 E68.8705
G1 X104.317 Y159.768 E68.89601
G1 X103.98 Y159.25 E68.92684
G1 X103.527 Y158.825 E68.95783
G1 X102.979 Y158.517 E68.98919
G1 X102.324 Y158.335 E69.02311
G1 X101.653 Y158.342 E69.05659
G1 X101.11 Y158.476 E69.08449
G1 X100.512 Y158.797 E69.11835
G1 X100.052 Y159.213 E69.14929
G1 X99.682 Y159.771 E69.18269
G1 X99.48 Y160.358 E69.21367
G1 X99.423 Y160.931 E69.24239
G1 X99.496 Y161.523 E69.27215
G1 X99.73 Y162.127 E69.30447
G1 X100.087 Y162.632 E69.33532
G1 X100.552 Y163.036 E69.36605
G1 X101.081 Y163.31 E69.39578
G1 X101.704 Y163.466 E69.42782
G0 F3600 X101.704 Y163.785
G0 X88.693 Y177.187
G0 X73.616 Y191.241
G0 X72.631 Y191.653
G0 X71.601 Y191.772
G0 X71.676 Y191.465
G1 F2400 X72.347 Y191.458 E69.4613
G1 X72.89 Y191.324 E69.4892
G1 X73.488 Y191.003 E69.52306
G1 X73.948 Y190.587 E69.554
G1 X74.318 Y190.029 E69.5874
G1 X74.52 Y189.442 E69.61838
G1 X74.577 Y188.868 E69.64715
G1 X74.495 Y188.239 E69.6788
G1 X74.281 Y187.694 E69.70801
G1 X73.956 Y187.216 E69.73685
G1 X73.466 Y186.774 E69.76977
G1 X72.912 Y186.488 E69.80088
G1 X72.321 Y186.339 E69.83128
G1 X71.665 Y186.342 E69.86401
G1 X71.087 Y186.482 E69.89368
G1 X70.512 Y186.797 E69.92639
G1 X70.052 Y187.213 E69.95733
G1 X69.682 Y187.771 E69.99074
G1 X69.48 Y188.358 E70.02171
G1 X69.423 Y188.935 E70.05064
G1 X69.483 Y189.474 E70.07769
G1 X69.725 Y190.123 E70.11225
G1 X70.055 Y190.597 E70.14106
G1 X70.472 Y190.975 E70.16914
G1 X71.021 Y191.283 E70.20055
G1 X71.676 Y191.465 E70.23446
G0 F3600 X71.601 Y191.772
G0 X70.384 Y191.241
G0 X69.481 Y190.222
G0 X69.17 Y189.029
G0 X72.396 Y163.774
G0 X72.321 Y163.461
G1 F2400 X72.926 Y163.307 E70.26561
G1 X73.484 Y163.011 E70.29712
G1 X73.952 Y162.589 E70.32856
G1 X74.292 Y162.088 E70.35877
G1 X74.502 Y161.531 E70.38847
G1 X74.577 Y160.931 E70.41864
G1 X74.52 Y160.358 E70.44736
G1 X74.318 Y159.771 E70.47833
G1 X73.948 Y159.213 E70.51174
G1 X73.527 Y158.825 E70.5403
G1 X72.979 Y158.517 E70.57166
G1 X72.324 Y158.335 E70.60558
G1 X71.653 Y158.342 E70.63906
G1 X71.111 Y158.476 E70.66691
G1 X70.51 Y158.798 E70.70093
G1 X70.09 Y159.163 E70.72869
G1 X69.709 Y159.697 E70.76142
G1 X69.491 Y160.31 E70.79388
G1 X69.423 Y160.935 E70.82524
G1 X69.483 Y161.474 E70.8523
G1 X69.712 Y162.105 E70.88579
G1 X70.09 Y162.631 E70.9181
